/* XPM */
static const char *boring_texture_E[] = {
/* columns rows colors chars-per-pixel */
"128 128 61 2 ",
"FF c #000000",
"\/ c #FF00FF",
"<  c #53291F",
"fX c #F2D692",
"$. c #FABB67",
"dX c #CDB889",
"~~ c #62B2A9",
".. c #526667",
"%% c #040b45",
"ss c #012b4c",
"gg c #0d2d5a",
"zz c #08315c",
"Z  c #122662",
"L  c #0e426c",
"R  c #082e79",
"]  c #304c6d",
"T  c #084b77",
"X. c #0c6b83",
"o. c #175587",
"4. c #196598",
")( c #1d62a7",
"g. c #0b8bae",
"@. c #047ca4",
"?? c #0fc5d6",
"}. c #12e5da",
"OO c #13b9f0",
"-X c #04d8fe",
"|. c #1a98ce",
"6X c #549bd9",
"tX c #75dbf2",
"MX c #95f1fd",
"jX c #8adae8",
"&& c #352334",
"69 c #130932",
"11 c #050b42",
"ee c #090752",
"77 c #11104a",
"pp c #122054",
"ww c #15164e",
"nn c #091265",
"G  c #082276",
"*. c #073a82",
">. c #225085",
"<. c #094589",
"f. c #35629a",
"B. c #0c33a8",
",X c #0a53ef",
".X c #2684c2",
"W. c #2963b3",
"R. c #357fbb",
"oX c #388dc2",
"4X c #4e7fc8",
"&X c #2466ca",
"uX c #6bb1e3",
">X c #2776e5",
"NX c #86cef8",
"BX c #95caf6",
"SX c #b4e3fa",
"LX c #c8e6fe",
"IX c #d3e9ff",
"PX c #d2e7fe",
/* pixels /*
"\/\/\/IXIXIXIXIXIXIXIXIXIXIXIXIXIXIXIX\/\/\/\/\/\/\/\/\/\/\/\/\/\/\/\/\/\/\/\/\/\/\/\/\/\/\/\/\/\/\/\/\/\/\/\/\/\/\/\/\/\/\/\/\/\/\/\/\/\/\/\/\/\/\/\/\/\/\/\/\/\/\/\/\/\/\/\/\/\/\/\/\/\/\/\/\/\/\/\/\/\/\/\/\/\/\/\/\/f.f.f.f.f.f.f.B.f.f.f.B.f.B.B.B.B.\/\/\/",
"\/\/IXIXIXIXIXIXIXIXIXIXIXIXIXIXIXIXIXIXW.W.\/\/\/\/\/\/\/\/\/\/\/\/\/\/\/\/\/\/\/\/\/\/\/\/\/\/\/\/\/\/\/\/\/\/\/\/\/\/\/\/\/\/\/\/\/\/\/\/\/\/\/\/\/\/\/\/\/\/\/\/\/\/\/\/\/\/\/\/\/\/\/\/\/\/\/\/\/\/\/\/\/\/\/\/B.4Xf.f.f.f.f.f.f.f.f.f.f.f.f.f.B.B.B.B.\/\/",
"\/IXIXIXIXIXIXIXIXIXLXLXLXLXSXSXSXSXSXW.W.W.R W.uXuXuXuXuXuXuXuXuXuXuXuXuXuXuXuXuXuXjXjXjX6X6XuXuXuXuXuXuXuXuXuXuXuXuXuXuX6X6XuXuXuXuXuXuXuXuXuXuXuXuXuXuXuXuXuXuX6XuXuXuXuXuXuXuXuX6XuXuXuX6XuXuX6X6XuX6XuXuXuXR eeB.B.4X4X&X&X&X&X4XW.<.>.W.<.<.<.<.<.<.R pp\/",
"\/IXIXIXIXIXIXIXSXSXSXSXSXSXSXSXSXSXSXW.W.W.*.R.MXMXMXMXjXSXLXLXLXIXIXLXLXLXLXLXLXLXLXLXLXLXLXIXLXLXLXLXLXLXLXLXLXLXLXLXLXLXLXLXLXLXLXLXLXLXLXLXLXLXSXSXSXSXSXSXBXjX6XB.)()()()()()()()()()()()()()(R.)(o.<.<.<.R eeB.B.&X<.<.<.<.<.<.<.<.<.W.<.<.<.<.<.R R pp\/",
"IXIXIXIXIXIXSXSXSXSXSXSXSXSXSXSXSXuXBXW.W.W.R W.MXMXMXMXMXMXMXjXjXjXMXjXMXjXjXjXIXIXMXjXjXjXjX6X6X6X6X6X6X6X6X6X6X6X6X6X6X6X6X6X6X6X6X6X)()()()()()()()()()()()()()()()()()()()()()()()()(<.<.<.<.<.<.<.<.<.<.<.R eeB.B.4X<.<.<.<.<.<.<.<.<.<.<.<.<.<.<.R R pppp",
"IXIXIXIXIXIXSXSXSXSXSXSXSXSXSXSXSXuXSXW.W.oXR R.MXMXMXMXMXMXMXMXjXjXjXjXjXjXjXjXjXLXMXMXMXMX6X6X6X6X6X6X6X6X6X6X6X6X6X6X6X6X6X6X6X6X)()()()()()()()()()()()()()()()()()()()()()()()()()(<.<.<.<.<.<.<.<.<.<.<.<.R eeB.B.4X<.<.<.<.<.<.<.<.<.<.<.<.<.<.<.R R pppp",
"IXIXIXIXSXSXSXSXSXSXSXSXSXSXBXBXBXBXBXW.W.oXR R.MXMXMXMXMXMXMXMXMXMXMXMXjXjXjXjXjXjXMXMXMXMX6X6X6X6X6X6X6X6X6X6X6X6X)()()()()()()()()()()()()()()()()()()()()()()()()()()()()()()()(<.<.<.<.<.<.<.<.<.<.<.<.<.<.R eeB.B.&X<.<.<.<.<.<.<.<.<.<.<.<.<.R R R R pppp",
"IXIXIXSXSXSXSXSXSXSXSXSXSXBXBXBXBXBXBXW.W.W.R W.MXMXMXMXMXMXMXjXMXjXMXjXMXMXjXjXjXMXMXuX6X6X6X6X6X6X6X6X6X6X6X6X6X6X)()()()()()()()()()()()()()()()()()()()()()()()()()()()()()(<.<.<.<.<.<.<.<.<.<.<.<.<.<.<.<.R eeB.B.4X<.<.<.<.<.<.<.<.<.<.<.<.<.R R R R pppp",
"IXIXLXSXSXSXSXSXSXSXSXSXSXBXBXBXBXBXNXW.W.W.R W.MXMXMXMXMXMXMXMXMXMXMXMXMXMXMXMXjX6X6X6X6X6X6X6X6X6X6X6X6X6X6X6X6X6X)()()()()()()()()()()()()()()()()()()()()()()()()()()()()()(<.<.<.<.<.<.<.<.<.<.<.<.<.<.<.<.R eeB.B.4X<.<.<.<.<.<.<.<.<.<.<.R R R R R R pppp",
"IXIXSXSXSXSXSXSXSXSXSXSXSXBXBXBXBXBXBXW.W.W.R W.MXMXMXMXMXMXMXMXMXMXMXMXMXMXMXMX6X6X6X6X6X6X6X6X6X6X6X6X6X6X6X)()()()()()()()()()()()()()()()()()()()()()()()()()()()()()()()()(<.<.<.<.<.<.<.<.<.<.<.<.<.<.<.<.R eeB.B.4X<.<.<.<.<.<.<.<.<.<.R R R R R R B.pppp",
"IXIXSXSXSXSXSXSXSXSXBXBXBXBXBXBXBXBXBXW.W.W.R R.jXMXMXMXMXMXMXMXMXMXMXMXMXMXMXMX6X6X6X6X6X6X6X6X6X6X6X6X6X6X6X)()()()()()()()()()()()()()()()()()()()()()()()()()()()()()()()(<.<.<.<.<.<.<.<.<.<.<.<.<.<.<.<.<.R eeB.B.B.<.<.<.<.<.<.<.R R R R R R R R R f.pppp",
"IXIXSXSXSXSXSXSXSXBXBXBXBXBXBXBXBXBXR.W.W.W.R R.jXjXjXMXMXMXMXMXMXMXMXMX6X6X6X6X6X6X6X6X6X6X6X6X6X6X6X)()()()()()()()()()()()()()()()()()()()()()()()()()()()()()()()()(<.<.<.<.<.<.<.<.<.<.<.<.<.<.<.<.<.<.<.<.R eeB.B.<.<.<.<.<.<.<.R R R R R R R R R R B.pppp",
"IXIXSXSXSXSXSXSXSXBXBXBXBXBXBXBXBXBXNXW.W.W.R R.jXMXMXMXMXMXjXMXMXMXMXMX6X6X6X6X6X6X6X6X6X6X6X6X6X6X6X)()()()()()()()()()()()()()()()()()()()()()()()()()()()()()()()()(<.<.<.<.<.<.<.<.<.<.<.<.<.<.<.<.<.<.<.<.R eef.f.4X<.<.<.<.<.<.R R R R R R R R R R <.pppp",
"IXIXSXSXSXSXSXNXNXBXBXBXBXBXBXBXBXBXBXW.W.W.R R.jXMXMXMXMXMXMXMXjX6X6X6X6X6X6X6X6X6X6X6X6X6X6X6X)()()()()()()()()()()()()()()()()()()()()()()()()()()()()()()()()(R.)(<.<.<.<.<.<.<.R <.<.<.<.<.<.<.<.<.<.<.<.<.R eeB.f.4X<.<.<.<.<.R R R R R R R R R R R B.77pp",
"IXIXSXSXSXSXBXBXBXBXBXBXBXBXBXBXBXBXLXW.W.W.R R.jXMXMXMXMXMXMX6X6X6X6X6X6X6X6X6X6X6X6X6X6X6X6X)()()()()()()()()()()()()()()()()()()()()()()()()()()()()()()()(<.<.<.<.<.<.<.<.<.<.G |.<.<.<.<.<.<.<.<.<.<.<.<.<.R eef.f.4X<.<.<.<.R R R R R R R R R R R R B.pp77",
"IXIXSXSXSXSXBXBXBXBXBXBXBXBXBXBXBXBXLXW.W.W.R R.6X<.<.<.R T T T T R T T T T T T T T R R T T R T R T T T T R R R T R R R R T T T T R T T T T T T T T T T T T T T T T T T T T T o.G G |.T T T T T T T T X.X.T T R R ppf.f.4X<.<.<.>.R R R R R R R R R R R R <.pppp",
"IXIXBXBXBXBXBXBXBXBXBXBXBXBXBXBXBXBXLXW.W.oX*.W.G G R R R G G G G G G G G G G G G Z G G G G G G G G G G G G R G G G G G G G G G G G G G R R G Z G Z G G G G G G G G G G G G R G R G G G G G G G G G G G G Z Z R R ppf.B.4XR R R R R R R R R R R R R R R R B.pppp",
"IXIXBXBXBXBXBXBXBXBXBXW.oXSXLXLXIXIXIXW.W.W.>.R G G G G G G R R G G G G G G G G G R G R G G G R G G G G G G R R G G R G G G G G G G G R R G Z G G G G R G G G R G G G R R G R G R G G G G G G G G R G R G G R R G ppB.f.4XR R R R R R R R R R R *.f.f.f.<.f.pppp",
"IXIXoXW.oXW.W.oXoXW.W.W.LXW.oXW.oXW.oXoXW.W.6969696969696969696969%%6969696969696969696969%%691169%%696969696969696969696969696969696969696969696969696969696969696969696969696969%%69696969%%6969696969696969696969B.B.eeppppppppeeeeeeppppppppppppppeepppppppp",
"LXW.oXoXoXoXoXoXoXoXW.W.W.oXoXoXoXoXoXoXoXW.69%%R R R R R R R R 77R R R R R R R R R R R R R R 77777777R R R R R R R R R 77R R R 77R R 77R 77R 77ppnnnneeppeeeennnnnnppnnnnnnnnppnnnnppppppppeeeeppnnnnnnnnnneeee1169B.77ppppeepppppppppppppppppppppppppppppppppp",
"W.W.W.W.oXoXW.W.W.W.W.W.W.W.W.W.W.W.W.W.W.4X69%%R R 777777777777777777777777R 7777777777777777777777T T 777777R 77777777777777777777777777777777nnppppeeppppppppeeppnnppppppppppnneeppppnnppnnppnnnneennppeennee1169pppppppppppppppppppppppppppppppppppppppppppp",
"G R R R R R R R R R R R R R R R R R R R R 6969%%R L )()()()()()()()()()()()()()()()()()()()(g.g.g.g.g.)()(g.g.g.g.g.g.g.g.g.)(g.g.g.g.g.g.g.g.g.R R R R R 77777777R R R R R R R R R R 77R R R R R 77R R R R R R %%69691169696969116969696969696969696969696969FF",
"FFW.W.R.R.R.R.R.R.R.R.R.W.R.R.R.W.W.W.<.>.69R R R 77)()()()()()()()()()()()()()()()()()()()()()()()(g.)(g.)(g.uXo.g.g.g.g.g.g.g.g.g.g.g.g.g.g.L R R R R R R R R R R R R R R R 11R R R R R R R R R R R R R R R R R *.69*.*.ppeeeeeeeeeeeeeeeeeeeeeeeeeeeeeeee11FF",
"FFIXjXuXuXjXjXjXjXjXjXjXjXjXjXjXjXjXBX<.>.69R R R )()()()()()()()()()()()()()()()()()()()()()()()(uX)()()(g.g.)(g.g.)(g.g.g.g.g.g.g.g.g.g.g.7777R R 777777R R 777777777777R 69)(T 777777777777R 77777777R R R R R R 69B.B.*.R R R R R R R R R R R R R R R R 77FF",
"FFB.<.<.f.jXjX<.f.f.f.<.<.uXjXjXR R R R R 69R L )()(f.<.>.<.<.<.>.>.<.<.<.<.>.<.<.<.<.<.<.<.<.)()(B.B.)(<.o.o.<.<.<.<.<.<.<.o.o.o.<.o.>.<.<.<.<.<.<.<.<.<.o.R L pp%%6911696969B.116969%%%%%%69%%%%pp>.B.B.B.g.R R R 11R pp111111R R G 111111111111R R ee111111FF",
"FFIXSXLXB.jXjX<.SXLXLXLXSXuXjXjXR BXSX<.f.69R L )(ppeeeeeeeeggeeggeeeeeeeeggppeeggggggppnnnnZ G R R Z nnB.ppeeggeeggggggggee%%%%6969696969696969696969%%69696969696969696969696969696969696969696969696911)(g.R R R 69f.f.R R 11R R R <.<.<.<.<.11R R ppf.R 11FF",
"FFLXjXjXf.jXjX<.jXjXjXjXLX6XuXjXR jXBX<.>.69R 77)(ppeeggf.f.f.f.f.f.B.f.f.11W.B.f.B.B.B.B.B.W.W.W.R.B.<.B.B.f.f.f.f.f.f.f.f.B.f.B.f.B.B.nnnnnnnnnnnnnnnnnnnnnnnnnnnnnnnnnnnnnnnnnn69W.nnnnnnnnnnnnnnnnnnppg.g.R R R 69B.f.R R 11R R Z B.R R R R 11R R eef.R 11FF",
"FFLXjXjX>.>.>.>.jXjXjXjXLX*.*.*.R jXBX<.>.69R L )(ppeeB.B.f.f.f.<.*.<.<.<.*.f.<.<.<.<.<.)(B.B.B.B.SXzzB.B.B.<.<.<.>.<.<.<.<.<.<.<.<.<.<.<.<.<.<.<.<.<.<.<.<.<.R R R R R R R R R 6969R R R R R R R R R nnnng.g.R R R 69f.f.R R %%1111eef.R R R R %%%%69%%B.R 11FF",
"FFLXjXjXjXjXjXjXjXjXjXjXjXjXjXjXjXjXBX<.>.69R 77)(ggeeB.B.<.<.<.<.<.<.<.<.>.%%<.<.<.f.B.B.W.W.B.SXzzB.B.nn<.>.<.<.<.<.<.<.<.<.<.<.<.<.<.<.<.<.<.<.<.<.<.<.<.<.R R R R R R R R R R 69R R R R R R R R R R nng.g.R R R 69f.f.77R R R R R R R R R R R R R R R R 11FF",
"FFf.)()()()()(<.)(f.)()()()(f.f.)(<.R R 6969R R )(ggeef.f.<.<.<.6X<.<.<.<.<.11<.<.B.B.W..XB.SX~~zz>.nnnn<.<.>.<.4X<.uX<.<.<.<.W.<.<.<.<.<.<.oX<.<.<.<.<.<.>.R R R R *.R R R R R R 11R R R *.uXR R R R R nng.g.R R R 69%%R R eeeeppeeeeeeeeeeeeeeeeeeeeppee6969FF",
"FFf.f.)(f.f.B.B.)(f.f.f.)(f.f.f.f.R R 1169R R R )(ppeef.B.<.<.6X<.<.<.<.<.<.<.<.B.SX.X&XB.SXppzzf.nnnn<.<.<.<.<.<.uX<.<.<.<.<.<.uX<.<.<.<.<.uXuX<.<.<.<.<.R R R R oX<.<.uXR R R nn4XR R T <.<.*.R R R R nn)(g.R R R R 69%%R R eeppeeeeeeeeeeeeeeeeeeeeppee6969FF",
"FFFFR R R R R R R R R R R R R R R R R 69] R R )()(ppeef.B.<.<.uX<.<.<.<.<.<.<.f.B.W.&XB.SXZ zznnnnnn<.<.<.<.<.<.<.uX<.<.<.<.<.<.BX<.<.<.<.<.<.<.<.<.<.<.R R R R R T *.*.*.R R R *.R R R T <.BX*.R R R R nn)(g.R R R R R 69ppnnee111111eeeeeeeeeeee77ppee6911FFFF",
"FFFFB.B.B.B.B.B.B.B.B.f.B.B.B.B.R R R 69R R )()()(ppeef.B.>.<.<.)(uX<.<.<.<.B.W.W.&XB.SXSXL nnnnnn<.<.<.<.<.<.<.<.<.uX<.<.<.<.<.uX<.<.<.<.<.<.<.<.<.<.R R R R R R *.*.*.*.R R R R R R R *.<.<.T R R R R nn)()(R R R R R 69ppnnee111111eeeeee1111eeppeeee6911FFFF",
"FFLXLXLXLXLXLXLXLXLXLXLXLXLXLXLXLXf.f.f.11%%)()()(ppeef.<.<.<.<.<.<.<.<.<.B.SX&X&XB.SXSXL nnnnnn<.<.uX<.<.<.<.<.<.<.<.<.<.<.<.<.<.<.<.<.<.<.<.<.<.<.<.R R R R R R R R R R R R %%R R R R *.6XuXuXR R R R nn)()(R R R %%69f.f.B.f.f.f.f.f.f.f.B.B.B.B.B.<.<.*.*.FF",
"FFLXLXjXjXjXjXjXjXjXjXjXjXjXjXjXjX6XB.B.%%%%R <.)(ppppB.<.<.<.<.<.<.<.<.)(B.W.&XB.SXSXZ eennnn<.<.<.uX<.<.<.<.<.<.<.<.>.<.<.<.<.<.<.<.<.<.<.<.<.<.<.R R R R R R R R R R R R R R R R R R *.T *.R R R R R nng.)(77R R 6969f.f.R R R R R R R R R R R R R R R 6969FF",
"FFLXLXjXjXjXjXjXjXjXjXjXjXjXjXjXjXjXB.B.69%%R T )(ggeeB.*.<.<.<.<.<.<.<.B.BX&XB.SXSX%%%%nnnnzz<.<.<.<.<.<.<.<.<.<.<.<.<.<.<.<.<.<.<.<.<.<.<.<.<.B.~~oXR ] R R R R R R R R R R R R %%R R R R R R R R R R nng.o.77R R 6969f.B.R R R R R R R R R R R R R R R 1169FF",
"FFR B.f.f.f.f.f.B.B.B.B.B.B.B.B.B.R R R 69%%R T )(ggeeB.<.<.<.<.*.<.<.B.W.&XB.SXSXLX11nnnnnn<.<.<.<.<.<.<.<.<.<.<.<.f.<.<.&XBX<.<.<.<.<.<.<.<.&XuXB.*.R R R ] R R R R R R R R R R 11R R R R R R R R R R 69o.g.77R R %%69R nnR ppppppppppppppppppppppeeppppppppFF",
"FFFFR R R R R R R R R R R R R R R R R 6969R R o.)(ggeef.<.<.<.<.<.<.)(B.&XB.B.SXSX11nnZ nn>.<.<.<.<.<.<.<.>.<.>.<.<.<.<.<.&X&XB.B.B.<.B.B.B.B.W.<.*.*.*.*.R ] R R R R R R R R nn11W.R R R *.*.T R R ee%%B.)()(77R R R %%6911ee%%6969696969696969696969691169FFFF",
"FFFFBXjXB.f.B.B.B.B.B.B.B.B.B.B.*.R R 69R R R )()(nneef.<.<.uX<.<.<.B..X&XB.SXBX%%11Z uX*.<.>.uX<.<.<.<.<.<.<.<.<.<.<.<.B.B.W.W.W.B.B.B.B.B.B.B.B.<.<.>.*.*.*.R R ] ] R R R R B.R R R R R T uX*.R %%T R R )(o.L R R R R 69G nneeeeppppppeeeeeeeeeeeeeeee6969FFFF",
"FFFFjXjXjXjXjXjXjXjXjXjXjXjXjXjXf.R R 69R *.)()()(nneef.<.<.uX<.B.B.W.uXB.SXSXSXppnnG uX<.<.>.uX<.<.<.<.<.<.<.<.<.<.<.B.B.&X&X&X&X&X&X&X&X&X&X&X.XW.B.B.<.<.<.*.*.$.$.R R R R R R R R R R *.uX<.R R R R nn)(o.L R R R R 69f.B.77R R R R R R R R R R R R 69%%FFFF",
"FFFFjXjXjXR R R R R R R 77R R jXf.R R 69R <.)()()(ppeef.<.<.<.<.B.W.&XB.B.SX>XnnR nnnn*.<.<.>.>.<.<.<.<.<.B.<.<.B.W.&X&X&X&X&XB.B.B.B.B.B.B.B.B.B.<.)(.XB.B.<.<.<.*.R R R R R R R R R R R T *.BXR R R R nn)()(L R R R R 69f.B.R R 1169%%69%%11111111%%R 6969FFFF",
"FFFFjXjXjXR <.<.<.>.<.<.<.<.G jXf.R R 69Z )()()()(ppeef.<.<.<.<.BX.X&XB.SXSXSXeeG nnnn<.<.uX<.<.<.<.<.<.<.BXB.B.W.&X&X>X.X.XB.NXSXSXSXSXSXSXSXSXSXSXB.<.<.<.W.B.<.<.*.>.R R R R R R R R R R R R R R R R nno.o.T R R R R 69f.B.R R 69eeppppsssseeeeee11R 6969FFFF",
"FFFFjXjXjXR <.jXjXjXjXjXjXR G jX<.R R 69zz)()()()(eeeef.<.<.<.<.B.&XB.B.SX>X%%eennnn*.<.<.<.>.>.<.<.<.<.W.SXB.&X&X>XB.B.W.SXSXSXSXBX-X-X-X-X????????6XSXSX<.<.<.B.<.<.*.*.R R R R R R R R R R R R R R R nno.o.<.7777R R 69f.<.G R 69eeR R R R R R pp%%R 6969FFFF",
"FFFFjXjXjXR <.jXjXR T T L >.G jX<.R R 69zz)()()()(eeeef.<.<.<.B.W.&XB.LXBX>X1111nnG <.>.<.<.>.<.<.<.<.<.B.BX&X&X>XB.B.SXSXSXSXSX-X-X-X-X-X-X??????????????BXSX<.<.B.)(<.*.T B..XT R R R R R R R R R R R nng.o.B.R 77R R 69f.B.R R 69ee111111%%T R 7769R 6969FFFF",
"FFFFjXjXuXR <.jXjXR <.<.<.<.R jXT R R 69Z )(o.)()(ppeef.<.<.<.B.&XB.B.SX,Xzz11nnnnzz<.<.<.<.<.fX<.<.<.B.B.&X>X>XB.6XSXSXSXSXSX-X-X-X-X-X-XOO????????uXLX??????uX>X*.R )(<.*..XSX<.R R R R *.<.*.R R R R nno.o.W.R R R R 69f.<.>.R 11eeeeeeee11G G 1169R 6969FFFF",
"FFFFjXjXuXR <.jXjXjXjXuXjX<.77jXL R R 69Z o.ggppeeeeppf.<.<.B.B.&XB.SXSX>Xee11nnnn<.<.<.<.<.<.<.fX<.<.B.&X>X>XB.SXSXSXSXSXSXOO-X-XBXSXSXSXSXuX????????OO??????????,XR zz<.<.*.<.T R R R *.BX<.*.uXR R R nno.o.4X77R R R 69f.<.<.R 69ssG G R R R G 1169R 6969FFFF",
"FFFFjXjXuXR <.R R L L zzR 77R jXL R R 69Z o.)()()(pp%%B.<.<.BX&X>XB.SX>X>Xeennnnnn*.*.<.<.<.<.f.fXf.B..X&X>XB.SXLXSXSXSXSXSXSXSXLXppG G G G G jXSXSX??????????}.????,XG pp<.<.T R R R R *.<.<.*.f.R R R 11)(o.4XR 77R R 69f.f.<.R 69eeeeee77ppeeeeee69R 6969FFFF",
"FFFFjXjXuXR <.LXSXSXSXLXLX<.R jXL R R 69nnT )()()(ggpp%%11<.B.&XB.SXSX>XL eennnnnn>.>.<.<.<.<.f.fXf.W.&X>XB.SXSX>XSXSXSXSXSXnnG G G G G G G G G G G ppSX??????}.????B.,Xnn11<.<.R R R R R T T NX*.R R R 11o.)(pp6XR R R 69f.f.W.R 69eeL <.R 77L 77pp69R 6969FFFF",
"FFFFjXjXuXR <.6XjXjXjXjXjXR R jXL R R 69nno.)()()(ppppB.<.f.W.&XB.SXSX>Xee11nnnn<.<.<.<.<.<.<.<.<.B.&X>XB.B.SX>X>XSXSXSXSXG G G G G G G G R *.G G G R G R BX??????????B.,X1111<.<.f.] R R R R R R R R nn11o.11ee<.R R R 69f.f.W.R 69eeZ R R G R R 7769R 6969FFFF",
"FFFFjXjXjXR <.jXSXSXSXR jXR R jXL R R 69nno.)()()(ppppB.<.B.W.&XB.SXSX>X11eeuXR <.<.>.>.<.<.<.<.)(W.&X>XB.SXuX>XBXSXSXG G G G G G G <.<.<.B.&X<.<.<.R R R R BX????????B.B.,Xee%%)(*.>.R R R R R R R R nn1111%%&XR R R R 69f.f.W.R 69eeG ee<.>.*.*.pp%%G 6969FFFF",
"FFFFjXjXjXR <.jXjXjXjXL jX77R jXR R R 69nno.)()()(ppeeB.<.BX6XB.6X,XSX>Xeenn*.R B.uX>.<.<.<.<.<.B..X&XB.BXSX>X>X-XLXG G G G G G <.<.<.<.<.<.<.<.<.<.<.<.<.R G uX??????)(B.B.,Xee>.o.*.R R R R R R R R pp11pp&X4XR R R R 69f.f.W.R 69eeG %%R G Z R 77%%G 6969FFFF",
"FFFFjXjXjXR <.jXR R R ppjXR R jXR R R 69nnT )()()(sseeB.<.B.&XB.SX,XBX<.11nnnnR <.<.>.<.<.<.<.<.B.&X>XB.SX>X>X>XSXppG G G G G <.eeeeeeeeppeeeeT <.<.<.<.g.X.X.G 6X??????4XB.B.uX%%)(o.*.R R R R R R R pp11)(o.4XR R R R 69f.<.W.R 69eeG %%696969G 1169G 6969FFFF",
"FFFFjXjXjXR <.jXT jXjXjXjXR R jXR R R 69nno.)()()(ssppB.<.B.&XB.SX,XuX1111nnnn<.<.<.<.<.<.<.<.B.W.&XB.B.SX>X>X>XSXG G G G G eeeeeeeeeeeeeeeeeeeeeess<.@.g.@.@.X.T |.????uXB.B.*.1111o.*.R R BXT uXR R pp77o.o.R.R R R Z 69f.<.W.R 69eeZ Z G Z %%G 1169Z 6969FFFF",
"FFFFjXjXjXR <.jX*.jXjXjXjX77R jXR R R %%nnT )()()(ssppB.<.W.>XB.SX,X>Xee11nnnn<.<.<.>.<.<.<.<.B.W.&XB.SX>X>X>XSXG G G G G eeeeeeeeG L L L L L Z eeeeeeg.@.@.@.@.@.X.uX??B.B.B.B.,X11)(o.T R *.*.B.R R pp77)(o.f.R R pppp69f.<.W.R 69eeG nnG G %%G 1169Z 6969FFFF",
"FFFFjXjXjXG >.jX>.jXR R R L G jXR R R 69nnT )()()(ppppB.<.W.B.B.,X,X-Xeeeennnn<.<.<.<.<.<.fX<.B..X>XB.SX>X>X>XSXG G G G eeeeeeG G G L Z L L Z Z L L eeppg.@.@.@.@.@.g.??B.B.B.B.G 1111o.*.R T <.*.R R nn11o.o.<.R ppppgg69f.<.W.R 69ee111169nn%%G 7769Z 6969FFFF",
"FFFFjXjXjXR <.jX>.jXLXIXLXo.Z W.R R R 69nnT )()()(ppnnB.<..XB.6X,X,X-Xeeeennnn>.<.<.<.<.<.>.<.B.&X>XB.SX>X>X,XLXG G G eeeeeeL L Z L L L L B.B.B.)(L L ppee@.@.@.@.@.@.OOB.B.B.B.G uX11pp<.T R T R R R nn11o.o.<.ppppzzpp69f.<.oXR 69ee)(f.<.R 11G pp69G 6969FFFF",
"FFFFjXjXjXR <.jXR jXjXjXjXR R W.jXR R 69nnT )()()(ppppB.<.&XB.SX,X,X-Xeeeennnn<.<.>.<.<.<.<.<.B.&X&XB.BX>X>X>XG G G G eeeeG L |.|.|.|.|.T L L )()()()(o.eeee@.@.@.@.@.@.<.B.B.B.W.*.11eeo.*.R R R R R nn77)()(<.ppzzggzz69f.f.oXR 69eeG G G R %%G pp69696969FFFF",
"FFFFjXjXjXR <.jXR jXjXjXjX77R W.jXR R %%nnT )()()(ppnnB.B.&XB.SX,X,X-XeeeennR >.<.>.<.<.<.<.<.B.&XB.B.uX>X>XuXG G G eeeeG L |.B.B.B.B.B.B.|.L L <.o.o.o.g.eeee@.@.@.)(@.OOB.B.B.B.R ee77zz*.R R ] R ppR 77)()(>.ppeegggg69f.<.oXR 69eennG G G 69Z 7769696969FFFF",
"FFFFjXjXjXR <.R R R R ppjXL R |.jXR R 69nnT )()()(ppnnB..X&XB.SX,X,X-Xeeeennnn>.<.<.<.<.<.<.<.SX&XB.B.>X>X>XBXG G G eeeeL L g.uX>X>X>XuXB.B.OOL 77<.*.<.o.)(eeg.@.@.BX@.@.*.B.B.B.R *.77nn<.<.R dXR R G 11)(o.*.ppggppgg69f.<.oXR 6911G %%69696969pp69696969FFFF",
"FFFFjXjXjXR <.jXSXSXSXzzjXL R R.jXR R 69nnT )()()(zznnB..X&XB.SX,X,X-XeeeennZ <.<.<.<.<.<.<.<.B.&XB.B.&X>X>XuXG G G eeR L |.)(T L L zz>XW.<.<.T L <.<.*.<.g.zzee@.@.@.@.@.)(B.B.B.*.R 11nn<.T R R R R R 77)(o.*.gggggggg69f.<.&XR 6911G %%<.<.)(T ee69696969FFFF",
"FFFFjXjXjXR <.jXjXjXSXL R R Z R.jXR R 69nno.)()()(L ppB..X&XB.SX,X,X-Xee11nnuX<.<.<.<.>.fX<.<.B.&X&XB.uX>X>X,XG G G eeG L |.|.zzR L G &X>X<.B.-XL L *.*.<.o.g.gg@.??@.@.@.OO<.B.B.R R %%11ggT R R R 117711)(o.*.ppgggggg69f.<.&X7769ee%%11<.nnnnZ ee69696969FFFF",
"FFFFjXjXjXR <.jXjXjXSXLXLXT G W.jXR R %%nnT )()()(<.ppB.W.&XB.BXSX.X-X1111nnnn*.<.<.<.<.<.<.<.B..X>XB.SX>X>X>XppG G eeG L L |.L L L L L >X*.B.-XL L <.*.*.<.g.zzpp@.??@.@.@.R B.B.R *.%%11nno.R 1177117711o.o.*.ggggggpp69f.<.4XR 69ss<.<.<.nnZ nnee69696969FFFF",
"FFFFjXjXjXR <.jXjXjXW.|.|.L G W.~~R G 69nnT )()()(f.ggB.B.&XB.BX,X.X-X11eennnn<.<.<.>.<.<.uXuXB.W.&XB.SX.X>X>XSXG W.G eeL L L L L G L L >XR B.B.T L G *.*.*.o.T ggX.????@.@.R B.B.*.R 1111nn<.ppww7777ee11o.o.*.ggggppgg69f.<.W.*.69eeZ nnnnnnnnnnpp69696969FFFF",
"FFFFjXjXjXR >.jXjX|.oX|.|.L Z W.R R R 69nnT <.)(T B.ppB.B..XB.uX,X.X-X11eeZ nn<.<.<.<.<.<.f.uX)(B.&XB.<.&X>X>X>XG &XR eeL L L L L L L L >X*.B.B.L L R <.T *.o.g.zzX.??}.@.@.T B.B.R *.ee11ppeepp$.ww77ee77)(o.T ppgggggg69f.<.<.<.6911Z nnnnnnnnnnpp69696969FFFF",
"FFFFjXjXjXR <.jX|.|.|.|.|.L G |.R R R %%nnT o.)(T B.ppB.B..X<.uX,X.X>Xsseennnn<.>.<.<.<.<.<.<.<.B.&XB.B.&X&X>X>XuX&X&XzznnG L L G L L >X>XG B.B.L T Z >.R <.o.g.o.X.??????@.6X<.B.*.*.*.%%zzppeeww< pp7777o.)(T ppgggggg69f.<.<.*.69eennnnnnnnnnnnpp69696969FFFF",
"FFFFjXjXuXR <.uX|.|.|.|.|.L G |.R R R 69nnT <.T T B.ppB.<.W.R uX,X.XB.-Xee11nn<.*.>.<.<.<.<.<.<.<.W.&XB.SX&X&X>X>X*..X.X&XnnG L L L >X>XSX*.<.>XT T zzppR >.o.g.X.tX??????@.6X*.B.R *.*.%%)(eepp$.$.pp7711o.)(77ppgggggg69f.<.&Xnn69eennnnnnnnnnnnpp69696969FFFF",
"FFFFjXjXuXR >.|.|.|.|.|.|.L Z oXR R R 69nnT T T T >.ppf.<.W.ppuX,X.X.X-Xeeeennnn*.BX<.<.>.<.<.<.<.B.&XB.*.&X&X&X.XBX&X&X&X.X.X.X>X>X>XBXG *.<.-XL L nnnnR T <.g.o.tX????????tXR *.*.*.R 11)(eezzfX..771111o.o.L ppgggggg69f.<.&Xnn6911nnnnnnnnnnnnpp69%%6969FFFF",
"FFFFjXjXjXR >.|.|.|.W.|.|.L Z |.R R R %%nnT T T T T ee)(<.B.ee<.,X.X.X-X11eennnn<.SX<.<.<.<.<.<.<.B.W.&XB.T &X&XB.&XB.BX,X,X,X,X>X>XSXnnG R B.-XL 77<.ggR *.o.g.X.tX????????tXR *.*.R *.11o.eepp7777777711o.o.ppggppgggg69f.<.oXnn69eennnnnnnnnnnnpp69696969FFFF",
"FFFFjXjXjXG <.|.|.|.|.|.|.L G |.R R R 69nnT T T T ppgg)(<.B.11R ,X.X.X>X)(1111nn*.<.<.<.>.<.<.<.BX<.B.W.&X<.B.&XB.B.B.B.SXBXBXBXSXSXG G >XG -XT T Z nnR R T o.g.X.tX????????tXR R R *.*.11o.eeppee77777711o.o.ppggppgggg69f.<.oXnn69eennnnnnnnnnnnpp69%%6969FFFF",
"FFFFjXjXR.G <.|.|.|.|.|.|.L Z |.R R R 69nnT T T T ppee)(<.)(|.nn,XB.B.B.|.1111nn<.<.<.<.<.<.<.<.uX<.<.B..X<.T &X&XB.B.B.B.*.*.G G *.R G G -XL T R G nnR *.T o.g.o.tX????????tXR R R *.ee11o.eepp1177777711o.o.ppppppgggg69f.<.oXnn69eennnnnnnnnnnn7769nn6969FFFF",
"FFFFjXjXR.R <.|.|.|.|.R G G Z |.R R R 69nnT T T T eepp)(<.<.B.%%,XB.B.B.-X1111nnnn<.>.<.>.>.<.<.B.B.f.<.B..X<.L L &XB.B.B.B.B.B.B.B.R uX-XL L 77Z zzggR 4X*.o.g.o.tX????NX??tXR R -XR %%%%o.11pp111177ee11o.o.ggppgggggg69f.<..Xnn69116969nnnnnnnnpp69nn6969FFFF",
"FFFFjXjXR.G <.|.R.|.|.G oX<.Z R.77R R 69nnT T T R eegg)(<.o.)(11nn,XB.B.>Xg.eeeenn<.<.>.>.>.<.>.jX<.<.<.BXB.W.T L L &X&XB.B.B.B.R >X-X-XT L R Z nnppR R uXo.o.)(X.tX????????BXG G R R %%%%T 11111111111169o.)(gggggggggg69f.<.W.nn6911zz%%nnnnnnnnpp69696969FFFF",
"FFFFjXjXR.G <.|.R L L zz|.L Z |.oXR R %%nnT T T eeggpp<.*.<.)(%%11,XB.B.B.>Xeeee11nn<.>.*.<.<.<.*.<.<.<.<.<.)(B.W.L T L L <.&X&XB.T L L T R Z uXnnppR R R *.g.o.X.tX??SX????zzG G G R 11%%ppeepp1111777769)(o.gggggggggg69f.<..Xpp6911nn11%%%%69nnpp69696969FFFF",
"FFFFjXjXR.Z <.|.R 6X~~oX|.G Z R.R R R %%nnT T ggW.ggpp<.>.<.<.)(69.XB.B.B.>Xg.ee11nn<.<.*.<.<.] R >.>.<.<.<.<.<.)(B.R L L T T T L L L R G G G nnggR R R T o.g.X.MX}.??}.????G *.*.*.G 1111ppppBXee77777769o.o.ggppppggpp69f.<.oXnn6911nn>.G pp69nn7769696969FFFF",
"FFFFjXjXW.G <.|.G |.|.|.|.G Z R.zzR R 69nnR W.R <.pp%%<.>.BX<.)(%%nn,XB.B.B.)(g.1111nn<.<.<.*.>.>.<.>.>.<.<.SX<.<.<.<.L R R R 7777L Z nnnn<.<.R R R R R o.o.g.X.MX????????tXR -X-X*.ee11<.ss11ee1111777769o.o.ggggggppgg69f.<.<.oX6911nnnnnnnn69nnpp69nn6969FFFF",
"FFFFjXjXW.G <.oXG oXoX|.|.Z Z W.ppR R 69nnR T T T f.%%<.>.<.<.)(%%69uXB.B.B.&Xg.1111ee<.<.<.&X*.>.>.>.>.<.>.<.<.<.<.<.<.<.>.nnnnnnnnnnnnnnuXB.77R R R ..o.g.X.X.jX????????jXG -X<.R 1111X.ee11771177777769o.o.ggggggpppp69f.<.<.&X6911nnnnnnnn69nnpp69nn6969FFFF",
"FFFFjXjX|.Z <.W.Z Z R R R R Z R.zzR R 69nnT T T T B.%%<.>.<.<.o.)(11nn,XB.SXB.)(g.11eenn<.<.<.>.>.>.>.<.>.>.<.>.<.uX<.<.<.<.<.<.<.<.<.<.R 6XR R R R R $.o.g.X.jX}.????????ppnnOO*.G 1111pp1111777777777769o.o.ggggggggpp69f.<.<.pp69116969696969nn7769nn6969FFFF",
"FFFFjXjXW.G <.W.NXMXBXjXBX<.G R.zzR R 69nnR T T T B.69<.>.>.<.<.)(1111nnB.B.B.B.)(??eeeenn<.<.*.<.<.<.>.*.>.>.>.<.>.<.<.<.<.<.<...<.<.R R R R R R T o.o.g.X.T jX??}.????MXnnnnOOG *.%%X.pp1169777777777769o.o.ggggggggpp69f.<.&Xpp69ee77ppzznnnnnn7769pp6969FFFF",
"FFFFjXjXR.G <.W.W.|.R.R.|.>.Z R.zzR R 69nnT T T T B.11<.>.>.>.<.o.)(11nn>.B.B.B.)(g.|.11eeggo.<.*.<...>.>.>.>.>.>.>.>.<.<.<.<.*.fX>.R R R R R R R T o.g.X.X.jX????jX????SXnnnnnnzzG %%X.ee6969wwww77777769o.o.ggppggggpp69f.<..Xpp69eenn69zznnnnnnpp69pp6969FFFF",
"FFFFjXjXR.G <.|.G Z Z Z R.>.Z R.pp77R 69nnT T T T B.11f.>.>.<.*.o.)(6969nnB.B.B.B.)(g.|.11ee<.)(o.*.<.>.>.>.>.>.>.>.>.>.>.>.>.*.>.R R R R R R R T o.g.)(X.MXMX????jX??MXG nnnnnn1111%%L %%6969&&ww77777769o.o.ggppppgggg69f.<..Xee69116969696969nn7769nn6969FFFF",
"FFFFjXjXW.G <.|.R R.R.R.R.>.Z R.ppR R %%nnT T T T %%69f.>.>.NX*.<.o.)(69nnnnB.)(B.B.)(g.|.eennL o.o.<.<.>.>.>.<.>.dX>.>.>.<.R R R G R R ] ] ] o.o.g.g.X.X.MX??}.}.jXjXBXnnnnnnnn6969X.pp%%697711ee77777769o.o.ggppppppgg69f.<.W.pp6911ppgggggg69nnpp69nn6969FFFF",
"FFFFjXjXR.G <.|.R R.)(R.B.zzZ R.ppR R %%nnT T T T %%69R *.*.BX<.<.<.g.%%11nnnnB.)()(B.)(g.|.ppgggg)(o.o.<.<.<.>.<.*.G R R R R BXT R R R ....o.o.g.X.T T jX????IXjXjXjXG nnnnnn%%6969X.11116977117777777769o.o.ggggppgg1169f.<.W.pp6977pppppppp69nn7769nn6969FFFF",
"FFFFjXjXW.Z <.|.G |.<.<.<.<.Z R.ppR R %%nnT T T T 696911>.>.*.*.T <.o.g.11nnnnnn<.)()(BX)()(tXssggpp)()(o.o.<.T T R R R R R T <.*.R T T o.o.g.g.X.X.T jXtX????BXMXMX*.nnppnnnn%%69X.ee%%6969777711eeee7769o.o.ppggpp117769f.<.<.pp6911pp77ppnn69nn7769pp6969FFFF",
"FFFFjXjXR.G <.W.G |.G BXjXG Z R.ppR R 69nnT T T T 1169%%>.>.>.>.>.*.<.g.>.69nnnnnn<.)()()()()(@.tXppZ Z )()(o.o.o.$.T T T T T T o.o.o.o.o.g.X.X.X.jXMXtX??????MXMX<.G )(&Xnn6969o.o.11696977ppeeuXeeee7769o.o.ppww11111169f.<.<.pp6911R R 69nn%%697769nn6969FFFF",
"FFFFjXjXW.Z <.W.G |.R |.R.L Z R.R R R 69nnT T T T 6969%%>.>.*.*.4Xzz<.<.)(6969nnnnnn<.)()()()()()(tXjXZ L L T g.g.o.o.o.o.o.o.o.o.g.g.g.T T T T jXjX????BX??jXMXB.R nnzznn696969o.pp116969eennuXB.ee777769o.o.pp7769111169f.<.<.pp69%%nnnn69nn69nn7769nn6969FFFF",
"FFFFjXjXR.Z <.R.jXjXjXW.W.<.Z R.f.R G 69nnT T T T 6969%%>.>.6XB.nnuX*.*.o.g.1169nnnnnn<.)()()()(BX)(g.tXtXppZ L L o.)()(g.g.g.g.g.X.X.X.X.T jXjXtX????}.LX??MXMXG nnzznn%%6969X.ppeefX69eeeeppL 4Xee771169o.o.eess11111169f.<.<.pp691169nn<.<.<.nn7769nn6969FFFF",
"FFFFjXjXR.Z <.W.R.R.R.R.R.>.Z R.6X77R 69nnT T T T 6911%%nnR <.nnuX<.*.>.*.o.)(6911nnnnnn<.g.)()()()()()(@.tXtXtXppL T o.X.T T T T X.T jXjXjXjX??????????tXMXf.G G nnnn696969o.ss11%%696911eeggT L ee777769o.g.69W.11111169f.<.<.pp6911nn69nnnnpppp6969pp6969FFFF",
"FFFFjXjXR.G <.B.B.<.L Z Z Z Z R.jXR R 69nnT T T T 696969B.W.W.*.uX*.R >.>.<.o.g.69%%nnnnnnnn}.)()()()()()()(g.@.tXjXjXjXjXtXtXjXtXjXjXjXtX????????????jXMXR G nnnnnn696969o.o.ee116969771111ppppssee777769o.69o.1111111169f.<.<.pp6977696969%%%%111169pp6969FFFF",
"FFFFjXjXR.Z <.<.<.<.<.<.<.<.G R.BXR R 69nnT T T T 6969R R *.R *.*.R *.>.>.>.<.o.g.1169nnnnL nnX.}.)()(g.tX}.}.}.}.}.}.}.}.}.??}.}.????????????????|.jXjXnnnno.L nn696969X.o.ee111169697777111111111111116969o.111111111169f.<.<.pp69777777777777pppp69pp6969FFFF",
"FFFFjXjXR.R.R.R.R.R.R.R.R.R.R.R.BX77R %%nnT T T T %%%%nn*.R R R R *.T <.*.T *.<.o.g.6969nnzznnnnnn}.}.g.}.}.}.}.}.}.??BX??????????????????????}.MXjXnnnnnnnnnnnn696969X.<.ee%%11$.11ee11777711111111777769o.o.111111111169f.<.<.eennppppppppppppnnnnnnnn6969FFFF",
"FFFFjXjXR.R.R.R.R.R.R.R.R.R.R.R.SXR R 69zzT T T T %%69ee*.R R R R *.*.*.uX*.<.<.o.o.o.6911eennnnzznnnng.}.}.}.}.}.}.}.}.}.}.}.????????????|.jXjXnnnnB.nnnnnnnn696969X.ppee11696911uXppee117777771111117769o.o.111111111169f.<.f.ppppppppppppeeeeppnnpppp6969FFFF",
"FFFFG 77R R R R R R R R R R 7777R R R 69ppnnT T T 6969eeR R R R R *.R *.<.uXuXT T T o.o.%%1169nnzzOOOOL nnzz|.}.}.}.}.}.}.}.}.}.}.}.|.tXjXppnnnnnnOOnnnnnn696969%%X.ppee77$.696911B.zzee77ee77777777117769o.o.1111111169696969696969696969696969696969696969FFFF",
"FFSXSXSXBXBXBXBXBXBXBXBXBXBXBXBXBXR.W.|.%%Z zzT T 6969eeR R R *.R R R *.*.o.<.uXR R T o.o.zz696969zzG G nnnnnnnnnnnnnnppT BXBX~~ppnnnnnnnnnnnnOOOOnnnnnn696969<.X.pp111169116969eezzL ggee7711777711777769o.o.1111117769f.<.<.)()(<.<.<.)(B.)(<.<.<.<.)(<.R R FF",
"FFBXBXW.R.R.R.R.R.R.R.W.R.R.R.|.R.T *.*.69%%zzT T 6969eeR R R *.R R >.*.*.*.T T R R 69T T <.zznn111169nnnnnnnnnnnnnnnnnnnnnnnnnnnnnnnnnnT OOOOppnnee696969%%X.pppp11116969696911eennzzuXeeeeeeee1177777769o.o.1111117769B.B.B.eeppeeeeeeeeeennnnppeeeepppp6969FF",
"FFBXBXW.W.W.W.W.W.R.R.W.R.W.W.R.W.*.>.>.%%%%zzT T 6969eeR R *.*.*.*.>.*.*.R 7777R >.R R R T o.o.zz11696969%%nnnnnnnnnnnnnnnnnnnnnnnnnnnnnnnnnn69696969%%X.o.pp11%%1169696969ee1177eeeeee77eeppggee77777769o.o.1111117769B.B.R.eeeeeeeeppeeeennnnpppppppppp6969FF",
"FFzzZ Z Z Z Z Z Z Z Z Z Z Z Z Z Z Z Z 6969nnzzT R 6911eeR R *.uX<.*.>.>.R R R R nnR R R 77T T T o.ppgg<.%%696969116911nnnnnnnnnnnnnnnn%%6969696969T X.o.ppee1169%%69eeeeppee111111117711eeggT ppf.pp111169o.o.%%1111116969696969696969696969696969696969696969FF",
"FFFFoXoX*.*.*.*.*.*.*.*.*.*.*.*.>.R R 69nnnnzzT T 6969eeR R *.uX<.*.R R R R R R %%R R 77uXuXT R R T T ppzzo.<.69696969696969696969696969691111X.X.o.ppee1111< &&%%11pp6Xzzee771111111177eegggg6Xppee111169o.o.%%1111111169nnnn111177111111111111117711116969FFFF",
"FFFFjXoXoXoXoXoXoXoXoXoXoXoXoXoXoXR 776969zz69T T 6969ppR R T )(<.NXR R R R R %%f.R R T uX<.T G L 77R T R eeppppo.X.X.o.<.gg11ssR o.X.X.X.X.X.pppp11111169&&$.&&69eeZ L zzpp11111111117777eeppgg6Xee771169o.o.%%ee11111169*.*.ppnnnnppppnnnnggggggnnggpp6969FFFF",
"FFLXLXjXjXjXjXjXjXjXjXjXjXjXjXjXjXjX<.<.6969nnzzT %%69nnR R R R R uXR R R R B.R G G R T <.uXR R G R BX77R R gg11eeeeppppppssL o.o.L sseeee111111111169696969&&7777eeggnnggee1111771111111111eeggeeee111169o.o.%%11111169.XW.*.*.*.*.*.*.*.*.*.*.*.*.*.*.<.6969FF",
"6X6XR.R.R.R.R.R.R.R.R.R.R.R.W.R.R.W.G Z nn69nnzzR 6969eeR R R R R R R R R 69G R R R R R T T o.G R R R R G R R f.*.11%%%%%%%%11111111%%11111169&&696969771111111111eeeeee7711111111111111111111ee1111111169o.o.%%111169>.<.zznnppeeeeeeppppppppeeeepppppppppp6969",
"6XuXR.nnZ Z Z Z Z nnZ R.W.Z nnnnZ |.zzZ nn%%nnzzT 6969ppR R R R R R R R %%f.G R R R G R R L R R R G R R R R G R R 77R R R %%691169696969697777771177777777777777777777111111111111111111111177111177771169o.o.%%111169<.<.ggpp69696969nnpp6969696969696969pp6969",
"6XuXR.nn<.B.)(B.nnZ Z W.W.jX6XuXzzW.Z Z nn%%nn69T %%69ppppppnnnnnnnnnn%%69G R G R G R G R L L R R L G R R R R R R L 77R R R R L nnpp7711696969696969696969696969696969696969696969696969696969696969696969o.o.11111169>.<.ppee69<.R nnnnpp696969*.pppp7769pp6969",
"6X6XW.Z <.B.B.B.77W.Z B.B.6XB.uXZ B.Z Z G 69nnppT 6911%%%%%%%%%%%%%%%%%%%%%%%%%%%%%%%%%%%%%%%%%%%%%%%%%%%%%%%%%%%%%%%%%%%%%%%%%%%%%%%%%%%%%%%%%%%%%%%%%%%%%%%%%%%%%%%%%%%%%%%%%%%%%%%%%%%%%%%%%%%%%%%%%%%%o.o.11111169f.>.pppp69f.pppppppp69*.11%%eepp7769pp6969",
"L L *.B.B.B.B.B.6XjXjX6X6X6XB.6XR L ppppnn%%nn69R %%)(g.g.g.g.g.g.g.g.g.g.g.g.g.g.g.g.g.g.g.g.g.g.g.g.g.g.g.g.g.g.g.g.o.o.o.o.o.o.o.o.o.o.o.o.o.o.o.o.o.o.o.o.o.o.o.o.o.o.o.%%69o.o.o.o.o.o.o.o.o.o.o.o.o.o.o.11771169%%111111%%Z ppppppnnpp*.ppwwpppp1169696969",
"6X6XB.B.B.B.B.B.B.B.B.B.B.B.B.B.B.R.Z Z nn69nnzzT T R T R R R R R 77R 77R R R R R R 77R R R R R 77R R R R zzzzzzzzzzzzzzzzzzzzzzzzzzpppp111111111111111111111111111111111111116969W.>.11111111111111111111111111111169<.<.nneeeeeeppppppppppppppppeepppppppp6969",
"nnnnnnZ nnnnnnnnnnnnnnnnnnnnnnnnnnnnnnnnnn%%%%zznnT T T R R T R R R 7777R R R R R R R R R R R R R R R R R zzzzzzzzzzZ Z Z Z Z Z zzzz69111111111111111111111111111111111111111111pp111111111111111111771111117711111169696969696969696969696969696969696969696969",
"6X6X6X6X6X6X6X6X6X6X6X6X6X6X6X6X6X6X6X6X6Xpp6969nnT R R R R R T R R R R R R R R R R 77R R T R zzzzzzzzzzzzzzzzzzZ Z Z Z Z Z zzzzzz1111111111111111111111111111111111111177111111R.1111111111111111111111777777117769>.>.>.>.>.>.>.>.>.>.>.>.>.*.>.>.>.>.>.>.>.*.",
"6X6X6X6X6X6X6X6X6X6X6X6X6X6X6X6X6X6X6X6Xppnn6969696969696969T T R R R R R R R R R R 77R R zzzzzzzzzzzzZ Z Z Z Z Z Z Z Z Z zzzz69111111111177111111111111111111111111111111111111pp1111111111111111111169696969696969*.>.>.*.>.>.>.>.>.>.>.>.>.>.>.>.>.>.>.>.*.69",
"6X6X6X6X6X6X6X6X6X6X6X6X6X6X6X6X6X6X6Xggppnn%%%%6X4X4X6X%%6969] R R R R R R T R R R R R zzzzzzZ Z Z Z Z Z Z Z Z Z Z Z Z zzzzzz111111111111771111111111111111111111%%77777711771111f.111111117777777769%%f.f.f.f.f.69R >.nnnnnnZ nnnnnnnnnn1111111111111111696969",
"6X6X6X6X<.<.<.6X<.<.<.<.<.<.<.<.<.<.*.nnnnpp69%%oXoXoXoXee776969696969%%R T T R R R zzzzzzzzzzzzzzzzzzzzzzzzzzzzzzzzzzzzzzzz111111111111111111%%1111771111111111111177%%7777%%1111111177%%696969696969R f.)()(f.B.69R R nnppppppnnpppp77777777777711117711696969",
"6X6X6X<.<.<.<.<.<.<.<.<.<.<.<.<.<.*.*.nnnnnn6969oX4XoXoX11114X4X4X1169696969696969696969%%6969%%69696969696969696969696969696969696969696969696969696969696969696969696969696969696969696969R )()(f.nnG f.f.f.f.f.69R R pppp696969697777777777771177117777696969",
"6X6X<.<.<.<.<.<.<.<.<.<.<.<.<.<.*.*.*.zznnnn6969zz<.*.*.11114XoXoXwwg.g.g.g.g.g.g.g.g.g.g.g.g.g.g.g.g.g.g.g.g.g.g.g.g.g.g.g.g.g.g.g.g.g.g.g.g.g.g.g.g.g.g.g.g.g.g.g.g.g.g.g.g.g.g.g.g.g.g.g.R )()(f.R G G R G G R 69R R pp69696969777777771177777777777777696969",
"6X6X<.<.<.<.<.<.<.<.<.<.<.<.<.*.*.*.*.zznnnn6969nn*.*.*.1111<.<.<.eeg.g.g.g.g.g.g.g.g.g.g.g.g.g.g.g.g.g.g.g.g.g.g.g.g.g.%%g.g.g.g.g.g.g.g.g.g.g.g.g.g.g.g.g.g.g.g.g.g.g.g.g.g.g.g.g.g.g.g.)(R nnnnnnR G %%%%%%%%1169R R pp69696977777777117777117777777777696969",
"6X6X<.<.<.<.<.<.<.<.<.<.<.<.<.*.*.*.*.zznnnn6969nn*.*.*.1111<.<.<.ppG G zzZ Z Z Z Z Z Z Z Z Z Z zzzzzzzzzzzzZ Z zzzz11%%)(zzzzzzzzzzzzzzzzzzzzZ zzZ zzZ Z Z Z Z zzzzzzZ Z Z Z Z Z zzzzzzzz11R 111111R G 11%%%%%%6969R R pp69697777777777777777777777777777696969",
"6X6X<.<.<.<.<.<.<.<.<.<.<.<.*.*.*.*.*.zzppnn6969nn*.*.*.7711<.<.<.pp%%Z Z Z Z Z Z Z Z Z Z Z Z Z Z Z Z Z Z Z Z Z Z 11f.R zzZ Z Z Z Z Z Z Z Z Z Z Z Z Z Z Z Z Z Z Z Z Z Z Z Z Z Z Z Z Z Z Z 11R %%77%%R G 77%%%%%%6969R R pp69777777777777777777777777111177696969",
"6X6Xo.<.<.<.<.<.<.<.<.<.<.<.*.*.*.*.*.ggnnpp6969nn*.*.*.1111<.<.<.ee69111111111111111111111111111111111111111111111111111111111111111111111111111111111111111111eeeeeeeeeeeeeeeeeeeeeeeeee69R %%7711R G 77%%11116969R R 1177117777771177777777777777777777696969",
"6X6X6X<.<.<.<.<.<.<.<.<.<.*.*.*.*.*.*.ppppnn6969nn>.*.*.7711<.<.<.ee6911zzzzzzzzzzzzzzzzzzzzzzzzzzzzzzzzzzzzzzzzzzzzzzzzzzzzzzzzzzzzzzzzzzzzzzzzzzzzzzzzzzgg77777777%%%%%%11%%11%%%%%%11%%69R %%77%%R R %%%%%%%%6969R R 1177777777117777777777777777777777696969",
"oX6X<.<.<.<.<.<.<.<.<.<.<.*.*.*.*.*.*.ppnnnn6969nn*.*.*.7711<.<.<.ee6911zzZ Z Z Z zzzzzzzzzzzzzzzzzzZ Z Z zzggzzzzggzzzzzzzzzzzzZ zzzzzzzzggzzzzzzzzzzgg7777777777%%77%%1111%%%%77%%11%%%%69R %%%%%%R R %%%%%%%%6969R R 1177777777777711771177777777777769696969",
"6X6X<.<.<.<.<.<.<.*.*.*.*.*.*.*.*.*.*.pppppp6969nn*.*.*.1111<.<.<.ee6911zzzzzzZ zzzzzzzzZ Z zzzzzzzzzzZ Z zzzzzzzzzzzzzzzzzzZ Z Z Z Z zzzzggggzzzzzzgg77%%%%%%77%%%%%%%%%%%%777777%%%%%%6969R %%%%11R G 11%%%%116969R R 1177777777777777777777777777776969116969",
"6X6X<.<.<.<.<.<.*.*.*.*.*.*.*.*.*.>.*.pp69gg6969nn*.*.*.7711<.<.<.ee6911zzzzZ Z Z Z Z Z Z Z Z Z Z zzzzzzzzzzzzzzZ Z Z Z ggZ Z Z Z zzzzzzggzzzzzzzzgg%%77%%77%%%%77%%%%7711%%%%%%%%77%%%%6969R %%%%%%R G %%%%11%%6969R R 1177777777777777777777777777696969776969",
"6X6X<.<.<.<.<.*.*.*.*.*.*.*.*.*.*.*.*.ppppgg6969nn*.*.*.7711*.*.<.ee6977zzZ Z Z Z Z Z Z Z Z Z Z zzzzzzzzZ zzzzZ Z Z Z Z Z Z Z Z Z zzzzzzzzzzzzzzgg77%%%%%%77%%%%%%77%%%%%%%%%%%%%%%%77%%6969R %%%%%%R R %%%%11116969R R 1177777777771177777777777769696969pp6969",
"6X6X<.<.<.<.*.*.*.*.*.*.*.*.*.*.*.*.*.ppppgg6969nn*.*.*.7711*.R *.pp6911zzZ Z Z Z Z Z Z Z Z zzzzzzzzZ Z Z Z zzzzzzzzzzzzzzzzzzzzggggggggggzzzzgg7777%%77%%%%11%%%%77%%7777%%%%ee%%%%%%%%6969R %%%%%%R R %%%%11%%6969R R 1177777777777777117777116969696969776969",
"6X6X<.<.<.*.>.*.>.*.*.*.*.*.*.*.*.*.<.ppzzpp6969nn*.*.*.7711R R *.pp6977zzZ zzZ Z zzzzzzzzzzzzZ Z Z Z Z Z Z Z zzZ gggggggg11eeeeeeee%%%%%%11%%11%%%%%%77%%111111%%77%%%%%%%%%%%%%%%%%%ee6969R 7777%%R G 77%%%%%%6969R R 1177777777777777777777696969696969776969",
"6X6X<.<.*.*.*.*.>.>.*.*.*.*.*.*.*.*.<.ppppnn6969pp*.*.*.7711R R R pp6977zzzzzzzzzzzzzzzzzzzzzzzzzzzzggZ Z Z zzzzgg11%%%%77%%%%%%%%%%%%%%%%%%77%%1177%%%%%%%%11%%77%%11%%%%%%%%%%77%%%%116969R 77%%%%R R 77%%%%%%6969R R 1177777777777777777769696969696969776969",
"6X6X<.*.*.*.*.*.*.*.*.*.*.>.*.*.*.*.<.ppppnn6969pp>.*.*.7777R R R pp6911zzzzggzzzzzzzzzzzzzzzzzzzzzzzzzzzzzzzz%%%%%%%%%%77%%%%%%1111111111%%%%%%%%%%%%%%ee%%77%%%%%%1177eeeeee77%%%%69696969R %%%%77R G %%77%%116969R R 11777777777777777769696911777777ww696969",
"6X6Xggppppppppppzznnnnppppppppppppppppnnppzz6969ppnn*.*.7777R T *.pp69696969696969696969696969696969696969696969696969696969696969696969696969696969696969696969696969696969696969696969696969%%7777R G %%%%%%696969R R 6969696969696969696969696969696969696969",
"6Xppppppppppnnnnnnppppppppppppppppppnnppnnnn6969ppppgggg77776969696969696969696969696969696969696969696969696969696969696969696969696969696969696969696969696969696969696969696969696969696969696969R G 696969696969R 696969696969696969696969696969696969696969",
"FFppppppppppppppnnppppppzzzzppppppppppppppnn6969pppppppp776969696969FFFFFFFFFFFFFFFFFFFFFFFFFFFFFFFFFFFFFFFFFFFFFFFFFFFFFFFFFFFFFFFFFFFFFFFFFFFFFFFFFFFFFFFFFFFFFFFFFFFFFFFFFFFFFFFFFFFFFFFF6969696969R 696969696969696969696969696969696969696969696969696969FF"
};
