/* XPM */
static char * kawara_W_xpm[] = {
"128 128 6520 2",
"  	c #FF00FF",
". 	c #523928",
"+ 	c #533B2B",
"@ 	c #4D3B2F",
"# 	c #38271F",
"$ 	c #523A28",
"% 	c #533823",
"& 	c #533926",
"* 	c #211814",
"= 	c #895F42",
"- 	c #A97249",
"; 	c #B2794C",
"> 	c #885A39",
", 	c #5C4030",
"' 	c #22160F",
") 	c #2F2019",
"! 	c #694935",
"~ 	c #8A5E3B",
"{ 	c #AD7649",
"] 	c #AB7548",
"^ 	c #8A603F",
"/ 	c #322417",
"( 	c #6E4D37",
"_ 	c #825536",
": 	c #8D5D3B",
"< 	c #92613C",
"[ 	c #492B1B",
"} 	c #482C1E",
"| 	c #3C2519",
"1 	c #180F0A",
"2 	c #472C1C",
"3 	c #4E301E",
"4 	c #52301C",
"5 	c #A46F44",
"6 	c #97643D",
"7 	c #8F5E3A",
"8 	c #5A3F2C",
"9 	c #A2714C",
"0 	c #623B22",
"a 	c #8E5E3C",
"b 	c #64412B",
"c 	c #472B1D",
"d 	c #3A2517",
"e 	c #393A13",
"f 	c #262F11",
"g 	c #3B291E",
"h 	c #473325",
"i 	c #261911",
"j 	c #724F34",
"k 	c #3A2619",
"l 	c #382419",
"m 	c #6F4D33",
"n 	c #2E1E15",
"o 	c #24160F",
"p 	c #4B3528",
"q 	c #150D0A",
"r 	c #2C3A19",
"s 	c #3C501B",
"t 	c #40561C",
"u 	c #324010",
"v 	c #3B3F15",
"w 	c #3F2819",
"x 	c #543220",
"y 	c #7D5336",
"z 	c #8C5D3A",
"A 	c #593C1F",
"B 	c #5F4326",
"C 	c #2D2115",
"D 	c #FE00FE",
"E 	c #624631",
"F 	c #865B3B",
"G 	c #5C3821",
"H 	c #956745",
"I 	c #43291C",
"J 	c #301D13",
"K 	c #2B1C11",
"L 	c #263905",
"M 	c #33500B",
"N 	c #557B1D",
"O 	c #52761C",
"P 	c #466518",
"Q 	c #385016",
"R 	c #273716",
"S 	c #10170A",
"T 	c #344419",
"U 	c #42561D",
"V 	c #38481A",
"W 	c #10130C",
"X 	c #34251A",
"Y 	c #8A6142",
"Z 	c #A3714A",
"` 	c #7B5439",
" .	c #25170F",
"..	c #150D09",
"+.	c #9F6F49",
"@.	c #A46F45",
"#.	c #603C26",
"$.	c #2B1B13",
"%.	c #311F16",
"&.	c #6D482E",
"*.	c #A77348",
"=.	c #946643",
"-.	c #130C09",
";.	c #21140D",
">.	c #7B5235",
",.	c #A8754B",
"'.	c #966946",
").	c #2A1B13",
"!.	c #181C0D",
"~.	c #3C4716",
"{.	c #52641E",
"].	c #54691C",
"^.	c #526B1E",
"/.	c #546E1E",
"(.	c #5A7922",
"_.	c #5A7C1E",
":.	c #54761B",
"<.	c #3F5D13",
"[.	c #324A0F",
"}.	c #473E1A",
"|.	c #3A2419",
"1.	c #4C2F1F",
"2.	c #956643",
"3.	c #54401E",
"4.	c #4F4A20",
"5.	c #815E45",
"6.	c #56351F",
"7.	c #59371F",
"8.	c #865C3F",
"9.	c #482D1F",
"0.	c #2D1B14",
"a.	c #654022",
"b.	c #3D3D0D",
"c.	c #345603",
"d.	c #406508",
"e.	c #3F6209",
"f.	c #415F0F",
"g.	c #4A6018",
"h.	c #425A18",
"i.	c #456517",
"j.	c #557616",
"k.	c #567719",
"l.	c #4C6A18",
"m.	c #304910",
"n.	c #463A19",
"o.	c #3E2515",
"p.	c #8A6141",
"q.	c #94633F",
"r.	c #75482B",
"s.	c #4B2F1F",
"t.	c #392316",
"u.	c #261710",
"v.	c #644833",
"w.	c #704F36",
"x.	c #704F35",
"y.	c #6F4E34",
"z.	c #6E4E34",
"A.	c #6D4E34",
"B.	c #6E4D34",
"C.	c #6E4F34",
"D.	c #6E4F35",
"E.	c #6E4F36",
"F.	c #684B33",
"G.	c #64452F",
"H.	c #A87349",
"I.	c #905C36",
"J.	c #755037",
"K.	c #291912",
"L.	c #573C28",
"M.	c #6C4B33",
"N.	c #6B4B32",
"O.	c #6C4C33",
"P.	c #6C4B32",
"Q.	c #6D4C33",
"R.	c #6D4D32",
"S.	c #6C4E34",
"T.	c #675034",
"U.	c #5F5332",
"V.	c #545329",
"W.	c #4D5127",
"X.	c #3E4921",
"Y.	c #38441A",
"Z.	c #685337",
"`.	c #513A2A",
" +	c #281910",
".+	c #80583A",
"++	c #AA764A",
"@+	c #9D6A42",
"#+	c #593E2A",
"$+	c #6F5037",
"%+	c #6E4E33",
"&+	c #6E4D32",
"*+	c #6D4D33",
"=+	c #725137",
"-+	c #634530",
";+	c #422B1C",
">+	c #332015",
",+	c #68452C",
"'+	c #A87347",
")+	c #96633D",
"!+	c #6C4B35",
"~+	c #432615",
"{+	c #4C3A1A",
"]+	c #344713",
"^+	c #2E4212",
"/+	c #445716",
"(+	c #576D1A",
"_+	c #56701A",
":+	c #4B6716",
"<+	c #395611",
"[+	c #2D480E",
"}+	c #2E4A0E",
"|+	c #34530E",
"1+	c #35550E",
"2+	c #304C0B",
"3+	c #5F4521",
"4+	c #613D24",
"5+	c #21160F",
"6+	c #503222",
"7+	c #8D6242",
"8+	c #6C492B",
"9+	c #554120",
"0+	c #48321F",
"a+	c #79583F",
"b+	c #4F301C",
"c+	c #6A4C38",
"d+	c #41281C",
"e+	c #2A1A13",
"f+	c #2E1B14",
"g+	c #643E27",
"h+	c #583D1D",
"i+	c #243A04",
"j+	c #253E04",
"k+	c #333510",
"l+	c #5E3C21",
"m+	c #704629",
"n+	c #784D2C",
"o+	c #494418",
"p+	c #2C470A",
"q+	c #3F4113",
"r+	c #6D4825",
"s+	c #6E4724",
"t+	c #754728",
"u+	c #9A6946",
"v+	c #7D4928",
"w+	c #663E24",
"x+	c #482D1D",
"y+	c #412719",
"z+	c #794B2E",
"A+	c #8E5E39",
"B+	c #96633C",
"C+	c #98643C",
"D+	c #9B673F",
"E+	c #9C683F",
"F+	c #9C673F",
"G+	c #9A663D",
"H+	c #99653E",
"I+	c #915F3A",
"J+	c #835736",
"K+	c #8A5F3E",
"L+	c #8E5A38",
"M+	c #7A4829",
"N+	c #3C2415",
"O+	c #342115",
"P+	c #65432C",
"Q+	c #6D472B",
"R+	c #7A5033",
"S+	c #7D5132",
"T+	c #855837",
"U+	c #8B5C39",
"V+	c #8D5D39",
"W+	c #905F39",
"X+	c #906039",
"Y+	c #8D5E38",
"Z+	c #5D4A23",
"`+	c #445514",
" @	c #58741A",
".@	c #4E6C19",
"+@	c #2D4C0D",
"@@	c #3B5F0D",
"#@	c #5F6E23",
"$@	c #4F321D",
"%@	c #2B1A11",
"&@	c #3E2618",
"*@	c #724629",
"=@	c #7C4D2C",
"-@	c #7F583C",
";@	c #835A3A",
">@	c #94623B",
",@	c #96623B",
"'@	c #95623A",
")@	c #946139",
"!@	c #925F37",
"~@	c #8F5C36",
"{@	c #8D5B36",
"]@	c #8A5A35",
"^@	c #8A5B35",
"/@	c #876C34",
"(@	c #856C33",
"_@	c #7A4A29",
":@	c #683F26",
"<@	c #27180F",
"[@	c #502F1C",
"}@	c #835434",
"|@	c #7F4C2C",
"1@	c #684026",
"2@	c #4D2B1A",
"3@	c #7B4828",
"4@	c #634221",
"5@	c #634222",
"6@	c #634521",
"7@	c #4F431D",
"8@	c #4A4320",
"9@	c #4B3E1F",
"0@	c #573F21",
"a@	c #5D4023",
"b@	c #48391A",
"c@	c #2B3B0C",
"d@	c #29460A",
"e@	c #3E3B14",
"f@	c #53351F",
"g@	c #482D1C",
"h@	c #251811",
"i@	c #492C1E",
"j@	c #775239",
"k@	c #734F2F",
"l@	c #4F441C",
"m@	c #483620",
"n@	c #3D2E25",
"o@	c #6F4C35",
"p@	c #4F2F1C",
"q@	c #51321F",
"r@	c #3F281C",
"s@	c #382317",
"t@	c #311D16",
"u@	c #613B24",
"v@	c #6C4227",
"w@	c #614323",
"x@	c #634122",
"y@	c #673E23",
"z@	c #613821",
"A@	c #5C3520",
"B@	c #55311E",
"C@	c #4F331E",
"D@	c #402D18",
"E@	c #4B2F1C",
"F@	c #58351F",
"G@	c #5C371F",
"H@	c #5D3821",
"I@	c #432D20",
"J@	c #805030",
"K@	c #7C4828",
"L@	c #613A23",
"M@	c #41281B",
"N@	c #402618",
"O@	c #613922",
"P@	c #603920",
"Q@	c #653A20",
"R@	c #6A3D23",
"S@	c #6E4025",
"T@	c #714225",
"U@	c #7A4727",
"V@	c #794728",
"W@	c #764527",
"X@	c #734326",
"Y@	c #704125",
"Z@	c #6A3F24",
"`@	c #51301E",
" #	c #926544",
".#	c #7D4929",
"+#	c #704327",
"@#	c #3C2417",
"##	c #774629",
"$#	c #704225",
"%#	c #6E4024",
"&#	c #744426",
"*#	c #764526",
"=#	c #774526",
"-#	c #774627",
";#	c #724426",
">#	c #694224",
",#	c #5B4021",
"'#	c #563C20",
")#	c #373814",
"!#	c #415B14",
"~#	c #56581D",
"{#	c #55351F",
"]#	c #352017",
"^#	c #683F25",
"/#	c #774728",
"(#	c #6A442C",
"_#	c #331D11",
":#	c #7B492A",
"<#	c #7C4929",
"[#	c #7C4928",
"}#	c #7B4A29",
"|#	c #7C4A29",
"1#	c #7C492A",
"2#	c #6A4424",
"3#	c #553F1C",
"4#	c #636320",
"5#	c #5B741E",
"6#	c #6C5725",
"7#	c #7D4C2B",
"8#	c #76482B",
"9#	c #2E1C13",
"0#	c #472B1B",
"a#	c #814C2C",
"b#	c #7B4C2C",
"c#	c #291911",
"d#	c #4F2E1C",
"e#	c #5D3720",
"f#	c #613A22",
"g#	c #633B22",
"h#	c #623B24",
"i#	c #59351F",
"j#	c #55321D",
"k#	c #54331E",
"l#	c #54331F",
"m#	c #53341F",
"n#	c #48331A",
"o#	c #313210",
"p#	c #422C19",
"q#	c #3E2718",
"r#	c #372217",
"s#	c #2E1D14",
"t#	c #2E1D15",
"u#	c #5F4230",
"v#	c #734F33",
"w#	c #503D1A",
"x#	c #513A23",
"y#	c #473224",
"z#	c #603D28",
"A#	c #52311E",
"B#	c #4C2F1E",
"C#	c #392318",
"D#	c #311E15",
"E#	c #321F18",
"F#	c #321E17",
"G#	c #311E17",
"H#	c #362117",
"I#	c #352115",
"J#	c #3A2114",
"K#	c #4E2E1E",
"L#	c #53311F",
"M#	c #54311F",
"N#	c #5B3621",
"O#	c #4B3B1A",
"P#	c #58471F",
"Q#	c #6C3F23",
"R#	c #6B3E23",
"S#	c #6D4024",
"T#	c #7B4728",
"U#	c #794628",
"V#	c #553320",
"W#	c #3B2316",
"X#	c #301E16",
"Y#	c #3A2317",
"Z#	c #6E4126",
"`#	c #704126",
" $	c #6F4125",
".$	c #714227",
"+$	c #774729",
"@$	c #6E4227",
"#$	c #7F4C2E",
"$$	c #845131",
"%$	c #462818",
"&$	c #7B5337",
"*$	c #7A4728",
"=$	c #693E24",
"-$	c #25170E",
";$	c #331E14",
">$	c #76462A",
",$	c #724428",
"'$	c #6A3E23",
")$	c #653B22",
"!$	c #603820",
"~$	c #613A21",
"{$	c #5F3921",
"]$	c #5B361F",
"^$	c #593621",
"/$	c #56341F",
"($	c #55351E",
"_$	c #4F341C",
":$	c #3A3716",
"<$	c #52361F",
"[$	c #583621",
"}$	c #331F15",
"|$	c #271911",
"1$	c #764728",
"2$	c #5B3721",
"3$	c #291810",
"4$	c #704228",
"5$	c #78472A",
"6$	c #79492B",
"7$	c #7A492C",
"8$	c #704627",
"9$	c #50411B",
"0$	c #5E4420",
"a$	c #764929",
"b$	c #7F4D2C",
"c$	c #7E4E2F",
"d$	c #311E14",
"e$	c #3C2518",
"f$	c #593521",
"g$	c #834C2C",
"h$	c #7C4C2C",
"i$	c #301F13",
"j$	c #342217",
"k$	c #3D2416",
"l$	c #3B2417",
"m$	c #40281A",
"n$	c #462A1A",
"o$	c #4E2F1C",
"p$	c #50301C",
"q$	c #4A2D1B",
"r$	c #462918",
"s$	c #452A19",
"t$	c #462B1A",
"u$	c #402819",
"v$	c #2D1C12",
"w$	c #293A0F",
"x$	c #2F2514",
"y$	c #362116",
"z$	c #41271A",
"A$	c #6C4A31",
"B$	c #563723",
"C$	c #3F281B",
"D$	c #3A2518",
"E$	c #573522",
"F$	c #543320",
"G$	c #4C2F1D",
"H$	c #372117",
"I$	c #321E18",
"J$	c #4F301E",
"K$	c #54321E",
"L$	c #5E3722",
"M$	c #623A23",
"N$	c #653B23",
"O$	c #663E22",
"P$	c #724627",
"Q$	c #774628",
"R$	c #714327",
"S$	c #56321E",
"T$	c #4E3020",
"U$	c #382318",
"V$	c #382217",
"W$	c #53311E",
"X$	c #54311E",
"Y$	c #55311D",
"Z$	c #5B3520",
"`$	c #593420",
" %	c #4A2C1B",
".%	c #422819",
"+%	c #3F2618",
"@%	c #3D2517",
"#%	c #402619",
"$%	c #472A1A",
"%%	c #56331F",
"&%	c #382115",
"*%	c #694026",
"=%	c #271810",
"-%	c #311D17",
";%	c #43281A",
">%	c #492A1A",
",%	c #482B1B",
"'%	c #482B1A",
")%	c #472B1A",
"!%	c #472A19",
"~%	c #4A2B1A",
"{%	c #4B2C1A",
"]%	c #4E2D1B",
"^%	c #53311D",
"/%	c #53331E",
"(%	c #443F19",
"_%	c #563A1E",
":%	c #53331F",
"<%	c #311E16",
"[%	c #271811",
"}%	c #784728",
"|%	c #5A3520",
"1%	c #271711",
"2%	c #382216",
"3%	c #412718",
"4%	c #442719",
"5%	c #482A1A",
"6%	c #4C2C1B",
"7%	c #4D2C1A",
"8%	c #58351E",
"9%	c #59351E",
"0%	c #593520",
"a%	c #362218",
"b%	c #372114",
"c%	c #77492B",
"d%	c #352216",
"e%	c #3D271A",
"f%	c #583420",
"g%	c #54321F",
"h%	c #53321E",
"i%	c #50301D",
"j%	c #3F2619",
"k%	c #341F15",
"l%	c #292C0D",
"m%	c #263C09",
"n%	c #2D430F",
"o%	c #322017",
"p%	c #331F18",
"q%	c #2B1911",
"r%	c #3A2217",
"s%	c #5E3B26",
"t%	c #563521",
"u%	c #462C1D",
"v%	c #382418",
"w%	c #543421",
"x%	c #563421",
"y%	c #372218",
"z%	c #22140D",
"A%	c #362017",
"B%	c #3D2519",
"C%	c #44281A",
"D%	c #44291A",
"E%	c #764629",
"F%	c #77472A",
"G%	c #4A2E1E",
"H%	c #372318",
"I%	c #4C2D1D",
"J%	c #4E2E1C",
"K%	c #4E2D1C",
"L%	c #4F2F1D",
"M%	c #51301D",
"N%	c #563321",
"O%	c #362015",
"P%	c #6B3F26",
"Q%	c #4E2F1D",
"R%	c #301E17",
"S%	c #3D2418",
"T%	c #52301E",
"U%	c #55321F",
"V%	c #55331F",
"W%	c #543420",
"X%	c #503F1E",
"Y%	c #573B21",
"Z%	c #5C3721",
"`%	c #784729",
" &	c #482A19",
".&	c #4A2B1B",
"+&	c #4B2C1B",
"@&	c #4D2D1D",
"#&	c #4E2E1D",
"$&	c #4F2F1E",
"%&	c #50301F",
"&&	c #4F301F",
"*&	c #50301E",
"=&	c #4D2E1E",
"-&	c #342018",
";&	c #382215",
">&	c #452A1B",
",&	c #5E3923",
"'&	c #382319",
")&	c #4B2C1C",
"!&	c #4A2C1C",
"~&	c #472A1B",
"{&	c #40261A",
"]&	c #3B2318",
"^&	c #321E16",
"/&	c #2E2313",
"(&	c #321F16",
"_&	c #241710",
":&	c #623C27",
"<&	c #53321F",
"[&	c #553420",
"}&	c #342116",
"|&	c #543522",
"1&	c #563522",
"2&	c #533221",
"3&	c #281811",
"4&	c #1E120D",
"5&	c #281711",
"6&	c #2C1A14",
"7&	c #331E17",
"8&	c #2F1D15",
"9&	c #2E1C15",
"0&	c #341F18",
"a&	c #3C2619",
"b&	c #40281B",
"c&	c #321D15",
"d&	c #352116",
"e&	c #563420",
"f&	c #472B1C",
"g&	c #281911",
"h&	c #301D17",
"i&	c #341F16",
"j&	c #331E16",
"k&	c #341E16",
"l&	c #331D16",
"m&	c #331D15",
"n&	c #321D16",
"o&	c #271912",
"p&	c #4D2F1E",
"q&	c #331F14",
"r&	c #2A1912",
"s&	c #321F17",
"t&	c #3A2315",
"u&	c #3F271B",
"v&	c #3A2418",
"w&	c #3C2618",
"x&	c #2D1D13",
"y&	c #332018",
"z&	c #301C16",
"A&	c #2B1913",
"B&	c #281812",
"C&	c #261711",
"D&	c #1B110D",
"E&	c #573420",
"F&	c #553422",
"G&	c #251710",
"H&	c #291A13",
"I&	c #27170F",
"J&	c #49271C",
"K&	c #6A3828",
"L&	c #623223",
"M&	c #5B2F21",
"N&	c #3F2018",
"O&	c #25150F",
"P&	c #321D17",
"Q&	c #22150F",
"R&	c #3A2316",
"S&	c #482B19",
"T&	c #382014",
"U&	c #25150E",
"V&	c #2C1A13",
"W&	c #281A12",
"X&	c #372319",
"Y&	c #38241A",
"Z&	c #392419",
"`&	c #352118",
" *	c #2F1C16",
".*	c #2C1B14",
"+*	c #291812",
"@*	c #251610",
"#*	c #23150F",
"$*	c #2A1913",
"%*	c #301D15",
"&*	c #332017",
"**	c #362317",
"=*	c #23140E",
"-*	c #372115",
";*	c #362217",
">*	c #2D1B12",
",*	c #21130D",
"'*	c #2E1D13",
")*	c #22150D",
"!*	c #21120B",
"~*	c #26140C",
"{*	c #25140D",
"]*	c #261610",
"^*	c #2B1A13",
"/*	c #301D16",
"(*	c #2F1D14",
"_*	c #281A11",
":*	c #201610",
"<*	c #1F1610",
"[*	c #1B120D",
"}*	c #20140F",
"|*	c #1F130E",
"1*	c #271410",
"2*	c #2F1812",
"3*	c #341B15",
"4*	c #361B16",
"5*	c #381C16",
"6*	c #381C15",
"7*	c #341D14",
"8*	c #25140E",
"9*	c #1A100B",
"0*	c #3A2417",
"a*	c #362115",
"b*	c #703B29",
"c*	c #783E2A",
"d*	c #783E2B",
"e*	c #793F2C",
"f*	c #653426",
"g*	c #3D1E17",
"h*	c #2C1C11",
"i*	c #342014",
"j*	c #402617",
"k*	c #6E4226",
"l*	c #704226",
"m*	c #6F4226",
"n*	c #502E1D",
"o*	c #26150F",
"p*	c #1C120D",
"q*	c #38251B",
"r*	c #36231A",
"s*	c #281912",
"t*	c #2F1D16",
"u*	c #261611",
"v*	c #20120D",
"w*	c #22130E",
"x*	c #361E15",
"y*	c #47291B",
"z*	c #4C2B1C",
"A*	c #4F2D1D",
"B*	c #48281A",
"C*	c #41241A",
"D*	c #3F231A",
"E*	c #3A2017",
"F*	c #2B1912",
"G*	c #1A110B",
"H*	c #2B1C12",
"I*	c #322016",
"J*	c #2C1C13",
"K*	c #281710",
"L*	c #301B13",
"M*	c #4D2D1C",
"N*	c #693D24",
"O*	c #54311C",
"P*	c #27170E",
"Q*	c #21140C",
"R*	c #4E2D1A",
"S*	c #744325",
"T*	c #7A4627",
"U*	c #7B4626",
"V*	c #794424",
"W*	c #55281B",
"X*	c #472118",
"Y*	c #381D16",
"Z*	c #2B1A12",
"`*	c #2F1C15",
" =	c #1D120D",
".=	c #211510",
"+=	c #30251E",
"@=	c #372F28",
"#=	c #3C342C",
"$=	c #3D352E",
"%=	c #3C342D",
"&=	c #372F29",
"*=	c #4B3024",
"==	c #44281C",
"-=	c #271812",
";=	c #3E1E18",
">=	c #421F1A",
",=	c #411F18",
"'=	c #442019",
")=	c #46221A",
"!=	c #47231B",
"~=	c #46231A",
"{=	c #43221A",
"]=	c #41211A",
"^=	c #402019",
"/=	c #251510",
"(=	c #301D14",
"_=	c #3E2719",
":=	c #48291B",
"<=	c #773D2B",
"[=	c #79402C",
"}=	c #7A402C",
"|=	c #5F3124",
"1=	c #44221A",
"2=	c #2D1610",
"3=	c #18100B",
"4=	c #382316",
"5=	c #704326",
"6=	c #47271B",
"7=	c #42221A",
"8=	c #1F150E",
"9=	c #1E130D",
"0=	c #1E130E",
"a=	c #160E09",
"b=	c #1D110B",
"c=	c #3D2119",
"d=	c #3C1E19",
"e=	c #3A1D18",
"f=	c #512D1E",
"g=	c #5C3522",
"h=	c #5C3422",
"i=	c #5B3421",
"j=	c #573120",
"k=	c #512A20",
"l=	c #502A20",
"m=	c #502B21",
"n=	c #1B130E",
"o=	c #170F0B",
"p=	c #20150F",
"q=	c #201410",
"r=	c #1D140E",
"s=	c #311C15",
"t=	c #371E17",
"u=	c #381F17",
"v=	c #623922",
"w=	c #6F4225",
"x=	c #6F4124",
"y=	c #6E4124",
"z=	c #57331E",
"A=	c #2D1C13",
"B=	c #20140E",
"C=	c #20130D",
"D=	c #1F120D",
"E=	c #51301B",
"F=	c #7C4724",
"G=	c #7A4525",
"H=	c #7B4625",
"I=	c #703D22",
"J=	c #59291D",
"K=	c #59291E",
"L=	c #55291E",
"M=	c #2B1710",
"N=	c #1C110C",
"O=	c #22140F",
"P=	c #241510",
"Q=	c #170F0A",
"R=	c #2C1C15",
"S=	c #342921",
"T=	c #37312A",
"U=	c #36312A",
"V=	c #3A342B",
"W=	c #3B342C",
"X=	c #3A332B",
"Y=	c #543829",
"Z=	c #6C3D29",
"`=	c #4D2E1F",
" -	c #19110C",
".-	c #231510",
"+-	c #261811",
"@-	c #382119",
"#-	c #421F19",
"$-	c #401E19",
"%-	c #5B3022",
"&-	c #623626",
"*-	c #613626",
"=-	c #5C3223",
"--	c #5A3122",
";-	c #552F20",
">-	c #572F21",
",-	c #49281C",
"'-	c #3D271B",
")-	c #3E2619",
"!-	c #3D2518",
"~-	c #613423",
"{-	c #763C29",
"]-	c #773D2A",
"^-	c #552B1F",
"/-	c #45221A",
"(-	c #261510",
"_-	c #20150E",
":-	c #3D2619",
"<-	c #3A2416",
"[-	c #663D24",
"}-	c #6F4326",
"|-	c #6C4025",
"1-	c #3E1E17",
"2-	c #49231C",
"3-	c #281712",
"4-	c #40211A",
"5-	c #3D1E18",
"6-	c #593321",
"7-	c #5A3421",
"8-	c #593421",
"9-	c #573020",
"0-	c #532B20",
"a-	c #532B21",
"b-	c #4F2820",
"c-	c #512921",
"d-	c #43241C",
"e-	c #1E140F",
"f-	c #1B120C",
"g-	c #371F17",
"h-	c #3F2317",
"i-	c #6E4225",
"j-	c #6E4224",
"k-	c #663C22",
"l-	c #3E271B",
"m-	c #2A1A14",
"n-	c #2A1A12",
"o-	c #5C351D",
"p-	c #894F29",
"q-	c #7C4625",
"r-	c #7B4624",
"s-	c #64331F",
"t-	c #572920",
"u-	c #3C1F17",
"v-	c #382F26",
"w-	c #37312B",
"x-	c #35302A",
"y-	c #39332B",
"z-	c #3A332A",
"A-	c #47352A",
"B-	c #6B3E28",
"C-	c #653B28",
"D-	c #23160E",
"E-	c #301E15",
"F-	c #2C1B12",
"G-	c #4A2921",
"H-	c #3F1E18",
"I-	c #49251C",
"J-	c #643627",
"K-	c #633526",
"L-	c #613525",
"M-	c #5E3423",
"N-	c #633826",
"O-	c #643727",
"P-	c #26160F",
"Q-	c #FC00FC",
"R-	c #1E140E",
"S-	c #412518",
"T-	c #753B29",
"U-	c #773C2A",
"V-	c #793F2B",
"W-	c #7A3F2C",
"X-	c #47221A",
"Y-	c #392317",
"Z-	c #6F4127",
"`-	c #704227",
" ;	c #673C24",
".;	c #47211A",
"+;	c #46221B",
"@;	c #2F1A14",
"#;	c #3D1E19",
"$;	c #45241A",
"%;	c #5D3623",
"&;	c #5D3620",
"*;	c #603B22",
"=;	c #5D3721",
"-;	c #4D251F",
";;	c #4A241E",
">;	c #45231C",
",;	c #1D130E",
"';	c #301E14",
");	c #150F09",
"!;	c #311C16",
"~;	c #371E16",
"{;	c #54301E",
"];	c #6E4125",
"^;	c #6D4124",
"/;	c #6F4224",
"(;	c #352013",
"_;	c #63381E",
":;	c #91552B",
"<;	c #7C4624",
"[;	c #7C4725",
"};	c #784324",
"|;	c #59281E",
"1;	c #57281E",
"2;	c #422119",
"3;	c #321E14",
"4;	c #23160F",
"5;	c #3A3028",
"6;	c #39322B",
"7;	c #38312A",
"8;	c #39322A",
"9;	c #3B342A",
"0;	c #3B332A",
"a;	c #673D2A",
"b;	c #6A3C28",
"c;	c #44271A",
"d;	c #20130E",
"e;	c #4B2D21",
"f;	c #401E18",
"g;	c #512A1F",
"h;	c #633727",
"i;	c #5F3324",
"j;	c #653828",
"k;	c #653727",
"l;	c #473226",
"m;	c #3A2216",
"n;	c #5D3121",
"o;	c #793C2A",
"p;	c #773B2A",
"q;	c #6E3626",
"r;	c #7A3C2A",
"s;	c #703829",
"t;	c #401F19",
"u;	c #3F1F18",
"v;	c #160D0A",
"w;	c #342015",
"x;	c #402718",
"y;	c #5C3620",
"z;	c #6F4126",
"A;	c #5F3521",
"B;	c #4A231C",
"C;	c #623F2B",
"D;	c #45221B",
"E;	c #43201A",
"F;	c #58321F",
"G;	c #663B23",
"H;	c #5D3622",
"I;	c #5B3620",
"J;	c #5E3921",
"K;	c #603A22",
"L;	c #5E3821",
"M;	c #4F261F",
"N;	c #4B241F",
"O;	c #48241E",
"P;	c #1A100A",
"Q;	c #321E15",
"R;	c #311F15",
"S;	c #170F09",
"T;	c #472D20",
"U;	c #341C15",
"V;	c #643A22",
"W;	c #392012",
"X;	c #764525",
"Y;	c #93562A",
"Z;	c #7F4825",
"`;	c #7D4725",
" >	c #6D3922",
".>	c #58281F",
"+>	c #48221A",
"@>	c #321F15",
"#>	c #291A12",
"$>	c #563827",
"%>	c #3C3128",
"&>	c #3B332B",
"*>	c #3A322A",
"=>	c #3B342B",
"->	c #5C3928",
";>	c #6B3D29",
">>	c #5D3624",
",>	c #3C2517",
"'>	c #553928",
")>	c #623C28",
"!>	c #542B20",
"~>	c #5B3122",
"{>	c #653627",
"]>	c #5B3123",
"^>	c #1B100C",
"/>	c #FD00FD",
"(>	c #5B3F2E",
"_>	c #381F13",
":>	c #45281A",
"<>	c #713928",
"[>	c #6C3425",
"}>	c #75392A",
"|>	c #5C2D21",
"1>	c #3F1F17",
"2>	c #2E1712",
"3>	c #52301D",
"4>	c #673D24",
"5>	c #321D11",
"6>	c #693E25",
"7>	c #734526",
"8>	c #532C1F",
"9>	c #49221B",
"0>	c #2F1712",
"a>	c #1C100B",
"b>	c #9A6742",
"c>	c #552A21",
"d>	c #522822",
"e>	c #613623",
"f>	c #623722",
"g>	c #633922",
"h>	c #603921",
"i>	c #5E3922",
"j>	c #603A23",
"k>	c #5E3721",
"l>	c #52271F",
"m>	c #4F2520",
"n>	c #1A110D",
"o>	c #1E120C",
"p>	c #1D110A",
"q>	c #865B3D",
"r>	c #4D2B1B",
"s>	c #563220",
"t>	c #6E4026",
"u>	c #3A2215",
"v>	c #3F271A",
"w>	c #8E542C",
"x>	c #915529",
"y>	c #824A26",
"z>	c #774123",
"A>	c #5C2A1E",
"B>	c #4E241C",
"C>	c #2C1B11",
"D>	c #2E1C14",
"E>	c #784E33",
"F>	c #5E432F",
"G>	c #3A322B",
"H>	c #38322A",
"I>	c #442F23",
"J>	c #6F402B",
"K>	c #6B3E2A",
"L>	c #402818",
"M>	c #9C6844",
"N>	c #5C3122",
"O>	c #623526",
"P>	c #633627",
"Q>	c #552E21",
"R>	c #643526",
"S>	c #4B3324",
"T>	c #563623",
"U>	c #4F2C1D",
"V>	c #5E3221",
"W>	c #773B29",
"X>	c #783B29",
"Y>	c #5D2C1F",
"Z>	c #7D3E2E",
"`>	c #74392A",
" ,	c #381C17",
".,	c #170D0A",
"+,	c #724225",
"@,	c #58341F",
"#,	c #6C3F26",
"$,	c #6D4025",
"%,	c #95623B",
"&,	c #663C25",
"*,	c #6D3E26",
"=,	c #42201A",
"-,	c #24140F",
";,	c #311D15",
">,	c #352117",
",,	c #22120C",
"',	c #B0754A",
"),	c #613324",
"!,	c #552822",
"~,	c #532822",
"{,	c #4D231D",
"],	c #57311F",
"^,	c #5F3A21",
"/,	c #5A3120",
"(,	c #50261F",
"_,	c #522620",
":,	c #43211C",
"<,	c #42271A",
"[,	c #291811",
"},	c #8E5E3B",
"|,	c #79482A",
"1,	c #8B5632",
"2,	c #482516",
"3,	c #6D3F26",
"4,	c #6C3E26",
"5,	c #2D1A12",
"6,	c #2E1B13",
"7,	c #2D1B13",
"8,	c #321C11",
"9,	c #93562D",
"0,	c #95562B",
"a,	c #8C5028",
"b,	c #714023",
"c,	c #794325",
"d,	c #622C1E",
"e,	c #4B221A",
"f,	c #3B2317",
"g,	c #543727",
"h,	c #815538",
"i,	c #3B332C",
"j,	c #332922",
"k,	c #663C2A",
"l,	c #6B3F2B",
"m,	c #1F130C",
"n,	c #422719",
"o,	c #8E5E3D",
"p,	c #815034",
"q,	c #563022",
"r,	c #633827",
"s,	c #653929",
"t,	c #5A3123",
"u,	c #5A2F21",
"v,	c #653526",
"w,	c #3B1D17",
"x,	c #5F3F28",
"y,	c #67422A",
"z,	c #633423",
"A,	c #743B28",
"B,	c #743A28",
"C,	c #733A28",
"D,	c #411E17",
"E,	c #72372A",
"F,	c #54281E",
"G,	c #381B17",
"H,	c #251410",
"I,	c #140C0A",
"J,	c #26130A",
"K,	c #97633E",
"L,	c #714224",
"M,	c #8F5E3C",
"N,	c #522C1D",
"O,	c #2F1913",
"P,	c #372116",
"Q,	c #412818",
"R,	c #372016",
"S,	c #2B1812",
"T,	c #8E5B39",
"U,	c #74432C",
"V,	c #522721",
"W,	c #532821",
"X,	c #5C4020",
"Y,	c #603721",
"Z,	c #5D3820",
"`,	c #422219",
" '	c #43201B",
".'	c #44201B",
"+'	c #361C18",
"@'	c #130C07",
"#'	c #311D13",
"$'	c #4B2D1C",
"%'	c #905C37",
"&'	c #794929",
"*'	c #6C4023",
"='	c #754526",
"-'	c #A0673C",
";'	c #3F1E13",
">'	c #6B3D25",
",'	c #502D1D",
"''	c #794726",
")'	c #9A5A2D",
"!'	c #96572B",
"~'	c #804925",
"{'	c #6A3D21",
"]'	c #63371E",
"^'	c #653520",
"/'	c #351E15",
"('	c #2C1A12",
"_'	c #402519",
":'	c #150C07",
"<'	c #68442D",
"['	c #3A3128",
"}'	c #3D342D",
"|'	c #383129",
"1'	c #352E27",
"2'	c #362319",
"3'	c #452B1E",
"4'	c #211610",
"5'	c #432919",
"6'	c #442819",
"7'	c #342016",
"8'	c #341E15",
"9'	c #65412D",
"0'	c #553221",
"a'	c #9C6843",
"b'	c #653928",
"c'	c #673C2B",
"d'	c #643828",
"e'	c #5D3124",
"f'	c #50271C",
"g'	c #3E1F19",
"h'	c #402516",
"i'	c #AC7146",
"j'	c #9B603E",
"k'	c #723A28",
"l'	c #5E2F21",
"m'	c #361A15",
"n'	c #45201A",
"o'	c #351A16",
"p'	c #301915",
"q'	c #180E0A",
"r'	c #362016",
"s'	c #23130D",
"t'	c #784F32",
"u'	c #9F6940",
"v'	c #8E5B35",
"w'	c #976137",
"x'	c #A46C40",
"y'	c #795033",
"z'	c #381D17",
"A'	c #24130F",
"B'	c #291711",
"C'	c #311D14",
"D'	c #352015",
"E'	c #462A19",
"F'	c #492A19",
"G'	c #331C14",
"H'	c #371C16",
"I'	c #4D2A1E",
"J'	c #6C3C25",
"K'	c #663624",
"L'	c #582B20",
"M'	c #582C1F",
"N'	c #5B3121",
"O'	c #5C3421",
"P'	c #5B3120",
"Q'	c #572D20",
"R'	c #43211B",
"S'	c #321A15",
"T'	c #331B17",
"U'	c #402518",
"V'	c #3E2518",
"W'	c #3D2318",
"X'	c #3F2518",
"Y'	c #3E2418",
"Z'	c #3D2217",
"`'	c #875836",
" )	c #9D663D",
".)	c #895631",
"+)	c #7D4C2C",
"@)	c #935C35",
"#)	c #9B623A",
"$)	c #3A1D14",
"%)	c #391F16",
"&)	c #341D15",
"*)	c #22140E",
"=)	c #331D13",
"-)	c #714324",
";)	c #8E532B",
">)	c #8D5329",
",)	c #844F28",
"')	c #854D28",
"))	c #864C27",
"!)	c #894F27",
"~)	c #724224",
"{)	c #372015",
"])	c #2D1A11",
"^)	c #462619",
"/)	c #351F16",
"()	c #1B110B",
"_)	c #37271D",
":)	c #3C3229",
"<)	c #3D352D",
"[)	c #3A3129",
"})	c #45372C",
"|)	c #4C392C",
"1)	c #50372A",
"2)	c #19140F",
"3)	c #271A12",
"4)	c #1E150E",
"5)	c #341F14",
"6)	c #432918",
"7)	c #452918",
"8)	c #503324",
"9)	c #B47B4C",
"0)	c #A56E46",
"a)	c #8D5B3A",
"b)	c #815133",
"c)	c #895435",
"d)	c #845237",
"e)	c #401F18",
"f)	c #3C1E17",
"g)	c #27130A",
"h)	c #9B6743",
"i)	c #422217",
"j)	c #4F2E24",
"k)	c #42231B",
"l)	c #341A15",
"m)	c #341B16",
"n)	c #351C18",
"o)	c #2A1713",
"p)	c #1D100D",
"q)	c #3C2318",
"r)	c #43261A",
"s)	c #321D14",
"t)	c #452A1D",
"u)	c #6B452B",
"v)	c #7D5233",
"w)	c #6D472D",
"x)	c #371C13",
"y)	c #321B15",
"z)	c #311B15",
"A)	c #281510",
"B)	c #180E0B",
"C)	c #301C11",
"D)	c #422617",
"E)	c #422616",
"F)	c #4A2A18",
"G)	c #56311B",
"H)	c #5E341D",
"I)	c #3E2419",
"J)	c #22120E",
"K)	c #301A14",
"L)	c #3C2118",
"M)	c #4E2A1C",
"N)	c #47241A",
"O)	c #48251C",
"P)	c #46241C",
"Q)	c #3C1E18",
"R)	c #301A15",
"S)	c #2A1712",
"T)	c #160C09",
"U)	c #0E0A06",
"V)	c #46281A",
"W)	c #633A21",
"X)	c #412517",
"Y)	c #3E2317",
"Z)	c #643E26",
"`)	c #372216",
" !	c #25160F",
".!	c #3F2519",
"+!	c #613F28",
"@!	c #734C32",
"#!	c #6F4B31",
"$!	c #3B2015",
"%!	c #1F130D",
"&!	c #3D2417",
"*!	c #462919",
"=!	c #56341E",
"-!	c #412618",
";!	c #2E1C12",
">!	c #2F1E15",
",!	c #42291A",
"'!	c #53311C",
")!	c #5D3822",
"!!	c #3C2418",
"~!	c #2C1B13",
"{!	c #371F14",
"]!	c #65371F",
"^!	c #6A3C21",
"/!	c #311E13",
"(!	c #1D140D",
"_!	c #271A11",
":!	c #2C1D15",
"<!	c #2E221A",
"[!	c #4C3427",
"}!	c #513528",
"|!	c #3E281D",
"1!	c #2B1D15",
"2!	c #221911",
"3!	c #20160F",
"4!	c #130F0A",
"5!	c #4E2D19",
"6!	c #56321C",
"7!	c #22150E",
"8!	c #23120D",
"9!	c #6E4931",
"0!	c #391C14",
"a!	c #503123",
"b!	c #593625",
"c!	c #5B3727",
"d!	c #411F17",
"e!	c #3E2019",
"f!	c #2B1610",
"g!	c #4A2D1E",
"h!	c #100B0A",
"i!	c #180E0D",
"j!	c #1E1110",
"k!	c #1E1210",
"l!	c #170E0C",
"m!	c #090807",
"n!	c #070707",
"o!	c #663823",
"p!	c #57301D",
"q!	c #42271B",
"r!	c #2C1A11",
"s!	c #2C170F",
"t!	c #2B160E",
"u!	c #2D1710",
"v!	c #2C1710",
"w!	c #22130D",
"x!	c #1F110C",
"y!	c #2E1911",
"z!	c #301A12",
"A!	c #492C1B",
"B!	c #905B35",
"C!	c #7E4C2A",
"D!	c #734021",
"E!	c #824E2D",
"F!	c #935E39",
"G!	c #402418",
"H!	c #1F110D",
"I!	c #1E100C",
"J!	c #291712",
"K!	c #311B16",
"L!	c #2F1A15",
"M!	c #2F1914",
"N!	c #2E1A15",
"O!	c #2D1914",
"P!	c #1F120F",
"Q!	c #2C1A16",
"R!	c #110B06",
"S!	c #94613C",
"T!	c #87512C",
"U!	c #824C28",
"V!	c #7B4927",
"W!	c #86522F",
"X!	c #7C4F2F",
"Y!	c #2B1B10",
"Z!	c #2D1913",
"`!	c #2C1912",
" ~	c #2D1A13",
".~	c #2D1712",
"+~	c #41221A",
"@~	c #46271D",
"#~	c #694229",
"$~	c #945D35",
"%~	c #965F36",
"&~	c #784627",
"*~	c #623920",
"=~	c #3D2618",
"-~	c #291B13",
";~	c #1C130E",
">~	c #1C140E",
",~	c #221610",
"'~	c #301914",
")~	c #523521",
"!~	c #A06437",
"~~	c #7F4A27",
"{~	c #734122",
"]~	c #6F3F22",
"^~	c #784A2B",
"/~	c #2E1E14",
"(~	c #141310",
"_~	c #110F0D",
":~	c #16100B",
"<~	c #241811",
"[~	c #251A13",
"}~	c #1F1710",
"|~	c #16120D",
"1~	c #141413",
"2~	c #181818",
"3~	c #5A3A25",
"4~	c #794B2B",
"5~	c #6D3E21",
"6~	c #653A1F",
"7~	c #53301A",
"8~	c #5B3922",
"9~	c #6E472D",
"0~	c #28170E",
"a~	c #1D100B",
"b~	c #1F100C",
"c~	c #21110C",
"d~	c #29140F",
"e~	c #2C1610",
"f~	c #2D1711",
"g~	c #3B1E15",
"h~	c #3B1F16",
"i~	c #64442E",
"j~	c #915E3A",
"k~	c #442517",
"l~	c #2D1912",
"m~	c #22130F",
"n~	c #19110E",
"o~	c #1A100D",
"p~	c #24150F",
"q~	c #180F0B",
"r~	c #562E1C",
"s~	c #61341F",
"t~	c #422518",
"u~	c #432719",
"v~	c #4C2B1B",
"w~	c #4D2C1C",
"x~	c #1E110C",
"y~	c #2E1A12",
"z~	c #311B12",
"A~	c #371E14",
"B~	c #3E2217",
"C~	c #3A1E16",
"D~	c #2E1B11",
"E~	c #986037",
"F~	c #A96D40",
"G~	c #6E442B",
"H~	c #3A2219",
"I~	c #401F1A",
"J~	c #4F2620",
"K~	c #3E1E19",
"L~	c #2B1613",
"M~	c #180D0C",
"N~	c #140C09",
"O~	c #0C0706",
"P~	c #160D0C",
"Q~	c #251311",
"R~	c #351D18",
"S~	c #3F221D",
"T~	c #3D211C",
"U~	c #8C5935",
"V~	c #9A623A",
"W~	c #925D36",
"X~	c #754A2C",
"Y~	c #3B1F1A",
"Z~	c #43221D",
"`~	c #44221C",
" {	c #40201A",
".{	c #391C17",
"+{	c #3A1C16",
"@{	c #43211A",
"#{	c #49241D",
"${	c #4A261E",
"%{	c #1B0F09",
"&{	c #9F6338",
"*{	c #9D643A",
"={	c #3C1D18",
"-{	c #4E241F",
";{	c #46201C",
">{	c #3E1D1A",
",{	c #361A17",
"'{	c #331A17",
"){	c #361A16",
"!{	c #411E1A",
"~{	c #4D231F",
"{{	c #552623",
"]{	c #502520",
"^{	c #845231",
"/{	c #9B6137",
"({	c #9B6037",
"_{	c #975E35",
":{	c #8E5A35",
"<{	c #694228",
"[{	c #302017",
"}{	c #171818",
"|{	c #191A1C",
"1{	c #18191A",
"2{	c #171718",
"3{	c #161617",
"4{	c #161717",
"5{	c #1A1C1E",
"6{	c #1C1D1E",
"7{	c #1A1B1D",
"8{	c #1A1310",
"9{	c #462819",
"0{	c #955D35",
"a{	c #A06538",
"b{	c #8D5933",
"c{	c #885733",
"d{	c #794C2C",
"e{	c #5E3720",
"f{	c #3B2114",
"g{	c #301811",
"h{	c #432019",
"i{	c #442119",
"j{	c #432219",
"k{	c #452319",
"l{	c #532B1C",
"m{	c #432519",
"n{	c #271610",
"o{	c #90623E",
"p{	c #9E643A",
"q{	c #7C4626",
"r{	c #6B3C21",
"s{	c #5B331D",
"t{	c #59321D",
"u{	c #5C341D",
"v{	c #613921",
"w{	c #3B2118",
"x{	c #412316",
"y{	c #5B311F",
"z{	c #5C3220",
"A{	c #522C1C",
"B{	c #321C12",
"C{	c #381F14",
"D{	c #452617",
"E{	c #55301C",
"F{	c #613820",
"G{	c #59311E",
"H{	c #452119",
"I{	c #47221B",
"J{	c #311D12",
"K{	c #4D2A1A",
"L{	c #522D1B",
"M{	c #4F2D1F",
"N{	c #3B2218",
"O{	c #4D2520",
"P{	c #4D2521",
"Q{	c #4E2520",
"R{	c #512621",
"S{	c #47241E",
"T{	c #3D201B",
"U{	c #3D201A",
"V{	c #45251D",
"W{	c #552D21",
"X{	c #512B20",
"Y{	c #3F211A",
"Z{	c #3C2117",
"`{	c #452619",
" ]	c #4B291B",
".]	c #46231C",
"+]	c #43211D",
"@]	c #44211C",
"#]	c #4C231C",
"$]	c #56271F",
"%]	c #602A21",
"&]	c #662D22",
"*]	c #652C22",
"=]	c #622B22",
"-]	c #5E2920",
";]	c #1F100B",
">]	c #301C13",
",]	c #5F3821",
"']	c #774B2E",
")]	c #311C13",
"!]	c #401F1B",
"~]	c #542520",
"{]	c #572622",
"]]	c #562523",
"^]	c #532422",
"/]	c #502421",
"(]	c #4F2420",
"_]	c #512421",
":]	c #572623",
"<]	c #572523",
"[]	c #582724",
"}]	c #411F1B",
"|]	c #3F2318",
"1]	c #512F1F",
"2]	c #5E3624",
"3]	c #48291E",
"4]	c #40261B",
"5]	c #362118",
"6]	c #221913",
"7]	c #2F2720",
"8]	c #332A23",
"9]	c #302923",
"0]	c #2A2521",
"a]	c #22201E",
"b]	c #1B1C1D",
"c]	c #1B1C1C",
"d]	c #202120",
"e]	c #292824",
"f]	c #352F27",
"g]	c #22211F",
"h]	c #1B1B1C",
"i]	c #2F1B14",
"j]	c #4E2918",
"k]	c #4C2B19",
"l]	c #502F1A",
"m]	c #472919",
"n]	c #331C12",
"o]	c #61321E",
"p]	c #69351D",
"q]	c #68351F",
"r]	c #66341E",
"s]	c #65341E",
"t]	c #6C3920",
"u]	c #6A3920",
"v]	c #713F21",
"w]	c #57311C",
"x]	c #523826",
"y]	c #A76C3F",
"z]	c #87502D",
"A]	c #7B4525",
"B]	c #7C4827",
"C]	c #734225",
"D]	c #754323",
"E]	c #804B29",
"F]	c #704025",
"G]	c #43261B",
"H]	c #3C2219",
"I]	c #130E09",
"J]	c #663A21",
"K]	c #754425",
"L]	c #613421",
"M]	c #50231D",
"N]	c #150E0A",
"O]	c #1D110D",
"P]	c #42291C",
"Q]	c #744530",
"R]	c #4C2520",
"S]	c #4C2421",
"T]	c #542821",
"U]	c #663226",
"V]	c #633225",
"W]	c #502B20",
"X]	c #4C2B20",
"Y]	c #522E21",
"Z]	c #5D3425",
"`]	c #663928",
" ^	c #693B29",
".^	c #47241D",
"+^	c #170E0A",
"@^	c #26170F",
"#^	c #28180F",
"$^	c #1C120C",
"%^	c #381E16",
"&^	c #49231D",
"*^	c #713025",
"=^	c #793427",
"-^	c #7C3428",
";^	c #7C3528",
">^	c #783326",
",^	c #7D3629",
"'^	c #83382A",
")^	c #612C23",
"!^	c #301C15",
"~^	c #71422A",
"{^	c #9A5D38",
"]^	c #82402D",
"^^	c #732F24",
"/^	c #6D2D23",
"(^	c #6B2D24",
"_^	c #6B2E24",
":^	c #6E2F25",
"<^	c #5C2823",
"[^	c #552523",
"}^	c #562624",
"|^	c #572824",
"1^	c #28170F",
"2^	c #140D09",
"3^	c #4A392D",
"4^	c #392F26",
"5^	c #382F25",
"6^	c #302D26",
"7^	c #2E2C27",
"8^	c #2C2C26",
"9^	c #2C2B26",
"0^	c #362E26",
"a^	c #1E1E20",
"b^	c #1C1716",
"c^	c #331E13",
"d^	c #2B190F",
"e^	c #301D12",
"f^	c #1E120B",
"g^	c #402216",
"h^	c #753C20",
"i^	c #753D1F",
"j^	c #783E20",
"k^	c #7A3F22",
"l^	c #794022",
"m^	c #7A4122",
"n^	c #6C391F",
"o^	c #6C3B20",
"p^	c #733E24",
"q^	c #44251A",
"r^	c #FB00FB",
"s^	c #966640",
"t^	c #A96C3E",
"u^	c #7D4525",
"v^	c #774223",
"w^	c #925A33",
"x^	c #9D6237",
"y^	c #AA6D41",
"z^	c #7F4B2B",
"A^	c #6B3E24",
"B^	c #59341F",
"C^	c #5A341E",
"D^	c #5A341F",
"E^	c #432718",
"F^	c #754326",
"G^	c #744324",
"H^	c #754325",
"I^	c #562B1F",
"J^	c #4F241E",
"K^	c #3D1D17",
"L^	c #120D09",
"M^	c #2F1C14",
"N^	c #734C31",
"O^	c #8B5736",
"P^	c #4B231F",
"Q^	c #5F2E24",
"R^	c #71392A",
"S^	c #733A2A",
"T^	c #753C2B",
"U^	c #814D36",
"V^	c #865537",
"W^	c #683927",
"X^	c #683929",
"Y^	c #683A28",
"Z^	c #6A3A29",
"`^	c #271612",
" /	c #190F0B",
"./	c #2F1D13",
"+/	c #2F1E13",
"@/	c #1E130C",
"#/	c #724831",
"$/	c #6F3B2B",
"%/	c #6D2F25",
"&/	c #7E3628",
"*/	c #7C3628",
"=/	c #7B3628",
"-/	c #7B3627",
";/	c #7D3628",
">/	c #743327",
",/	c #723227",
"'/	c #803729",
")/	c #6C3025",
"!/	c #241410",
"~/	c #9E623A",
"{/	c #A4653A",
"]/	c #84412B",
"^/	c #7B3225",
"//	c #7C3325",
"(/	c #7C3326",
"_/	c #7C3427",
":/	c #793226",
"</	c #5E2923",
"[/	c #512523",
"}/	c #572725",
"|/	c #592824",
"1/	c #2D1811",
"2/	c #1A0F0B",
"3/	c #835A3E",
"4/	c #3B3027",
"5/	c #3A3026",
"6/	c #332D26",
"7/	c #2D2B26",
"8/	c #2B2A25",
"9/	c #2C2A26",
"0/	c #2A241E",
"a/	c #3D3229",
"b/	c #2A2724",
"c/	c #131313",
"d/	c #392216",
"e/	c #2E1A11",
"f/	c #2E170F",
"g/	c #713B20",
"h/	c #773D20",
"i/	c #7A4022",
"j/	c #62331E",
"k/	c #7C4426",
"l/	c #57311E",
"m/	c #583D28",
"n/	c #AA6E40",
"o/	c #A36739",
"p/	c #995E34",
"q/	c #A1663B",
"r/	c #AA6C3E",
"s/	c #7E5030",
"t/	c #854D2D",
"u/	c #9C6037",
"v/	c #A4693F",
"w/	c #6C3E23",
"x/	c #502E1C",
"y/	c #0D0906",
"z/	c #392215",
"A/	c #754224",
"B/	c #693B21",
"C/	c #6E3E25",
"D/	c #4C221C",
"E/	c #4D241E",
"F/	c #25130F",
"G/	c #311C14",
"H/	c #3E2517",
"I/	c #291910",
"J/	c #764B2F",
"K/	c #8C5637",
"L/	c #5D2A22",
"M/	c #74382B",
"N/	c #733B2A",
"O/	c #84543A",
"P/	c #935E3C",
"Q/	c #6B3B29",
"R/	c #693A29",
"S/	c #693928",
"T/	c #6A3929",
"U/	c #522A1F",
"V/	c #231310",
"W/	c #2F1E14",
"X/	c #73482F",
"Y/	c #884631",
"Z/	c #713024",
"`/	c #7C3627",
" (	c #7F3729",
".(	c #733227",
"+(	c #6B2D23",
"@(	c #7E3529",
"#(	c #6A2F25",
"$(	c #25140F",
"%(	c #2B1811",
"&(	c #A4653C",
"*(	c #A56539",
"=(	c #8D4B2F",
"-(	c #7D3426",
";(	c #7E3427",
">(	c #7B3326",
",(	c #602922",
"'(	c #502423",
")(	c #562725",
"!(	c #582823",
"~(	c #301A13",
"{(	c #895D3E",
"](	c #3C2E24",
"^(	c #393026",
"/(	c #3A3127",
"((	c #3A3027",
"_(	c #352E26",
":(	c #2E2A25",
"<(	c #2E2B26",
"[(	c #26231D",
"}(	c #322C25",
"|(	c #151615",
"1(	c #3B2217",
"2(	c #27140E",
"3(	c #552C1B",
"4(	c #7A3F21",
"5(	c #7A4023",
"6(	c #7B4123",
"7(	c #60311B",
"8(	c #6B3A20",
"9(	c #683B22",
"0(	c #3F2B1D",
"a(	c #825736",
"b(	c #AA6B3C",
"c(	c #AA6B3B",
"d(	c #AB6D3D",
"e(	c #AD6F3F",
"f(	c #AA6D40",
"g(	c #5C3822",
"h(	c #804A2A",
"i(	c #B07243",
"j(	c #955C34",
"k(	c #46291A",
"l(	c #100B09",
"m(	c #835433",
"n(	c #744224",
"o(	c #714124",
"p(	c #703E23",
"q(	c #5E2E20",
"r(	c #4B211C",
"s(	c #21140E",
"t(	c #442818",
"u(	c #54311D",
"v(	c #8F593A",
"w(	c #6C3328",
"x(	c #76392B",
"y(	c #753B2A",
"z(	c #743B2A",
"A(	c #773E2B",
"B(	c #784F35",
"C(	c #925F3C",
"D(	c #693A28",
"E(	c #693929",
"F(	c #46261C",
"G(	c #140B09",
"H(	c #301E13",
"I(	c #7B3C2C",
"J(	c #803829",
"K(	c #7D3627",
"L(	c #87412B",
"M(	c #6D3625",
"N(	c #612A1F",
"O(	c #7D3729",
"P(	c #51261E",
"Q(	c #2A1812",
"R(	c #824E2F",
"S(	c #A46539",
"T(	c #9A5A35",
"U(	c #7B3124",
"V(	c #7C3426",
"W(	c #7D3326",
"X(	c #7D3527",
"Y(	c #692E21",
"Z(	c #4C2320",
"`(	c #562724",
" _	c #41271B",
"._	c #492C1C",
"+_	c #66452F",
"@_	c #614531",
"#_	c #3B3127",
"$_	c #3B3128",
"%_	c #2D2A25",
"&_	c #272420",
"*_	c #2D251D",
"=_	c #171716",
"-_	c #361F15",
";_	c #3C2217",
">_	c #3C2317",
",_	c #24140D",
"'_	c #773E23",
")_	c #7B4022",
"!_	c #713D21",
"~_	c #422315",
"{_	c #6D3F24",
"]_	c #412419",
"^_	c #583C2A",
"/_	c #9F643B",
"(_	c #A86A3B",
"__	c #A96C3C",
":_	c #AE6F3E",
"<_	c #885633",
"[_	c #8B5531",
"}_	c #AD7043",
"|_	c #915D38",
"1_	c #5E3A25",
"2_	c #050506",
"3_	c #AA6A3C",
"4_	c #834D2B",
"5_	c #714024",
"6_	c #724123",
"7_	c #764226",
"8_	c #572B1F",
"9_	c #44211B",
"0_	c #3C1F19",
"a_	c #2E1914",
"b_	c #120C09",
"c_	c #55321E",
"d_	c #5A361F",
"e_	c #472C1B",
"f_	c #9A603D",
"g_	c #9C5C39",
"h_	c #81422C",
"i_	c #753928",
"j_	c #723828",
"k_	c #8F5738",
"l_	c #5C3C29",
"m_	c #926140",
"n_	c #6A3A28",
"o_	c #6B3A29",
"p_	c #6C3A29",
"q_	c #2E1A13",
"r_	c #231610",
"s_	c #1B0E0A",
"t_	c #4B251B",
"u_	c #965C3A",
"v_	c #965B38",
"w_	c #84422C",
"x_	c #7C3526",
"y_	c #7E3626",
"z_	c #A05F38",
"A_	c #683725",
"B_	c #4F251D",
"C_	c #53261D",
"D_	c #42281B",
"E_	c #945B35",
"F_	c #A5653A",
"G_	c #8B482C",
"H_	c #7B3525",
"I_	c #7B3425",
"J_	c #7E3824",
"K_	c #733720",
"L_	c #4A241D",
"M_	c #4F2621",
"N_	c #462B1B",
"O_	c #482C1D",
"P_	c #4C2D1B",
"Q_	c #4C2E1C",
"R_	c #160C08",
"S_	c #3F2B1F",
"T_	c #503526",
"U_	c #3B2E24",
"V_	c #2C2924",
"W_	c #2B2823",
"X_	c #2C2822",
"Y_	c #2F2922",
"Z_	c #2C2620",
"`_	c #1F1914",
" :	c #302A23",
".:	c #111110",
"+:	c #351F13",
"@:	c #452819",
"#:	c #3C2216",
"$:	c #2D1A10",
"%:	c #2A1911",
"&:	c #5C321D",
"*:	c #9A5B34",
"=:	c #8D502C",
"-:	c #7E4323",
";:	c #783D20",
">:	c #783F21",
",:	c #8B502B",
"':	c #341F17",
"):	c #2D1F15",
"!:	c #7C5335",
"~:	c #3F2216",
"{:	c #623D27",
"]:	c #74482B",
"^:	c #73482C",
"/:	c #3E2015",
"(:	c #683E25",
"_:	c #5E3823",
"::	c #4E2F21",
"<:	c #361E17",
"[:	c #060608",
"}:	c #11090A",
"|:	c #211412",
"1:	c #351C14",
"2:	c #653C24",
"3:	c #996037",
"4:	c #9A5F36",
"5:	c #865331",
"6:	c #532E1D",
"7:	c #4A271C",
"8:	c #3B1F17",
"9:	c #3C201B",
"0:	c #190E0A",
"a:	c #2B1A10",
"b:	c #0B0806",
"c:	c #1E110D",
"d:	c #42261A",
"e:	c #885434",
"f:	c #A5673F",
"g:	c #965937",
"h:	c #995E3C",
"i:	c #B2784D",
"j:	c #401E13",
"k:	c #7D5035",
"l:	c #593023",
"m:	c #522C1F",
"n:	c #321C15",
"o:	c #18110D",
"p:	c #563422",
"q:	c #2F1C13",
"r:	c #482919",
"s:	c #4B2F1E",
"t:	c #2A1611",
"u:	c #6D452B",
"v:	c #935F3A",
"w:	c #A1663C",
"x:	c #A2653D",
"y:	c #8D5935",
"z:	c #4C261C",
"A:	c #412019",
"B:	c #281611",
"C:	c #1D120C",
"D:	c #241610",
"E:	c #331B14",
"F:	c #653D26",
"G:	c #7E472A",
"H:	c #723B24",
"I:	c #6A351F",
"J:	c #65321C",
"K:	c #67351F",
"L:	c #5C2F1C",
"M:	c #3C1F18",
"N:	c #3A1F17",
"O:	c #190F09",
"P:	c #4A2D1C",
"Q:	c #4C2E1B",
"R:	c #4B2D1B",
"S:	c #42291B",
"T:	c #0E0905",
"U:	c #341E12",
"V:	c #492B1D",
"W:	c #412C20",
"X:	c #4A2F21",
"Y:	c #593423",
"Z:	c #5B3422",
"`:	c #583422",
" <	c #341F13",
".<	c #1A140D",
"+<	c #2E2821",
"@<	c #110A08",
"#<	c #47291A",
"$<	c #140B08",
"%<	c #724529",
"&<	c #8A5632",
"*<	c #84502E",
"=<	c #7B4E2E",
"-<	c #54301D",
";<	c #372017",
"><	c #1B0F0C",
",<	c #261712",
"'<	c #060606",
")<	c #140E0A",
"!<	c #453122",
"~<	c #2D1F16",
"{<	c #2E1B15",
"]<	c #311B14",
"^<	c #351D16",
"/<	c #221411",
"(<	c #0B0708",
"_<	c #130A0A",
":<	c #45261E",
"<<	c #321813",
"[<	c #100A07",
"}<	c #27150E",
"|<	c #391E15",
"1<	c #3D2117",
"2<	c #391E16",
"3<	c #361D18",
"4<	c #341C17",
"5<	c #291612",
"6<	c #180C0A",
"7<	c #110C09",
"8<	c #0D0A06",
"9<	c #0E0A07",
"0<	c #140D0A",
"a<	c #21140F",
"b<	c #311A12",
"c<	c #4B2E20",
"d<	c #5E3D2C",
"e<	c #513223",
"f<	c #3E1D15",
"g<	c #3E1D17",
"h<	c #371A15",
"i<	c #351B16",
"j<	c #311A15",
"k<	c #21130E",
"l<	c #241311",
"m<	c #130E0A",
"n<	c #5F3B24",
"o<	c #311C11",
"p<	c #301B11",
"q<	c #52321E",
"r<	c #9F643C",
"s<	c #6F472C",
"t<	c #190D09",
"u<	c #3C2019",
"v<	c #3D1F18",
"w<	c #3E2018",
"x<	c #351B15",
"y<	c #190E0B",
"z<	c #080707",
"A<	c #0B0907",
"B<	c #0F0B08",
"C<	c #0D0A07",
"D<	c #42281A",
"E<	c #1D110C",
"F<	c #49261E",
"G<	c #2A1710",
"H<	c #100B07",
"I<	c #0C0905",
"J<	c #0D0905",
"K<	c #100A05",
"L<	c #1C130C",
"M<	c #21160E",
"N<	c #1E150D",
"O<	c #100D07",
"P<	c #0C0A06",
"Q<	c #23150D",
"R<	c #281810",
"S<	c #2F1D12",
"T<	c #291A10",
"U<	c #211811",
"V<	c #0F0D0B",
"W<	c #2F1B12",
"X<	c #2F1C12",
"Y<	c #432717",
"Z<	c #412617",
"`<	c #402517",
" [	c #130A09",
".[	c #1B0F0B",
"+[	c #1E0F0B",
"@[	c #100908",
"#[	c #090707",
"$[	c #0A0807",
"%[	c #0F0B09",
"&[	c #1F160F",
"*[	c #070505",
"=[	c #0F0808",
"-[	c #2F1B17",
";[	c #47251D",
">[	c #643527",
",[	c #763E2D",
"'[	c #6B3626",
")[	c #44201A",
"![	c #311F17",
"~[	c #5E3523",
"{[	c #49201A",
"][	c #331811",
"^[	c #24170F",
"/[	c #301812",
"([	c #331713",
"_[	c #0F0706",
":[	c #20120E",
"<[	c #311913",
"[[	c #351A15",
"}[	c #321914",
"|[	c #281411",
"1[	c #180E0C",
"2[	c #130908",
"3[	c #552821",
"4[	c #221511",
"5[	c #6C4428",
"6[	c #A86A3D",
"7[	c #9E6338",
"8[	c #A1653A",
"9[	c #A6683C",
"0[	c #74492B",
"a[	c #352016",
"b[	c #1C0F0C",
"c[	c #603923",
"d[	c #23140D",
"e[	c #23150E",
"f[	c #25160E",
"g[	c #191A0B",
"h[	c #422C18",
"i[	c #7F4826",
"j[	c #824C2B",
"k[	c #1C110B",
"l[	c #18100C",
"m[	c #17110C",
"n[	c #150F0B",
"o[	c #120C08",
"p[	c #25120E",
"q[	c #401C15",
"r[	c #301810",
"s[	c #291710",
"t[	c #20140D",
"u[	c #1E140D",
"v[	c #18110A",
"w[	c #3F2718",
"x[	c #462C1C",
"y[	c #0A0705",
"z[	c #18110B",
"A[	c #100B08",
"B[	c #070605",
"C[	c #17100C",
"D[	c #43251C",
"E[	c #3C1C15",
"F[	c #3D1C16",
"G[	c #52271E",
"H[	c #371B15",
"I[	c #2F1711",
"J[	c #47241B",
"K[	c #29110D",
"L[	c #0C0808",
"M[	c #36261A",
"N[	c #37271B",
"O[	c #3F271F",
"P[	c #331F17",
"Q[	c #663627",
"R[	c #793D2B",
"S[	c #7C3E2C",
"T[	c #80402C",
"U[	c #7E402C",
"V[	c #653326",
"W[	c #110C08",
"X[	c #321F14",
"Y[	c #53301E",
"Z[	c #6A3D22",
"`[	c #6D3E24",
" }	c #704124",
".}	c #633621",
"+}	c #4B201B",
"@}	c #472019",
"#}	c #2C1511",
"$}	c #411B17",
"%}	c #3A1A15",
"&}	c #381A14",
"*}	c #3E2318",
"=}	c #382118",
"-}	c #482A1B",
";}	c #522F1E",
">}	c #512B1E",
",}	c #552721",
"'}	c #2E1813",
")}	c #6F452A",
"!}	c #74482C",
"~}	c #512F1C",
"{}	c #170E09",
"]}	c #6C3D22",
"^}	c #734223",
"/}	c #704023",
"(}	c #6D4026",
"_}	c #6D3F23",
":}	c #351E11",
"<}	c #311B13",
"[}	c #2C2011",
"}}	c #1C1E08",
"|}	c #4A2F17",
"1}	c #985529",
"2}	c #8A4D27",
"3}	c #764122",
"4}	c #744123",
"5}	c #734224",
"6}	c #6F4023",
"7}	c #6C3D20",
"8}	c #623720",
"9}	c #50231C",
"0}	c #56241C",
"a}	c #391B13",
"b}	c #3B2117",
"c}	c #392015",
"d}	c #57341E",
"e}	c #5B381F",
"f}	c #583620",
"g}	c #55341F",
"h}	c #54341E",
"i}	c #523420",
"j}	c #50321F",
"k}	c #513422",
"l}	c #5C3723",
"m}	c #6A3C24",
"n}	c #744327",
"o}	c #301C14",
"p}	c #623C2A",
"q}	c #451E19",
"r}	c #723926",
"s}	c #693523",
"t}	c #5D2E20",
"u}	c #54291E",
"v}	c #542A1F",
"w}	c #52281D",
"x}	c #562A20",
"y}	c #653223",
"z}	c #250F0C",
"A}	c #431516",
"B}	c #3A231A",
"C}	c #372018",
"D}	c #4A2D1F",
"E}	c #5B2F22",
"F}	c #512E20",
"G}	c #58301E",
"H}	c #391E13",
"I}	c #3C261C",
"J}	c #723A29",
"K}	c #683324",
"L}	c #7F3F2C",
"M}	c #5D2E22",
"N}	c #130B07",
"O}	c #3B2418",
"P}	c #754324",
"Q}	c #774324",
"R}	c #683920",
"S}	c #491F1B",
"T}	c #401D18",
"U}	c #28220F",
"V}	c #603D26",
"W}	c #5F3422",
"X}	c #491F18",
"Y}	c #532719",
"Z}	c #67391E",
"`}	c #61351E",
" |	c #5F351E",
".|	c #5E351E",
"+|	c #5F361E",
"@|	c #61371F",
"#|	c #5C2F1D",
"$|	c #572721",
"%|	c #562621",
"&|	c #0E0B08",
"*|	c #563826",
"=|	c #3A1F13",
"-|	c #734123",
";|	c #724122",
">|	c #714022",
",|	c #6E3F22",
"'|	c #623921",
")|	c #714123",
"!|	c #724223",
"~|	c #392011",
"{|	c #27280E",
"]|	c #253409",
"^|	c #605118",
"/|	c #A15A2A",
"(|	c #884B26",
"_|	c #774021",
":|	c #774122",
"<|	c #764121",
"[|	c #774222",
"}|	c #784222",
"||	c #743F21",
"1|	c #57271C",
"2|	c #58241C",
"3|	c #371A13",
"4|	c #391F15",
"5|	c #82573A",
"6|	c #59351D",
"7|	c #59361F",
"8|	c #58361E",
"9|	c #59371E",
"0|	c #5A3720",
"a|	c #5B3820",
"b|	c #643921",
"c|	c #7B4325",
"d|	c #7B4427",
"e|	c #28150C",
"f|	c #9B6944",
"g|	c #471F17",
"h|	c #693423",
"i|	c #713925",
"j|	c #713926",
"k|	c #6F3A26",
"l|	c #602F20",
"m|	c #713825",
"n|	c #6D3624",
"o|	c #28110C",
"p|	c #58261C",
"q|	c #53241C",
"r|	c #55241C",
"s|	c #86482D",
"t|	c #894A2E",
"u|	c #83472C",
"v|	c #8A4B2E",
"w|	c #422317",
"x|	c #643123",
"y|	c #803F2C",
"z|	c #7F402C",
"A|	c #502820",
"B|	c #42211A",
"C|	c #281511",
"D|	c #57311D",
"E|	c #764326",
"F|	c #351D11",
"G|	c #693D25",
"H|	c #724124",
"I|	c #794425",
"J|	c #653922",
"K|	c #532A1D",
"L|	c #461E1B",
"M|	c #301711",
"N|	c #394A22",
"O|	c #84542F",
"P|	c #7F4B2C",
"Q|	c #59291B",
"R|	c #5C2D1B",
"S|	c #66391B",
"T|	c #5E321B",
"U|	c #61361E",
"V|	c #60371F",
"W|	c #62381F",
"X|	c #5F431D",
"Y|	c #582721",
"Z|	c #572621",
"`|	c #40211B",
" 1	c #060505",
".1	c #271710",
"+1	c #150A04",
"@1	c #A76F44",
"#1	c #4E2B18",
"$1	c #341C10",
"%1	c #20310B",
"&1	c #2D400D",
"*1	c #6E741A",
"=1	c #9A5628",
"-1	c #864924",
";1	c #784122",
">1	c #794122",
",1	c #652F1D",
"'1	c #331812",
")1	c #361D13",
"!1	c #A77046",
"~1	c #4F2A15",
"{1	c #4E2D17",
"]1	c #56331B",
"^1	c #5A4F19",
"/1	c #636A19",
"(1	c #5C421D",
"_1	c #5C341E",
":1	c #824526",
"<1	c #7E4427",
"[1	c #2A150D",
"}1	c #3E2417",
"|1	c #422618",
"11	c #3C2215",
"21	c #25150D",
"31	c #A26C41",
"41	c #7D472B",
"51	c #6E3725",
"61	c #703925",
"71	c #723A26",
"81	c #723A27",
"91	c #713A26",
"01	c #5C2E20",
"a1	c #713724",
"b1	c #653221",
"c1	c #2F150F",
"d1	c #894C2F",
"e1	c #783F28",
"f1	c #7E422B",
"g1	c #74422B",
"h1	c #7F452B",
"i1	c #884A2D",
"j1	c #351F14",
"k1	c #572F1F",
"l1	c #582C1E",
"m1	c #773A28",
"n1	c #5C2B1E",
"o1	c #81402C",
"p1	c #7B3E2C",
"q1	c #3D1B15",
"r1	c #3F1F1A",
"s1	c #703F25",
"t1	c #7F4725",
"u1	c #5D331E",
"v1	c #724125",
"w1	c #925D38",
"x1	c #6E472E",
"y1	c #7A4527",
"z1	c #4D231B",
"A1	c #421D19",
"B1	c #1F1A0E",
"C1	c #445B22",
"D1	c #936038",
"E1	c #955B34",
"F1	c #5A291C",
"G1	c #56261C",
"H1	c #50231A",
"I1	c #4A1E16",
"J1	c #60361E",
"K1	c #62411C",
"L1	c #5F541B",
"M1	c #582620",
"N1	c #572520",
"O1	c #3C1D17",
"P1	c #070504",
"Q1	c #321D13",
"R1	c #3B2216",
"S1	c #24120A",
"T1	c #B67C4D",
"U1	c #69391F",
"V1	c #704022",
"W1	c #744222",
"X1	c #8D532F",
"Y1	c #432112",
"Z1	c #693C23",
"`1	c #24110A",
" 2	c #301B14",
".2	c #301B12",
"+2	c #2C1D10",
"@2	c #1D350A",
"#2	c #27310B",
"$2	c #586B14",
"%2	c #905923",
"&2	c #905126",
"*2	c #784022",
"=2	c #794123",
"-2	c #794222",
";2	c #794120",
">2	c #723821",
",2	c #57241B",
"'2	c #351D13",
")2	c #9B643B",
"!2	c #634124",
"~2	c #4C5610",
"{2	c #697018",
"]2	c #584416",
"^2	c #544417",
"/2	c #5E3F1F",
"(2	c #512E1B",
"_2	c #814426",
":2	c #7E4327",
"<2	c #29150D",
"[2	c #3C2316",
"}2	c #402417",
"|2	c #28160E",
"12	c #9A663E",
"22	c #AE6C3F",
"32	c #693521",
"42	c #703926",
"52	c #743A27",
"62	c #713826",
"72	c #582B1F",
"82	c #733825",
"92	c #56291D",
"02	c #2A130E",
"a2	c #84482E",
"b2	c #7E432C",
"c2	c #733F2D",
"d2	c #663525",
"e2	c #6F3927",
"f2	c #542D1B",
"g2	c #130D0A",
"h2	c #623D28",
"i2	c #613322",
"j2	c #723927",
"k2	c #793B29",
"l2	c #783A29",
"m2	c #50251B",
"n2	c #7C3E2B",
"o2	c #653022",
"p2	c #2F1813",
"q2	c #1A0D08",
"r2	c #905935",
"s2	c #7D4424",
"t2	c #7A4223",
"u2	c #764224",
"v2	c #6E3E22",
"w2	c #A16940",
"x2	c #4E3021",
"y2	c #673722",
"z2	c #451E17",
"A2	c #3A1A13",
"B2	c #374919",
"C2	c #334A16",
"D2	c #3D2315",
"E2	c #24140E",
"F2	c #72482B",
"G2	c #AB6C3E",
"H2	c #58271D",
"I2	c #53241B",
"J2	c #544415",
"K2	c #5E371B",
"L2	c #62361F",
"M2	c #61361F",
"N2	c #5F361D",
"O2	c #544618",
"P2	c #3B2113",
"Q2	c #4E201B",
"R2	c #3F1C16",
"S2	c #825436",
"T2	c #895431",
"U2	c #743F20",
"V2	c #744021",
"W2	c #7C4623",
"X2	c #A76639",
"Y2	c #411D12",
"Z2	c #724023",
"`2	c #512C1A",
" 3	c #23100A",
".3	c #2D1E10",
"+3	c #28310A",
"@3	c #1D3608",
"#3	c #1E1409",
"$3	c #455B12",
"%3	c #747419",
"&3	c #83611E",
"*3	c #7E4721",
"=3	c #784021",
"-3	c #784221",
";3	c #784121",
">3	c #774120",
",3	c #75401F",
"'3	c #65361D",
")3	c #7F4324",
"!3	c #431D13",
"~3	c #2B150E",
"{3	c #3A2015",
"]3	c #351E13",
"^3	c #6F482C",
"/3	c #795030",
"(3	c #273C05",
"_3	c #65851A",
":3	c #67701A",
"<3	c #5E461C",
"[3	c #5E3920",
"}3	c #5A3620",
"|3	c #5A351F",
"13	c #653620",
"23	c #5B301C",
"33	c #2F1B13",
"43	c #3A2115",
"53	c #422519",
"63	c #2D1910",
"73	c #573621",
"83	c #A3673C",
"93	c #5E321F",
"03	c #995D39",
"a3	c #743A25",
"b3	c #85472E",
"c3	c #874A2E",
"d3	c #451F15",
"e3	c #6B3524",
"f3	c #411C15",
"g3	c #6F3727",
"h3	c #6D3828",
"i3	c #75412E",
"j3	c #4A281B",
"k3	c #472A1C",
"l3	c #4A2B1D",
"m3	c #976441",
"n3	c #7C462F",
"o3	c #793A28",
"p3	c #793A29",
"q3	c #421B14",
"r3	c #4D2019",
"s3	c #411C16",
"t3	c #311914",
"u3	c #261511",
"v3	c #23130C",
"w3	c #8E5D3A",
"x3	c #9F6238",
"y3	c #814625",
"z3	c #7E4422",
"A3	c #8A522C",
"B3	c #AB7043",
"C3	c #411E16",
"D3	c #341812",
"E3	c #486923",
"F3	c #1E3206",
"G3	c #402416",
"H3	c #4C2A1B",
"I3	c #351A12",
"J3	c #7A4B2E",
"K3	c #643220",
"L3	c #5D2C1D",
"M3	c #59281B",
"N3	c #59311B",
"O3	c #592A1D",
"P3	c #63361E",
"Q3	c #63351E",
"R3	c #5E321E",
"S3	c #552C1D",
"T3	c #3B1915",
"U3	c #341612",
"V3	c #301712",
"W3	c #1C0E09",
"X3	c #382015",
"Y3	c #7F5537",
"Z3	c #A96E40",
"`3	c #8B532D",
" 4	c #723E20",
".4	c #6E3E20",
"+4	c #905226",
"@4	c #A46538",
"#4	c #401B13",
"$4	c #4C281A",
"%4	c #321810",
"&4	c #1D0F09",
"*4	c #341E13",
"=4	c #342012",
"-4	c #2E2A0D",
";4	c #223208",
">4	c #1D3408",
",4	c #141106",
"'4	c #334310",
")4	c #618E15",
"!4	c #5F7E15",
"~4	c #7A631F",
"{4	c #824E25",
"]4	c #7D4622",
"^4	c #7B4220",
"/4	c #7F4924",
"(4	c #7E4B21",
"_4	c #402213",
":4	c #61371D",
"<4	c #32190F",
"[4	c #28150D",
"}4	c #24130C",
"|4	c #5A401E",
"14	c #3F4312",
"24	c #39490D",
"34	c #423014",
"44	c #5F3820",
"54	c #4D2E1C",
"64	c #341D13",
"74	c #1C1009",
"84	c #361E13",
"94	c #442619",
"04	c #1E0E0A",
"a4	c #7C4F31",
"b4	c #C37D48",
"c4	c #8E4F2F",
"d4	c #8C4D2F",
"e4	c #995835",
"f4	c #7A3A22",
"g4	c #743D27",
"h4	c #3B1912",
"i4	c #421D15",
"j4	c #3C1B15",
"k4	c #310E0D",
"l4	c #4F261B",
"m4	c #582D1F",
"n4	c #442519",
"o4	c #43271A",
"p4	c #462319",
"q4	c #200E09",
"r4	c #AF7044",
"s4	c #955D3B",
"t4	c #854B32",
"u4	c #6F3625",
"v4	c #5C2D20",
"w4	c #3A1B16",
"x4	c #291814",
"y4	c #150C08",
"z4	c #2C140C",
"A4	c #774C2F",
"B4	c #A3663B",
"C4	c #B36F3F",
"D4	c #B3703E",
"E4	c #8E5D39",
"F4	c #2D1410",
"G4	c #2D1511",
"H4	c #2C1611",
"I4	c #3E501A",
"J4	c #48711C",
"K4	c #273709",
"L4	c #352211",
"M4	c #3D2215",
"N4	c #522F1B",
"O4	c #482817",
"P4	c #28130E",
"Q4	c #442316",
"R4	c #6D3A24",
"S4	c #61301F",
"T4	c #5B2A1E",
"U4	c #58291E",
"V4	c #592A1E",
"W4	c #56281D",
"X4	c #4B251A",
"Y4	c #321611",
"Z4	c #2F1611",
"`4	c #1E0F0A",
" 5	c #1F110B",
".5	c #3F2316",
"+5	c #3F2214",
"@5	c #3D2317",
"#5	c #553522",
"$5	c #5F3D26",
"%5	c #895A36",
"&5	c #98623A",
"*5	c #986039",
"=5	c #945C33",
"-5	c #381911",
";5	c #371A12",
">5	c #1B110A",
",5	c #3C2712",
"'5	c #2E250C",
")5	c #242D09",
"!5	c #1A2707",
"~5	c #25290A",
"{5	c #456B10",
"]5	c #2C4B0A",
"^5	c #264206",
"/5	c #404011",
"(5	c #4F5014",
"_5	c #5B551A",
":5	c #725E23",
"<5	c #6B4821",
"[5	c #2D190D",
"}5	c #2E1A10",
"|5	c #24130B",
"15	c #4B2716",
"25	c #5B321D",
"35	c #311911",
"45	c #2E1912",
"55	c #180F09",
"65	c #412716",
"75	c #4F311E",
"85	c #4F321E",
"95	c #5A3621",
"05	c #6A3D25",
"a5	c #714026",
"b5	c #311F12",
"c5	c #341C14",
"d5	c #683B1F",
"e5	c #432517",
"f5	c #26160E",
"g5	c #1F100D",
"h5	c #7E5438",
"i5	c #9D663F",
"j5	c #99623A",
"k5	c #AD6F43",
"l5	c #AF7045",
"m5	c #9C643E",
"n5	c #6A3F29",
"o5	c #3B1A13",
"p5	c #3E1C16",
"q5	c #411414",
"r5	c #491C17",
"s5	c #44261A",
"t5	c #48251A",
"u5	c #431F16",
"v5	c #462419",
"w5	c #865A3B",
"x5	c #5B3622",
"y5	c #321612",
"z5	c #2B1713",
"A5	c #1D120E",
"B5	c #261813",
"C5	c #5F3927",
"D5	c #4D2C1B",
"E5	c #492B1A",
"F5	c #371D14",
"G5	c #391C11",
"H5	c #391C10",
"I5	c #371B13",
"J5	c #311712",
"K5	c #281410",
"L5	c #323E17",
"M5	c #50751F",
"N5	c #263F08",
"O5	c #59401B",
"P5	c #683C1F",
"Q5	c #673B20",
"R5	c #864D2A",
"S5	c #2D1911",
"T5	c #1B0D09",
"U5	c #2E1811",
"V5	c #391C12",
"W5	c #3C1D15",
"X5	c #3E1E16",
"Y5	c #3D1D15",
"Z5	c #361912",
"`5	c #341913",
" 6	c #351913",
".6	c #0F0A07",
"+6	c #3C2617",
"@6	c #7F4C2A",
"#6	c #8F532F",
"$6	c #864E2B",
"%6	c #5D3922",
"&6	c #8F5935",
"*6	c #160D08",
"=6	c #341B13",
"-6	c #361B12",
";6	c #351910",
">6	c #33170F",
",6	c #361A11",
"'6	c #29160F",
")6	c #150D08",
"!6	c #3F270E",
"~6	c #2D330A",
"{6	c #24260B",
"]6	c #181407",
"^6	c #1F180A",
"/6	c #231C0C",
"(6	c #26230B",
"_6	c #2A220C",
":6	c #2F1E0E",
"<6	c #301E0E",
"[6	c #2E1C0F",
"}6	c #483222",
"|6	c #965830",
"16	c #97542E",
"26	c #743F24",
"36	c #653822",
"46	c #321F13",
"56	c #19110B",
"66	c #2A1811",
"76	c #2C1811",
"86	c #301E11",
"96	c #311F11",
"06	c #130D08",
"a6	c #0C0A05",
"b6	c #301A11",
"c6	c #381D11",
"d6	c #62341B",
"e6	c #9B5629",
"f6	c #62371C",
"g6	c #382013",
"h6	c #26150D",
"i6	c #342218",
"j6	c #45291D",
"k6	c #371A14",
"l6	c #371913",
"m6	c #351712",
"n6	c #381914",
"o6	c #341712",
"p6	c #2C150F",
"q6	c #341B12",
"r6	c #401D16",
"s6	c #442117",
"t6	c #402719",
"u6	c #4A2F20",
"v6	c #0E0806",
"w6	c #0A0607",
"x6	c #090705",
"y6	c #0A0706",
"z6	c #080606",
"A6	c #070606",
"B6	c #130C08",
"C6	c #46281C",
"D6	c #744028",
"E6	c #492819",
"F6	c #422619",
"G6	c #341E14",
"H6	c #21130C",
"I6	c #1C0F09",
"J6	c #22130C",
"K6	c #24130D",
"L6	c #20180B",
"M6	c #1B2505",
"N6	c #23360B",
"O6	c #1D2D07",
"P6	c #131503",
"Q6	c #774C2D",
"R6	c #AC7040",
"S6	c #965E35",
"T6	c #8D5630",
"U6	c #9B663B",
"V6	c #7D5434",
"W6	c #22120B",
"X6	c #150C06",
"Y6	c #25130D",
"Z6	c #2C1810",
"`6	c #311912",
" 7	c #301912",
".7	c #1E110B",
"+7	c #100905",
"@7	c #3E291B",
"#7	c #B67747",
"$7	c #975B33",
"%7	c #884C29",
"&7	c #985D36",
"*7	c #9E673E",
"=7	c #6F4A30",
"-7	c #0F0B07",
";7	c #26140E",
">7	c #1E110A",
",7	c #2B1B11",
"'7	c #97643E",
")7	c #B47747",
"!7	c #97603A",
"~7	c #744124",
"{7	c #734124",
"]7	c #452914",
"^7	c #2D1E0F",
"/7	c #160F08",
"(7	c #160F0A",
"_7	c #19100A",
":7	c #1A1109",
"<7	c #1B120B",
"[7	c #160F09",
"}7	c #16100A",
"|7	c #543A28",
"17	c #BF7843",
"27	c #9C5D32",
"37	c #804526",
"47	c #804627",
"57	c #885332",
"67	c #915F3B",
"77	c #17100A",
"87	c #120D08",
"97	c #120C07",
"07	c #18100A",
"a7	c #1F150D",
"b7	c #1A130B",
"c7	c #161009",
"d7	c #251F10",
"e7	c #302814",
"f7	c #1A0E09",
"g7	c #A7693A",
"h7	c #A56231",
"i7	c #98572A",
"j7	c #8B502A",
"k7	c #764729",
"l7	c #95633F",
"m7	c #523020",
"n7	c #180E09",
"o7	c #1B0F0A",
"p7	c #1C0F0A",
"q7	c #20110B",
"r7	c #311C12",
"s7	c #331E12",
"t7	c #351E12",
"u7	c #29170E",
"v7	c #25140C",
"w7	c #19100B",
"x7	c #2A160F",
"y7	c #60311F",
"z7	c #562D1C",
"A7	c #4C2918",
"B7	c #582F1B",
"C7	c #64361F",
"D7	c #180E08",
"E7	c #23160B",
"F7	c #251E0B",
"G7	c #231B0A",
"H7	c #201609",
"I7	c #140C06",
"J7	c #442416",
"K7	c #9E683D",
"L7	c #A26B3E",
"M7	c #905D37",
"N7	c #5E301B",
"O7	c #27130C",
"P7	c #23160D",
"Q7	c #1C110A",
"R7	c #160E08",
"S7	c #120B06",
"T7	c #100A06",
"U7	c #0F0A06",
"V7	c #150E08",
"W7	c #1C100A",
"X7	c #22140C",
"Y7	c #20130B",
"Z7	c #80492C",
"`7	c #A76A3E",
" 8	c #9E6339",
".8	c #874D29",
"+8	c #936442",
"@8	c #110A06",
"#8	c #20130C",
"$8	c #21130B",
"%8	c #23140C",
"&8	c #844F2F",
"*8	c #AE683A",
"=8	c #935B37",
"-8	c #4C2A19",
";8	c #422415",
">8	c #361D11",
",8	c #21130A",
"'8	c #24150D",
")8	c #1F130B",
"!8	c #1D120B",
"~8	c #1F120C",
"{8	c #20140B",
"]8	c #442D22",
"^8	c #AC693B",
"/8	c #B77240",
"(8	c #AA6C3F",
"_8	c #A36A40",
":8	c #955F3A",
"<8	c #6E3D23",
"[8	c #24160E",
"}8	c #26160D",
"|8	c #4B2818",
"18	c #854F2C",
"28	c #B3723F",
"38	c #AB6C3B",
"48	c #965C33",
"58	c #784326",
"68	c #70361D",
"78	c #562B1A",
"88	c #26140D",
"98	c #2C1911",
"08	c #5D3725",
"a8	c #543121",
"b8	c #603523",
"c8	c #613622",
"d8	c #5E3321",
"e8	c #633722",
"f8	c #63361C",
"g8	c #58321C",
"h8	c #502F1D",
"i8	c #472517",
"j8	c #5A301E",
"k8	c #502A1A",
"l8	c #321A10",
"m8	c #4D2B1C",
"n8	c #492A1B",
"o8	c #55301D",
"p8	c #54301C",
"q8	c #4E2C1A",
"r8	c #4A2918",
"s8	c #401F13",
"t8	c #4D2717",
"u8	c #542A1A",
"v8	c #432114",
"w8	c #572E1A",
"x8	c #58331E",
"y8	c #482C1B",
"z8	c #482C1C",
"A8	c #4C2D1C",
"B8	c #492718",
"C8	c #663720",
"D8	c #784126",
"E8	c #753F25",
"F8	c #633620",
"G8	c #4D291B",
"H8	c #562F21",
"I8	c #582F21",
"J8	c #5E3121",
"K8	c #5C3120",
"L8	c #582E1E",
"M8	c #592E1D",
"N8	c #5A2F1D",
"O8	c #5C301F",
"P8	c #5E3220",
"Q8	c #5E3120",
"R8	c #5E311F",
"S8	c #462317",
"T8	c #613621",
"U8	c #7A4D32",
"V8	c #30180E",
"W8	c #2F1810",
"X8	c #5A2E1E",
"Y8	c #623322",
"Z8	c #633322",
"`8	c #633422",
" 9	c #633523",
".9	c #643423",
"+9	c #683524",
"@9	c #512A1C",
"#9	c #6F432B",
"$9	c #945937",
"%9	c #6C3B24",
"&9	c #5F301C",
"*9	c #5A2E1C",
"=9	c #4B271A",
"-9	c #4E291B",
";9	c #5B3020",
">9	c #5E3222",
",9	c #613422",
"'9	c #643523",
")9	c #623323",
"!9	c #643323",
"~9	c #673423",
"{9	c #623120",
"]9	c #3F1F14",
"^9	c #5F301D",
"/9	c #683621",
"(9	c #6B3621",
"_9	c #6B3521",
":9	c #592B1A",
"<9	c #381A11",
"[9	c #5A2F20",
"}9	c #603321",
"|9	c #623422",
"19	c #5F3322",
"29	c #6A3A24",
"39	c #6B3B23",
"49	c #633823",
"59	c #653C28",
"69	c #91532E",
"79	c #955731",
"89	c #A05B31",
"99	c #91522D",
"09	c #8E502B",
"a9	c #93542E",
"b9	c #8E4F29",
"c9	c #8B4E28",
"d9	c #884C27",
"e9	c #784220",
"f9	c #7B4422",
"g9	c #723E1F",
"h9	c #60351F",
"i9	c #603924",
"j9	c #503020",
"k9	c #44281B",
"l9	c #45281B",
"m9	c #49291A",
"n9	c #5D3420",
"o9	c #653720",
"p9	c #60341E",
"q9	c #92532C",
"r9	c #98562C",
"s9	c #9F5C2F",
"t9	c #A15C2F",
"u9	c #A76033",
"v9	c #9C5D36",
"w9	c #7A482A",
"x9	c #6E4028",
"y9	c #6E3D22",
"z9	c #804626",
"A9	c #814622",
"B9	c #7E4421",
"C9	c #76401F",
"D9	c #66381E",
"E9	c #5B331C",
"F9	c #532F1C",
"G9	c #5C331C",
"H9	c #62361D",
"I9	c #6A3A1E",
"J9	c #794221",
"K9	c #764024",
"L9	c #673923",
"M9	c #552F1E",
"N9	c #472618",
"O9	c #472719",
"P9	c #56311F",
"Q9	c #653924",
"R9	c #693822",
"S9	c #6D3622",
"T9	c #7F4529",
"U9	c #91522E",
"V9	c #9D5831",
"W9	c #A25C31",
"X9	c #A05B2F",
"Y9	c #A15C31",
"Z9	c #A45D32",
"`9	c #A35C32",
" 0	c #9F592F",
".0	c #9A562D",
"+0	c #9A5630",
"@0	c #945330",
"#0	c #85492B",
"$0	c #733D24",
"%0	c #6D3621",
"&0	c #723925",
"*0	c #743924",
"=0	c #733824",
"-0	c #713723",
";0	c #713823",
">0	c #703723",
",0	c #743824",
"'0	c #763924",
")0	c #7B3E25",
"!0	c #763C26",
"~0	c #653422",
"{0	c #592E1E",
"]0	c #542B1B",
"^0	c #613221",
"/0	c #753C27",
"(0	c #773B25",
"_0	c #703521",
":0	c #713620",
"<0	c #783F26",
"[0	c #7B4126",
"}0	c #86492A",
"|0	c #894A29",
"10	c #894A28",
"20	c #894929",
"30	c #8A4A2A",
"40	c #8D4B2A",
"50	c #834428",
"60	c #5E301F",
"70	c #391E14",
"80	c #412218",
"90	c #442016",
"00	c #602F1F",
"a0	c #6F3720",
"b0	c #7B4124",
"c0	c #8C4C28",
"d0	c #91512B",
"e0	c #8B4F2A",
"f0	c #8C4E2A",
"g0	c #8D4E2A",
"h0	c #92522C",
"i0	c #97562E",
"j0	c #995A32",
"k0	c #9C5930",
"l0	c #9A582F",
"m0	c #9E5A31",
"n0	c #985831",
"o0	c #965831",
"p0	c #94542F",
"q0	c #92532D",
"r0	c #935530",
"s0	c #93542F",
"t0	c #864B27",
"u0	c #7D4624",
"v0	c #7F4624",
"w0	c #6B3D22",
"x0	c #734427",
"y0	c #754628",
"z0	c #834D2C",
"A0	c #91552F",
"B0	c #9B5A32",
"C0	c #9B5A2F",
"D0	c #9A5A30",
"E0	c #9B5B30",
"F0	c #9D5C31",
"G0	c #9D5D32",
"H0	c #9D5C32",
"I0	c #9E5D32",
"J0	c #9D5C33",
"K0	c #9C5C32",
"L0	c #90542D",
"M0	c #91542E",
"N0	c #91552E",
"O0	c #8E532E",
"P0	c #884F2A",
"Q0	c #844C29",
"R0	c #7F4928",
"S0	c #6F3E20",
"T0	c #734022",
"U0	c #744121",
"V0	c #754122",
"W0	c #764222",
"X0	c #764223",
"Y0	c #754123",
"Z0	c #6C3D21",
"`0	c #63391F",
" a	c #663A1F",
".a	c #673A20",
"+a	c #6A3A20",
"@a	c #965833",
"#a	c #A16035",
"$a	c #9F5F35",
"%a	c #9A5A33",
"&a	c #925530",
"*a	c #905631",
"=a	c #8C532F",
"-a	c #88502D",
";a	c #874E2C",
">a	c #854D2B",
",a	c #824C2A",
"'a	c #814B29",
")a	c #854D2A",
"!a	c #854F2D",
"~a	c #895231",
"{a	c #8F5633",
"]a	c #8A502E",
"^a	c #844B2B",
"/a	c #834929",
"(a	c #854C2B",
"_a	c #8D5331",
":a	c #9B5D37",
"<a	c #9E5E35",
"[a	c #9F5F37",
"}a	c #975730",
"|a	c #975830",
"1a	c #955832",
"2a	c #905530",
"3a	c #905430",
"4a	c #945631",
"5a	c #9B5A33",
"6a	c #A56137",
"7a	c #A15F34",
"8a	c #A05F34",
"9a	c #A25F34",
"0a	c #A36035",
"aa	c #A35F35",
"ba	c #A25F35",
"ca	c #A35F34",
"da	c #8D512F",
"ea	c #844C2C",
"fa	c #81492B",
"ga	c #834B2D",
"ha	c #8A4E2D",
"ia	c #975936",
"ja	c #9A5B37",
"ka	c #9A5A32",
"la	c #9F5B30",
"ma	c #A46031",
"na	c #935A2A",
"oa	c #99602D",
"pa	c #97612E",
"qa	c #8D662B",
"ra	c #60531F",
"sa	c #744E25",
"ta	c #85552C",
"ua	c #9A582E",
"va	c #8F5531",
"wa	c #935933",
"xa	c #6C3D24",
"ya	c #6B4227",
"za	c #5C361F",
"Aa	c #5C3720",
"Ba	c #673E24",
"Ca	c #6F4327",
"Da	c #6D4126",
"Ea	c #744326",
"Fa	c #6E4023",
"Ga	c #673B1F",
"Ha	c #663C20",
"Ia	c #663D21",
"Ja	c #673E22",
"Ka	c #693F23",
"La	c #683E23",
"Ma	c #643B20",
"Na	c #61391E",
"Oa	c #60391F",
"Pa	c #613A20",
"Qa	c #633B21",
"Ra	c #623A20",
"Sa	c #5A341C",
"Ta	c #56321B",
"Ua	c #52301B",
"Va	c #51301C",
"Wa	c #56321D",
"Xa	c #57331F",
"Ya	c #502F1B",
"Za	c #4A2C1A",
"`a	c #4C2C19",
" b	c #593623",
".b	c #392418",
"+b	c #352014",
"@b	c #331F12",
"#b	c #392315",
"$b	c #583723",
"%b	c #593823",
"&b	c #593923",
"*b	c #5A3924",
"=b	c #573722",
"-b	c #543521",
";b	c #533320",
">b	c #4E2F1A",
",b	c #4F2F1B",
"'b	c #5C351E",
")b	c #693D23",
"!b	c #6A3E24",
"~b	c #693F26",
"{b	c #6B4027",
"]b	c #472616",
"^b	c #422314",
"/b	c #3F2215",
"(b	c #412415",
"_b	c #4A2A19",
":b	c #563320",
"<b	c #5E3924",
"[b	c #613B23",
"}b	c #57391C",
"|b	c #37340E",
"1b	c #52551C",
"2b	c #57551E",
"3b	c #534D1C",
"4b	c #4F471B",
"5b	c #493B1A",
"6b	c #412F17",
"7b	c #4E331C",
"8b	c #72442A",
"9b	c #553220",
"0b	c #512F20",
"ab	c #4A2C1D",
"bb	c #4C2E1E",
"cb	c #4B2E1D",
"db	c #4D2F1D",
"eb	c #4E2F1E",
"fb	c #6F4227",
"gb	c #653B24",
"hb	c #603922",
"ib	c #55331D",
"jb	c #52361C",
"kb	c #4E361C",
"lb	c #47331A",
"mb	c #43321A",
"nb	c #3A2F17",
"ob	c #3E421A",
"pb	c #45491C",
"qb	c #48461C",
"rb	c #504B21",
"sb	c #504420",
"tb	c #4D321F",
"ub	c #492D1C",
"vb	c #4A2E1C",
"wb	c #492D1B",
"xb	c #4F311F",
"yb	c #462A1B",
"zb	c #4A2D1D",
"Ab	c #4D301E",
"Bb	c #503120",
"Cb	c #4E301F",
"Db	c #462B1C",
"Eb	c #43291B",
"Fb	c #43291A",
"Gb	c #442A1B",
"Hb	c #442B1C",
"Ib	c #452C1C",
"Jb	c #452B1C",
"Kb	c #452B1A",
"Lb	c #5B3823",
"Mb	c #603A25",
"Nb	c #643D26",
"Ob	c #663E26",
"Pb	c #663D26",
"Qb	c #643B24",
"Rb	c #5F3923",
"Sb	c #59331F",
"Tb	c #52301F",
"Ub	c #502E1E",
"Vb	c #462A1C",
"Wb	c #44291B",
"Xb	c #51311D",
"Yb	c #51311E",
"Zb	c #422718",
"`b	c #402616",
" c	c #403714",
".c	c #384112",
"+c	c #2C3010",
"@c	c #272E10",
"#c	c #242D10",
"$c	c #253010",
"%c	c #2A390F",
"&c	c #2D3911",
"*c	c #2F3711",
"=c	c #353312",
"-c	c #3B2B14",
";c	c #482D1B",
">c	c #492D1D",
",c	c #452A1A",
"'c	c #40271A",
")c	c #40271B",
"!c	c #41291B",
"~c	c #432A1C",
"{c	c #422A1D",
"]c	c #412A1D",
"^c	c #402A1C",
"/c	c #41291C",
"(c	c #42291D",
"_c	c #432A1D",
":c	c #3E2519",
"<c	c #442A1C",
"[c	c #452A1C",
"}c	c #462B1D",
"|c	c #523220",
"1c	c #553421",
"2c	c #573521",
"3c	c #583522",
"4c	c #593622",
"5c	c #5A3622",
"6c	c #5A3521",
"7c	c #4E2F1F",
"8c	c #4B2D1E",
"9c	c #352317",
"0c	c #2D1D14",
"ac	c #2D1E14",
"bc	c #2E1F14",
"cc	c #2E1F15",
"dc	c #322118",
"ec	c #332219",
"fc	c #342318",
"gc	c #342319",
"hc	c #342419",
"ic	c #332319",
"jc	c #342219",
"kc	c #342418",
"lc	c #352419",
"mc	c #352418",
"nc	c #332318",
"oc	c #35241A",
"pc	c #35241B",
"qc	c #35251A",
"rc	c #35251B",
"sc	c #36251B",
"tc	c #36261B",
"uc	c #36251A",
"vc	c #37261B",
"wc	c #37251B",
"xc	c #37251A",
"yc	c #36241A",
"zc	c #362419",
"Ac	c #352319",
"Bc	c #34231A",
"Cc	c #2E1F16",
"Dc	c #2A1C15",
"Ec	c #2A1C14",
"Fc	c #2B1C13",
"Gc	c #2C1D13",
"Hc	c #2D1E13",
"Ic	c #2E1E13",
"Jc	c #101012",
"Kc	c #18110C",
"Lc	c #22170F",
"Mc	c #23170F",
"Nc	c #231810",
"Oc	c #23180F",
"Pc	c #241810",
"Qc	c #251810",
"Rc	c #1C1611",
"Sc	c #14100C",
"Tc	c #120E0A",
"Uc	c #130F0B",
"Vc	c #140F0B",
"Wc	c #13100B",
"Xc	c #130E0B",
"Yc	c #14100B",
"Zc	c #140F0C",
"`c	c #150F0C",
" d	c #15100D",
".d	c #15100C",
"+d	c #14110C",
"@d	c #15110C",
"#d	c #16110D",
"$d	c #15110E",
"%d	c #16110E",
"&d	c #16120E",
"*d	c #15100E",
"=d	c #18130F",
"-d	c #1A1410",
";d	c #1A1411",
">d	c #1B1411",
",d	c #191310",
"'d	c #181310",
")d	c #15120E",
"!d	c #13100C",
"~d	c #120F0B",
"{d	c #0F0E0A",
"]d	c #0B0B0B",
"^d	c #0F0D09",
"/d	c #15100B",
"(d	c #19110D",
"_d	c #14100E",
":d	c #1C130D",
"<d	c #301F15",
"[d	c #322015",
"}d	c #1F1614",
"|d	c #221814",
"1d	c #1F1612",
"2d	c #221812",
"3d	c #271B14",
"4d	c #251913",
"5d	c #261913",
"6d	c #18120E",
"7d	c #231812",
"8d	c #2B1D14",
"9d	c #2F1F16",
"0d	c #2D1E15",
"ad	c #2D1D15",
"bd	c #221711",
"cd	c #2B1C14",
"dd	c #2B1B14",
"ed	c #261A14",
"fd	c #2E1E16",
"gd	c #2B1C15",
"hd	c #1B130F",
"id	c #1B120E",
"jd	c #302018",
"kd	c #2D1D16",
"ld	c #1E1410",
"md	c #1D1410",
"nd	c #312018",
"od	c #2E1D16",
"pd	c #2C1E16",
"qd	c #291C15",
"rd	c #241812",
"sd	c #34221A",
"td	c #2B1D16",
"ud	c #251912",
"vd	c #241A14",
"wd	c #1A140F",
"xd	c #281B14",
"yd	c #271913",
"zd	c #1B1410",
"Ad	c #1F1611",
"Bd	c #2C1E17",
"Cd	c #2E1F17",
"Dd	c #281C15",
"Ed	c #271C15",
"Fd	c #322218",
"Gd	c #302119",
"Hd	c #291D17",
"Id	c #2D1F18",
"Jd	c #2E2018",
"Kd	c #2E1F18",
"Ld	c #2F2119",
"Md	c #261C15",
"Nd	c #1D1712",
"Od	c #0F0D0A",
"Pd	c #231811",
"Qd	c #1E1512",
"Rd	c #7A4E2D",
"Sd	c #573320",
"Td	c #14100D",
"Ud	c #271B15",
"Vd	c #261A15",
"Wd	c #36231B",
"Xd	c #331F19",
"Yd	c #332119",
"Zd	c #17110E",
"`d	c #362418",
" e	c #3D261B",
".e	c #3B261A",
"+e	c #3C261B",
"@e	c #251A14",
"#e	c #3A251A",
"$e	c #372419",
"%e	c #3E271C",
"&e	c #43291D",
"*e	c #38251A",
"=e	c #37241A",
"-e	c #1E1411",
";e	c #211511",
">e	c #442C20",
",e	c #39251B",
"'e	c #38241B",
")e	c #1F1511",
"!e	c #442B1F",
"~e	c #3B261B",
"{e	c #39251A",
"]e	c #37231A",
"^e	c #35221A",
"/e	c #090909",
"(e	c #2C1D16",
"_e	c #4A2F23",
":e	c #3A251B",
"<e	c #3D271C",
"[e	c #3C261A",
"}e	c #332118",
"|e	c #281C16",
"1e	c #19120F",
"2e	c #241814",
"3e	c #3E271A",
"4e	c #3E261B",
"5e	c #3C271B",
"6e	c #342118",
"7e	c #2A1C16",
"8e	c #39241B",
"9e	c #332019",
"0e	c #37231B",
"ae	c #38261D",
"be	c #2B1E16",
"ce	c #2B1F18",
"de	c #261D17",
"ee	c #120F0C",
"fe	c #332115",
"ge	c #2F1F14",
"he	c #231710",
"ie	c #9A643C",
"je	c #5C3722",
"ke	c #573623",
"le	c #6C3E25",
"me	c #6F4025",
"ne	c #573421",
"oe	c #231813",
"pe	c #271A15",
"qe	c #34211A",
"re	c #321F19",
"se	c #291C14",
"te	c #352218",
"ue	c #3F261B",
"ve	c #3C271A",
"we	c #241913",
"xe	c #3B251A",
"ye	c #291B15",
"ze	c #19120D",
"Ae	c #442A1D",
"Be	c #362219",
"Ce	c #1D1411",
"De	c #221612",
"Ee	c #452C20",
"Fe	c #3D261C",
"Ge	c #1F1512",
"He	c #432A1E",
"Ie	c #33221A",
"Je	c #0A0A0B",
"Ke	c #4A2E21",
"Le	c #0F0C0B",
"Me	c #342119",
"Ne	c #322119",
"Oe	c #3E261C",
"Pe	c #3C271C",
"Qe	c #352318",
"Re	c #342117",
"Se	c #171210",
"Te	c #33231B",
"Ue	c #2A1D16",
"Ve	c #2B1E18",
"We	c #251B16",
"Xe	c #100C0B",
"Ye	c #2E1B12",
"Ze	c #2C2412",
"`e	c #2D2813",
" f	c #2B2812",
".f	c #292511",
"+f	c #24180E",
"@f	c #302A13",
"#f	c #332614",
"$f	c #121112",
"%f	c #24170E",
"&f	c #2D1B10",
"*f	c #2F1C10",
"=f	c #2F1C11",
"-f	c #331D12",
";f	c #372014",
">f	c #361F13",
",f	c #1F1712",
"'f	c #100C09",
")f	c #211713",
"!f	c #271916",
"~f	c #34201A",
"{f	c #33211A",
"]f	c #322018",
"^f	c #0D0A0A",
"/f	c #2A1B14",
"(f	c #332218",
"_f	c #44291D",
":f	c #241813",
"<f	c #39241A",
"[f	c #19120E",
"}f	c #1C1311",
"|f	c #231612",
"1f	c #462D21",
"2f	c #3A241A",
"3f	c #37241B",
"4f	c #3A251C",
"5f	c #0B0B0C",
"6f	c #482D21",
"7f	c #40281C",
"8f	c #3C2920",
"9f	c #14100F",
"0f	c #15100F",
"af	c #291B16",
"bf	c #38231B",
"cf	c #342019",
"df	c #41291D",
"ef	c #31211A",
"ff	c #291D16",
"gf	c #2A1D17",
"hf	c #221712",
"if	c #20150D",
"jf	c #1C140B",
"kf	c #201A0E",
"lf	c #211D0F",
"mf	c #1F1C0F",
"nf	c #1E190C",
"of	c #1F170C",
"pf	c #201A0D",
"qf	c #1F150C",
"rf	c #1D130C",
"sf	c #130F0D",
"tf	c #111012",
"uf	c #25180E",
"vf	c #1B220C",
"wf	c #131D09",
"xf	c #1B1E0C",
"yf	c #271D0F",
"zf	c #231B0D",
"Af	c #201D0C",
"Bf	c #2B2110",
"Cf	c #2D2012",
"Df	c #1D150E",
"Ef	c #1E1611",
"Ff	c #35221B",
"Gf	c #34221B",
"Hf	c #39251C",
"If	c #2E1E17",
"Jf	c #0C0A0C",
"Kf	c #47291D",
"Lf	c #43281B",
"Mf	c #44291C",
"Nf	c #3B2519",
"Of	c #201510",
"Pf	c #4B2D1F",
"Qf	c #45291B",
"Rf	c #392319",
"Sf	c #382219",
"Tf	c #1C1411",
"Uf	c #4D3022",
"Vf	c #38231A",
"Wf	c #3E261A",
"Xf	c #3C251A",
"Yf	c #3D251A",
"Zf	c #3D261A",
"`f	c #4C2E20",
" g	c #462A1E",
".g	c #40271C",
"+g	c #452B1D",
"@g	c #231712",
"#g	c #0B0909",
"$g	c #412C22",
"%g	c #100C0D",
"&g	c #462A1D",
"*g	c #352219",
"=g	c #100D0C",
"-g	c #2B1C16",
";g	c #472B1F",
">g	c #2F1F17",
",g	c #261810",
"'g	c #3B2215",
")g	c #684831",
"!g	c #3E2416",
"~g	c #1C130F",
"{g	c #6D442B",
"]g	c #66361D",
"^g	c #272712",
"/g	c #1E3010",
"(g	c #322D15",
"_g	c #352114",
":g	c #2A1910",
"<g	c #372416",
"[g	c #1E160F",
"}g	c #16100C",
"|g	c #120D0A",
"1g	c #4C2F21",
"2g	c #4E3122",
"3g	c #0B0A0C",
"4g	c #2C1C14",
"5g	c #70442B",
"6g	c #7E4D2F",
"7g	c #72452B",
"8g	c #71442B",
"9g	c #71442A",
"0g	c #6F432A",
"ag	c #261912",
"bg	c #633C27",
"cg	c #673E28",
"dg	c #78492C",
"eg	c #5C3824",
"fg	c #5E3825",
"gg	c #503121",
"hg	c #996543",
"ig	c #673F29",
"jg	c #5F3B27",
"kg	c #643C27",
"lg	c #6D412A",
"mg	c #69412A",
"ng	c #5D3A27",
"og	c #75492E",
"pg	c #70432A",
"qg	c #6D4028",
"rg	c #6B3F28",
"sg	c #633C29",
"tg	c #613A26",
"ug	c #71452C",
"vg	c #99623F",
"wg	c #683F29",
"xg	c #653E27",
"yg	c #8B5636",
"zg	c #865333",
"Ag	c #774A2E",
"Bg	c #6E4833",
"Cg	c #52311F",
"Dg	c #492E20",
"Eg	c #0E0B0B",
"Fg	c #2D1D17",
"Gg	c #683F2A",
"Hg	c #76482D",
"Ig	c #72452C",
"Jg	c #663D27",
"Kg	c #74462C",
"Lg	c #6F422A",
"Mg	c #593624",
"Ng	c #0D0A0B",
"Og	c #372219",
"Pg	c #7A4D31",
"Qg	c #593826",
"Rg	c #643F2A",
"Sg	c #513221",
"Tg	c #3B2619",
"Ug	c #160D0B",
"Vg	c #371F13",
"Wg	c #3D2314",
"Xg	c #7F5435",
"Yg	c #362014",
"Zg	c #4A2B19",
"`g	c #1D130F",
" h	c #8A5A37",
".h	c #794527",
"+h	c #5D341E",
"@h	c #2B2811",
"#h	c #355716",
"$h	c #3F3A18",
"%h	c #4C2C1C",
"&h	c #2B180F",
"*h	c #5E3A23",
"=h	c #3B2A1E",
"-h	c #160E0B",
";h	c #3F281D",
">h	c #543423",
",h	c #543322",
"'h	c #543422",
")h	c #523424",
"!h	c #281A14",
"~h	c #2D1C14",
"{h	c #7B4A2D",
"]h	c #845030",
"^h	c #77482C",
"/h	c #71452B",
"(h	c #704429",
"_h	c #73462B",
":h	c #5D3824",
"<h	c #271A13",
"[h	c #2D1B11",
"}h	c #643C25",
"|h	c #694028",
"1h	c #75472A",
"2h	c #633C24",
"3h	c #1E1511",
"4h	c #9F6843",
"5h	c #6A412A",
"6h	c #5F3924",
"7h	c #683E28",
"8h	c #6F4329",
"9h	c #6B4128",
"0h	c #6C4129",
"ah	c #5F3C26",
"bh	c #1F1510",
"ch	c #6E4129",
"dh	c #6E4128",
"eh	c #6A3F27",
"fh	c #693F27",
"gh	c #693F29",
"hh	c #6D4129",
"ih	c #0A0A0C",
"jh	c #A36943",
"kh	c #7D4C2D",
"lh	c #72452A",
"mh	c #673F27",
"nh	c #845132",
"oh	c #7F4E2F",
"ph	c #7E4E30",
"qh	c #653C25",
"rh	c #492C1D",
"sh	c #0D0908",
"th	c #764B32",
"uh	c #4F3120",
"vh	c #0F0C0C",
"wh	c #6B402B",
"xh	c #74452B",
"yh	c #73452B",
"zh	c #693E28",
"Ah	c #75472B",
"Bh	c #73442A",
"Ch	c #5B3723",
"Dh	c #0C0A0B",
"Eh	c #794B2F",
"Fh	c #5B3925",
"Gh	c #5C3A26",
"Hh	c #180F0C",
"Ih	c #512D18",
"Jh	c #905E39",
"Kh	c #724321",
"Lh	c #77492D",
"Mh	c #703E22",
"Nh	c #784426",
"Oh	c #1E1310",
"Ph	c #100F11",
"Qh	c #92623C",
"Rh	c #814D2D",
"Sh	c #643821",
"Th	c #352312",
"Uh	c #43681A",
"Vh	c #4C321A",
"Wh	c #4D2D1B",
"Xh	c #543B1B",
"Yh	c #754327",
"Zh	c #9F6437",
"`h	c #563D2A",
" i	c #150E0B",
".i	c #553423",
"+i	c #543524",
"@i	c #553523",
"#i	c #533524",
"$i	c #7F4D2F",
"%i	c #8B5534",
"&i	c #7C4B2D",
"*i	c #71452A",
"=i	c #74462B",
"-i	c #2C1A10",
";i	c #6A4129",
">i	c #72462C",
",i	c #77452A",
"'i	c #78482B",
")i	c #673E26",
"!i	c #533321",
"~i	c #321D12",
"{i	c #A26A43",
"]i	c #6E442A",
"^i	c #633C26",
"/i	c #6E4229",
"(i	c #74462A",
"_i	c #6E4329",
":i	c #683F28",
"<i	c #6B4129",
"[i	c #5D3A25",
"}i	c #7B4B2F",
"|i	c #6C4028",
"1i	c #603B26",
"2i	c #0C0C0E",
"3i	c #40291B",
"4i	c #A16741",
"5i	c #804F2F",
"6i	c #73452A",
"7i	c #774A2D",
"8i	c #76482C",
"9i	c #804E30",
"0i	c #482B1C",
"ai	c #0F0A09",
"bi	c #7D5034",
"ci	c #533322",
"di	c #100E0E",
"ei	c #724429",
"fi	c #6A3E27",
"gi	c #76472B",
"hi	c #75462A",
"ii	c #5C3923",
"ji	c #382218",
"ki	c #352119",
"li	c #764A2E",
"mi	c #5D3B26",
"ni	c #4B2E1F",
"oi	c #4C2E1F",
"pi	c #52392A",
"qi	c #885331",
"ri	c #7A4424",
"si	c #814E2C",
"ti	c #784A1F",
"ui	c #7D4523",
"vi	c #0F0F11",
"wi	c #101011",
"xi	c #7F5638",
"yi	c #834F30",
"zi	c #724227",
"Ai	c #322212",
"Bi	c #3B4116",
"Ci	c #693C22",
"Di	c #764A27",
"Ei	c #563720",
"Fi	c #804624",
"Gi	c #A16538",
"Hi	c #5B3E28",
"Ii	c #160E0C",
"Ji	c #261B15",
"Ki	c #3E291E",
"Li	c #543424",
"Mi	c #553626",
"Ni	c #8D5735",
"Oi	c #7E4D2E",
"Pi	c #6B422B",
"Qi	c #754528",
"Ri	c #78482A",
"Si	c #673F26",
"Ti	c #653D25",
"Ui	c #523321",
"Vi	c #1D140F",
"Wi	c #A26A44",
"Xi	c #663E27",
"Yi	c #754829",
"Zi	c #6E4328",
"`i	c #674028",
" j	c #6A3F28",
".j	c #1F1410",
"+j	c #2F1E16",
"@j	c #7E4E31",
"#j	c #6D4128",
"$j	c #6C4027",
"%j	c #683D28",
"&j	c #704329",
"*j	c #9D653E",
"=j	c #74472A",
"-j	c #6A4128",
";j	c #663F28",
">j	c #70452B",
",j	c #814E2F",
"'j	c #492D1E",
")j	c #312016",
"!j	c #7D5033",
"~j	c #120E0F",
"{j	c #724329",
"]j	c #76482A",
"^j	c #7A4B2D",
"/j	c #603B25",
"(j	c #70472C",
"_j	c #5B3B25",
":j	c #4D3120",
"<j	c #4F3121",
"[j	c #4D3020",
"}j	c #472B1E",
"|j	c #3F281A",
"1j	c #170F0C",
"2j	c #553D2E",
"3j	c #8C5936",
"4j	c #7A4323",
"5j	c #673E1F",
"6j	c #764420",
"7j	c #794422",
"8j	c #784322",
"9j	c #63371D",
"0j	c #58321D",
"aj	c #996138",
"bj	c #794729",
"cj	c #4D331C",
"dj	c #435E19",
"ej	c #754424",
"fj	c #7C4726",
"gj	c #7A4626",
"hj	c #814623",
"ij	c #9F6337",
"jj	c #6F492F",
"kj	c #3E281E",
"lj	c #543523",
"mj	c #573726",
"nj	c #291B14",
"oj	c #8C5634",
"pj	c #7C4C2E",
"qj	c #2C1A0F",
"rj	c #A16842",
"sj	c #74472C",
"tj	c #734529",
"uj	c #764829",
"vj	c #6F4328",
"wj	c #673F28",
"xj	c #593724",
"yj	c #1F140F",
"zj	c #825234",
"Aj	c #683E2A",
"Bj	c #673D27",
"Cj	c #6D4127",
"Dj	c #683C27",
"Ej	c #704229",
"Fj	c #0C0D0F",
"Gj	c #825030",
"Hj	c #663F27",
"Ij	c #824F30",
"Jj	c #6E4228",
"Kj	c #332016",
"Lj	c #7F5134",
"Mj	c #543221",
"Nj	c #6B3F2C",
"Oj	c #714229",
"Pj	c #714429",
"Qj	c #633D26",
"Rj	c #45291C",
"Sj	c #0B0A0B",
"Tj	c #301F18",
"Uj	c #674027",
"Vj	c #593925",
"Wj	c #4F3222",
"Xj	c #4E3221",
"Yj	c #40291C",
"Zj	c #4B3529",
"`j	c #854B29",
" k	c #5D361A",
".k	c #724120",
"+k	c #784424",
"@k	c #6E3D24",
"#k	c #784224",
"$k	c #1F1311",
"%k	c #100E11",
"&k	c #28190F",
"*k	c #B17442",
"=k	c #4D6317",
"-k	c #683D20",
";k	c #6D3E22",
">k	c #7F4524",
",k	c #9D6035",
"'k	c #744E33",
")k	c #3D271D",
"!k	c #583725",
"~k	c #814F30",
"{k	c #7E4C2E",
"]k	c #79492C",
"^k	c #794A2C",
"/k	c #78492B",
"(k	c #72462B",
"_k	c #2C190F",
":k	c #643C26",
"<k	c #764628",
"[k	c #513120",
"}k	c #341F12",
"|k	c #683F27",
"1k	c #744629",
"2k	c #593723",
"3k	c #1F130F",
"4k	c #895738",
"5k	c #6B4029",
"6k	c #683D27",
"7k	c #6F4228",
"8k	c #613A25",
"9k	c #0B0B0D",
"0k	c #9D653F",
"ak	c #825131",
"bk	c #73462A",
"ck	c #6A4028",
"dk	c #6E432A",
"ek	c #71432A",
"fk	c #835030",
"gk	c #110B08",
"hk	c #845638",
"ik	c #553321",
"jk	c #120F0F",
"kk	c #6C402C",
"lk	c #7D4D2E",
"mk	c #0D0B0B",
"nk	c #301F17",
"ok	c #583825",
"pk	c #4B2F20",
"qk	c #4C3021",
"rk	c #463025",
"sk	c #AB7549",
"tk	c #8B512E",
"uk	c #522C18",
"vk	c #673920",
"wk	c #5E351F",
"xk	c #472818",
"yk	c #5C321C",
"zk	c #774022",
"Ak	c #3A2116",
"Bk	c #251712",
"Ck	c #AA6D3C",
"Dk	c #583A20",
"Ek	c #3E2516",
"Fk	c #6E3B20",
"Gk	c #804422",
"Hk	c #A16439",
"Ik	c #624028",
"Jk	c #281B16",
"Kk	c #271A14",
"Lk	c #533324",
"Mk	c #5A3825",
"Nk	c #845233",
"Ok	c #814E30",
"Pk	c #7F4E2E",
"Qk	c #643E28",
"Rk	c #311D11",
"Sk	c #6D422A",
"Tk	c #633B25",
"Uk	c #7A492A",
"Vk	c #A26843",
"Wk	c #754729",
"Xk	c #6D4228",
"Yk	c #8C5837",
"Zk	c #693D27",
"`k	c #603925",
" l	c #0B0C0D",
".l	c #804F30",
"+l	c #845130",
"@l	c #704328",
"#l	c #845538",
"$l	c #36221A",
"%l	c #6D402C",
"&l	c #74452A",
"*l	c #664028",
"=l	c #0C0B0C",
"-l	c #311F18",
";l	c #492D1F",
">l	c #492C20",
",l	c #4B2F21",
"'l	c #422A1C",
")l	c #452F25",
"!l	c #89502C",
"~l	c #6D3D22",
"{l	c #65371E",
"]l	c #67381E",
"^l	c #542F1C",
"/l	c #5A311B",
"(l	c #764021",
"_l	c #472A1D",
":l	c #A76B3B",
"<l	c #442718",
"[l	c #3F2418",
"}l	c #4C2B1A",
"|l	c #9F643A",
"1l	c #573B27",
"2l	c #291C16",
"3l	c #3C261D",
"4l	c #543324",
"5l	c #5E3B28",
"6l	c #8A5534",
"7l	c #875132",
"8l	c #804E2F",
"9l	c #7C4C2F",
"0l	c #1D1009",
"al	c #201611",
"bl	c #563927",
"cl	c #A26842",
"dl	c #693F28",
"el	c #734528",
"fl	c #583722",
"gl	c #1E130F",
"hl	c #935F3D",
"il	c #714328",
"jl	c #6B4028",
"kl	c #5F3825",
"ll	c #0C0C0D",
"ml	c #9B633D",
"nl	c #71442C",
"ol	c #794A2E",
"pl	c #875332",
"ql	c #130B09",
"rl	c #623A24",
"sl	c #5A3624",
"tl	c #39241C",
"ul	c #6D412C",
"vl	c #77482B",
"wl	c #6F4229",
"xl	c #7C4C2D",
"yl	c #301E18",
"zl	c #6B4228",
"Al	c #482C1F",
"Bl	c #170E0B",
"Cl	c #3F2920",
"Dl	c #AB7649",
"El	c #89512E",
"Fl	c #462714",
"Gl	c #4E2A17",
"Hl	c #6A3B20",
"Il	c #59321E",
"Jl	c #5C311C",
"Kl	c #5C331E",
"Ll	c #391F14",
"Ml	c #0F0E10",
"Nl	c #332116",
"Ol	c #A66B3C",
"Pl	c #46291B",
"Ql	c #4A2A1A",
"Rl	c #6F3A1F",
"Sl	c #814322",
"Tl	c #9D633A",
"Ul	c #473124",
"Vl	c #3C271D",
"Wl	c #523323",
"Xl	c #573523",
"Yl	c #613E29",
"Zl	c #0B090B",
"`l	c #845334",
" m	c #895434",
".m	c #7E4C2D",
"+m	c #865232",
"@m	c #643B26",
"#m	c #7A492B",
"$m	c #683E26",
"%m	c #201612",
"&m	c #6E4127",
"*m	c #643D27",
"=m	c #583623",
"-m	c #945F3C",
";m	c #693E27",
">m	c #5D3724",
",m	c #0C0B0D",
"'m	c #99613C",
")m	c #7C4D31",
"!m	c #5F3A25",
"~m	c #694027",
"{m	c #684028",
"]m	c #73462D",
"^m	c #845232",
"/m	c #8B5533",
"(m	c #392218",
"_m	c #855538",
":m	c #5A3725",
"<m	c #3A241B",
"[m	c #6E412C",
"}m	c #72432A",
"|m	c #653F28",
"1m	c #6D442A",
"2m	c #5A3824",
"3m	c #170D0B",
"4m	c #3B261C",
"5m	c #87512E",
"6m	c #412315",
"7m	c #59311D",
"8m	c #542F1D",
"9m	c #56301C",
"0m	c #60341D",
"am	c #773F22",
"bm	c #5A321E",
"cm	c #241611",
"dm	c #120F11",
"em	c #A56B3C",
"fm	c #522E1D",
"gm	c #452719",
"hm	c #834423",
"im	c #814422",
"jm	c #9F673F",
"km	c #1F100A",
"lm	c #281B15",
"mm	c #2C1D17",
"nm	c #3B271D",
"om	c #513222",
"pm	c #623E29",
"qm	c #0B090A",
"rm	c #573422",
"sm	c #835233",
"tm	c #875333",
"um	c #7D4C2E",
"vm	c #4B3022",
"wm	c #20120A",
"xm	c #6F442A",
"ym	c #744428",
"zm	c #6A3F26",
"Am	c #693E26",
"Bm	c #211612",
"Cm	c #573927",
"Dm	c #A06741",
"Em	c #73462C",
"Fm	c #633D27",
"Gm	c #935D3B",
"Hm	c #6F4128",
"Im	c #6C3F27",
"Jm	c #5E3724",
"Km	c #97603C",
"Lm	c #71462C",
"Mm	c #825132",
"Nm	c #8A5532",
"Om	c #201209",
"Pm	c #855639",
"Qm	c #130F0F",
"Rm	c #6F422C",
"Sm	c #7B4B2C",
"Tm	c #43281C",
"Um	c #6E452B",
"Vm	c #482E1F",
"Wm	c #86502C",
"Xm	c #552F1D",
"Ym	c #62351D",
"Zm	c #231611",
"`m	c #140F11",
" n	c #0F0F10",
".n	c #A4693B",
"+n	c #48291A",
"@n	c #6F3B1F",
"#n	c #844521",
"$n	c #A26B45",
"%n	c #170C08",
"&n	c #2E1E18",
"*n	c #2B1D17",
"=n	c #3B271E",
"-n	c #503221",
";n	c #583622",
">n	c #0A090A",
",n	c #804F31",
"'n	c #855232",
")n	c #7C4B2C",
"!n	c #653D27",
"~n	c #4C3122",
"{n	c #633B26",
"]n	c #724328",
"^n	c #79482B",
"/n	c #5A3823",
"(n	c #211712",
"_n	c #573928",
":n	c #99623E",
"<n	c #915C3A",
"[n	c #6C4029",
"}n	c #673E27",
"|n	c #5F3925",
"1n	c #462B1E",
"2n	c #955F3B",
"3n	c #684029",
"4n	c #875331",
"5n	c #76472C",
"6n	c #221208",
"7n	c #865639",
"8n	c #5B3826",
"9n	c #6C4128",
"0n	c #794B2C",
"an	c #3B2419",
"bn	c #0C0A0D",
"cn	c #2E1C16",
"dn	c #5F3C27",
"en	c #472C1F",
"fn	c #A97549",
"gn	c #89502B",
"hn	c #3E2115",
"in	c #58311C",
"jn	c #542F1B",
"kn	c #67371D",
"ln	c #54301B",
"mn	c #3B2115",
"nn	c #0F1010",
"on	c #0F0F0F",
"pn	c #A26739",
"qn	c #703C20",
"rn	c #7D4426",
"sn	c #854622",
"tn	c #9A643F",
"un	c #160D09",
"vn	c #573622",
"wn	c #7D4E30",
"xn	c #76472A",
"yn	c #643D28",
"zn	c #4E3223",
"An	c #26180F",
"Bn	c #724327",
"Cn	c #6D4027",
"Dn	c #5B3824",
"En	c #563A29",
"Fn	c #925D3A",
"Gn	c #6F432C",
"Hn	c #563622",
"In	c #1F150F",
"Jn	c #8E5A39",
"Kn	c #78482D",
"Ln	c #623A26",
"Mn	c #955E3A",
"Nn	c #78492E",
"On	c #674029",
"Pn	c #643F28",
"Qn	c #684129",
"Rn	c #794A2D",
"Sn	c #885431",
"Tn	c #412619",
"Un	c #865739",
"Vn	c #5D3926",
"Wn	c #110F0F",
"Xn	c #69402A",
"Yn	c #714329",
"Zn	c #784829",
"`n	c #74472B",
" o	c #7A4A2B",
".o	c #2D1C15",
"+o	c #5F3D28",
"@o	c #492E1F",
"#o	c #462C1E",
"$o	c #472D1F",
"%o	c #452C1E",
"&o	c #A9754A",
"*o	c #794023",
"=o	c #462617",
"-o	c #502C19",
";o	c #6E3C21",
">o	c #7A4123",
",o	c #381F15",
"'o	c #2B1A14",
")o	c #492919",
"!o	c #502F1E",
"~o	c #6F3D21",
"{o	c #864722",
"]o	c #3A281E",
"^o	c #613B26",
"/o	c #3D281B",
"(o	c #593522",
"_o	c #7A4C30",
":o	c #824F2F",
"<o	c #4F3323",
"[o	c #73472D",
"}o	c #5C3A25",
"|o	c #231713",
"1o	c #583B2A",
"2o	c #905C3A",
"3o	c #6E432B",
"4o	c #613C26",
"5o	c #77482D",
"6o	c #683E27",
"7o	c #925C39",
"8o	c #6D4229",
"9o	c #623E27",
"0o	c #644028",
"ao	c #75482D",
"bo	c #3A2318",
"co	c #211207",
"do	c #865738",
"eo	c #5E3925",
"fo	c #0E0C0D",
"go	c #7B4B2B",
"ho	c #744A2F",
"io	c #5F3E28",
"jo	c #4C3020",
"ko	c #482D1E",
"lo	c #472C1E",
"mo	c #462C1F",
"no	c #452D1E",
"oo	c #A77448",
"po	c #874F2C",
"qo	c #763E20",
"ro	c #2B150B",
"so	c #723D22",
"to	c #7B4323",
"uo	c #542E1A",
"vo	c #9C6135",
"wo	c #4D2C1D",
"xo	c #703D21",
"yo	c #713E22",
"zo	c #854621",
"Ao	c #935E37",
"Bo	c #322019",
"Co	c #2D1E16",
"Do	c #3A271E",
"Eo	c #563524",
"Fo	c #5C3925",
"Go	c #2A1A11",
"Ho	c #4F3423",
"Io	c #734428",
"Jo	c #5B3D2B",
"Ko	c #6D422B",
"Lo	c #684027",
"Mo	c #623D26",
"No	c #8C5838",
"Oo	c #643B27",
"Po	c #482D20",
"Qo	c #8D5937",
"Ro	c #694129",
"So	c #654028",
"To	c #865231",
"Uo	c #7A4B2F",
"Vo	c #201207",
"Wo	c #5E3926",
"Xo	c #0E0B0C",
"Yo	c #5B3926",
"Zo	c #78492A",
"`o	c #6B4127",
" p	c #7A4A2C",
".p	c #653E26",
"+p	c #3E281C",
"@p	c #764B2D",
"#p	c #603E28",
"$p	c #442C1E",
"%p	c #A87549",
"&p	c #874F2D",
"*p	c #753E21",
"=p	c #512E1C",
"-p	c #2B160D",
";p	c #733C1F",
">p	c #7B4223",
",p	c #4D2B18",
"'p	c #171111",
")p	c #100E10",
"!p	c #9D6034",
"~p	c #713D20",
"{p	c #6D3B20",
"]p	c #884722",
"^p	c #935F38",
"/p	c #150C09",
"(p	c #33201A",
"_p	c #2F1E17",
":p	c #623C26",
"<p	c #503323",
"[p	c #291A11",
"}p	c #744528",
"|p	c #231714",
"1p	c #5C3D2A",
"2p	c #96603D",
"3p	c #6C422B",
"4p	c #563523",
"5p	c #7B4B2E",
"6p	c #623B26",
"7p	c #895735",
"8p	c #77482A",
"9p	c #6F442B",
"0p	c #201208",
"ap	c #6C4228",
"bp	c #0C0B0B",
"cp	c #442C1F",
"dp	c #784C2D",
"ep	c #492E1E",
"fp	c #452C1F",
"gp	c #2B1810",
"hp	c #874E2D",
"ip	c #743E21",
"jp	c #552F1C",
"kp	c #422416",
"lp	c #743D1F",
"mp	c #7D4323",
"np	c #502D1A",
"op	c #5B321B",
"pp	c #A16133",
"qp	c #53301D",
"rp	c #532E1A",
"sp	c #4B2918",
"tp	c #723D20",
"up	c #8A4922",
"vp	c #955E38",
"wp	c #150B09",
"xp	c #0C0A0A",
"yp	c #613C27",
"zp	c #744527",
"Ap	c #744529",
"Bp	c #583B28",
"Cp	c #97613D",
"Dp	c #875637",
"Ep	c #663D28",
"Fp	c #875433",
"Gp	c #663F29",
"Hp	c #5D3925",
"Ip	c #6D432B",
"Jp	c #201107",
"Kp	c #5F3926",
"Lp	c #3F291E",
"Mp	c #472E21",
"Np	c #774B2D",
"Op	c #63402A",
"Pp	c #4C2E21",
"Qp	c #402A1D",
"Rp	c #442B1D",
"Sp	c #2A1810",
"Tp	c #AA774A",
"Up	c #824725",
"Vp	c #542E1B",
"Wp	c #7C4221",
"Xp	c #522E1B",
"Yp	c #764020",
"Zp	c #7F4321",
"`p	c #5C321B",
" q	c #100F10",
".q	c #412C21",
"+q	c #A26132",
"@q	c #5B331E",
"#q	c #673820",
"$q	c #5F341D",
"%q	c #6D3B21",
"&q	c #5C331D",
"*q	c #8E4A22",
"=q	c #A46A42",
"-q	c #170B08",
";q	c #2A1B15",
">q	c #3A261E",
",q	c #4E2F20",
"'q	c #472D1E",
")q	c #4D2D1E",
"!q	c #75462B",
"~q	c #603B27",
"{q	c #2A1B12",
"]q	c #6C4126",
"^q	c #241714",
"/q	c #95603D",
"(q	c #643C28",
"_q	c #4F3221",
":q	c #6A4027",
"<q	c #865536",
"[q	c #593523",
"}q	c #653C27",
"|q	c #855333",
"1q	c #6D432A",
"2q	c #41261A",
"3q	c #7E5135",
"4q	c #0D0B0D",
"5q	c #3D281D",
"6q	c #583824",
"7q	c #492F21",
"8q	c #784B2C",
"9q	c #634029",
"0q	c #422B1D",
"aq	c #432B1E",
"bq	c #4D3021",
"cq	c #AB774A",
"dq	c #7C4120",
"eq	c #723B1D",
"fq	c #5A311C",
"gq	c #6F3B1E",
"hq	c #432314",
"iq	c #7B4224",
"jq	c #793F1F",
"kq	c #56301B",
"lq	c #66371D",
"mq	c #763E1E",
"nq	c #493225",
"oq	c #9F5E30",
"pq	c #683A21",
"qq	c #5D331D",
"rq	c #5C321E",
"sq	c #391C0E",
"tq	c #8D4A22",
"uq	c #A3683D",
"vq	c #21110B",
"wq	c #3C271E",
"xq	c #4D2F20",
"yq	c #4D3121",
"zq	c #4B2D1D",
"Aq	c #5F3A26",
"Bq	c #6A4026",
"Cq	c #734327",
"Dq	c #673D25",
"Eq	c #5C3926",
"Fq	c #241713",
"Gq	c #533624",
"Hq	c #613A27",
"Iq	c #513322",
"Jq	c #312019",
"Kq	c #845335",
"Lq	c #6C4127",
"Mq	c #835132",
"Nq	c #1F1107",
"Oq	c #5D3825",
"Pq	c #0D0B0C",
"Qq	c #663E28",
"Rq	c #77472B",
"Sq	c #784A2C",
"Tq	c #4A2D20",
"Uq	c #432B1D",
"Vq	c #AB764B",
"Wq	c #7C401F",
"Xq	c #6F391D",
"Yq	c #65361E",
"Zq	c #5E331C",
"`q	c #371E11",
" r	c #68361B",
".r	c #552F1A",
"+r	c #784123",
"@r	c #743C1D",
"#r	c #291913",
"$r	c #9D5C30",
"%r	c #683A22",
"&r	c #6C3A20",
"*r	c #4E2916",
"=r	c #8C4921",
"-r	c #5B3825",
";r	c #6A4029",
">r	c #513524",
",r	c #915E3D",
"'r	c #623B28",
")r	c #523222",
"!r	c #714428",
"~r	c #6B3F25",
"{r	c #2F1E19",
"]r	c #835334",
"^r	c #5D3924",
"/r	c #794A2B",
"(r	c #201007",
"_r	c #784B31",
":r	c #5C3825",
"<r	c #593725",
"[r	c #7A4A2D",
"}r	c #633C28",
"|r	c #3A261C",
"1r	c #774A2C",
"2r	c #654129",
"3r	c #3F291D",
"4r	c #27160E",
"5r	c #A97448",
"6r	c #7C4020",
"7r	c #6F3A1E",
"8r	c #532E1C",
"9r	c #6E3A1F",
"0r	c #391F12",
"ar	c #7C4223",
"br	c #5F341C",
"cr	c #442515",
"dr	c #502D19",
"er	c #66371E",
"fr	c #532D19",
"gr	c #6B391E",
"hr	c #7E4222",
"ir	c #884721",
"jr	c #9F6439",
"kr	c #493324",
"lr	c #744429",
"mr	c #523625",
"nr	c #915E3C",
"or	c #623C29",
"pr	c #523221",
"qr	c #754629",
"rr	c #724528",
"sr	c #2F1D17",
"tr	c #835333",
"ur	c #75472C",
"vr	c #70442A",
"wr	c #744729",
"xr	c #1F1007",
"yr	c #764A30",
"zr	c #40291E",
"Ar	c #593825",
"Br	c #663E29",
"Cr	c #7B4C2E",
"Dr	c #613B28",
"Er	c #39271D",
"Fr	c #784B2D",
"Gr	c #68432A",
"Hr	c #4A2E20",
"Ir	c #A36E43",
"Jr	c #7E411F",
"Kr	c #713B1F",
"Lr	c #552E1C",
"Mr	c #3C2114",
"Nr	c #7B4120",
"Or	c #5E341E",
"Pr	c #492918",
"Qr	c #69381D",
"Rr	c #51321E",
"Sr	c #9F5F32",
"Tr	c #47281A",
"Ur	c #683921",
"Vr	c #502B18",
"Wr	c #69381E",
"Xr	c #874622",
"Yr	c #894822",
"Zr	c #9E6438",
"`r	c #4B3322",
" s	c #513121",
".s	c #41281A",
"+s	c #503220",
"@s	c #5C3622",
"#s	c #583624",
"$s	c #73472B",
"%s	c #673E25",
"&s	c #905D3B",
"*s	c #1E150F",
"=s	c #311E18",
"-s	c #5B3722",
";s	c #201108",
">s	c #432B1F",
",s	c #6C4229",
"'s	c #7B4C2F",
")s	c #5E3927",
"!s	c #764A2C",
"~s	c #6C462D",
"{s	c #4E3121",
"]s	c #3B271C",
"^s	c #281A13",
"/s	c #A06C43",
"(s	c #7F4220",
"_s	c #723B1F",
":s	c #562F1B",
"<s	c #562E1A",
"[s	c #7A3F1E",
"}s	c #633720",
"|s	c #4A2917",
"1s	c #4A2C19",
"2s	c #64351B",
"3s	c #281913",
"4s	c #9F5F31",
"5s	c #482818",
"6s	c #64361E",
"7s	c #62361E",
"8s	c #512D1A",
"9s	c #9F6339",
"0s	c #412918",
"as	c #5A3724",
"bs	c #5A3623",
"cs	c #563423",
"ds	c #513321",
"es	c #351F17",
"fs	c #5A3721",
"gs	c #73472C",
"hs	c #5F3A24",
"is	c #6B3F27",
"js	c #523624",
"ks	c #8E5C3B",
"ls	c #845332",
"ms	c #724527",
"ns	c #5A3723",
"os	c #623C25",
"ps	c #653C26",
"qs	c #5D3823",
"rs	c #5E3B25",
"ss	c #653F29",
"ts	c #76492B",
"us	c #75492D",
"vs	c #593726",
"ws	c #75492B",
"xs	c #6C472E",
"ys	c #39261B",
"zs	c #A36D44",
"As	c #552D1A",
"Bs	c #3B2013",
"Cs	c #7A3F1F",
"Ds	c #63351D",
"Es	c #4E2A18",
"Fs	c #4B2B19",
"Gs	c #63351C",
"Hs	c #63371F",
"Is	c #5F351D",
"Js	c #56301A",
"Ks	c #63361D",
"Ls	c #814421",
"Ms	c #864622",
"Ns	c #9D6037",
"Os	c #3B2010",
"Ps	c #5B3623",
"Qs	c #653E28",
"Rs	c #553623",
"Ss	c #6B4229",
"Ts	c #603B24",
"Us	c #593824",
"Vs	c #2E1D12",
"Ws	c #462D1E",
"Xs	c #5E3A24",
"Ys	c #653E25",
"Zs	c #231814",
"`s	c #523525",
" t	c #8E5C3C",
".t	c #613B27",
"+t	c #815131",
"@t	c #714427",
"#t	c #643C24",
"$t	c #5C3924",
"%t	c #613B25",
"&t	c #603A24",
"*t	c #784A2D",
"=t	c #603C27",
"-t	c #493023",
";t	c #583724",
">t	c #74482A",
",t	c #643E29",
"'t	c #70462C",
")t	c #553424",
"!t	c #3B281E",
"~t	c #482E1D",
"{t	c #74492C",
"]t	c #6D472F",
"^t	c #4B301F",
"/t	c #3C281C",
"(t	c #26150E",
"_t	c #A06941",
":t	c #824421",
"<t	c #713C1F",
"[t	c #542C18",
"}t	c #7A4222",
"|t	c #4A2A17",
"1t	c #3A1F11",
"2t	c #66351A",
"3t	c #61341C",
"4t	c #653F26",
"5t	c #9E5F31",
"6t	c #4D2B19",
"7t	c #58311B",
"8t	c #3B1F10",
"9t	c #563322",
"0t	c #331F16",
"at	c #633A24",
"bt	c #5D3A24",
"ct	c #663E25",
"dt	c #623D24",
"et	c #523524",
"ft	c #8D5B3B",
"gt	c #673F25",
"ht	c #633B24",
"it	c #623D25",
"jt	c #5B3724",
"kt	c #7A4C2E",
"lt	c #74472D",
"mt	c #694029",
"nt	c #613C29",
"ot	c #6F452C",
"pt	c #533423",
"qt	c #3D291E",
"rt	c #472D1D",
"st	c #73482B",
"tt	c #6B462E",
"ut	c #492C1F",
"vt	c #1D0E09",
"wt	c #9B653E",
"xt	c #733D1F",
"yt	c #723C20",
"zt	c #492A17",
"At	c #3B2012",
"Bt	c #7E4120",
"Ct	c #6E371B",
"Dt	c #562F1A",
"Et	c #60331A",
"Ft	c #664026",
"Gt	c #9E5E31",
"Ht	c #5E331D",
"It	c #5D341D",
"Jt	c #4E2B19",
"Kt	c #874621",
"Lt	c #84441F",
"Mt	c #97572D",
"Nt	c #3D2010",
"Ot	c #51301F",
"Pt	c #573423",
"Qt	c #5B3A25",
"Rt	c #1A0E08",
"St	c #663D25",
"Tt	c #633C25",
"Ut	c #513424",
"Vt	c #734629",
"Wt	c #7F5031",
"Xt	c #5C3724",
"Yt	c #7B4D30",
"Zt	c #4A3123",
"`t	c #613B29",
" u	c #6E442C",
".u	c #3E2A1F",
"+u	c #72472C",
"@u	c #6A452D",
"#u	c #210F0A",
"$u	c #975D38",
"%u	c #834421",
"&u	c #753D1E",
"*u	c #472917",
"=u	c #3E2213",
"-u	c #854522",
";u	c #7B3D1D",
">u	c #572E18",
",u	c #5F3219",
"'u	c #663F26",
")u	c #9D5E30",
"!u	c #5E321D",
"~u	c #63361F",
"{u	c #68381E",
"]u	c #874722",
"^u	c #81421E",
"/u	c #95542C",
"(u	c #3D1F10",
"_u	c #482B1D",
":u	c #603D27",
"<u	c #4B2E1E",
"[u	c #74482D",
"}u	c #472C1D",
"|u	c #593822",
"1u	c #513423",
"2u	c #8C5A3A",
"3u	c #7F4F31",
"4u	c #71452D",
"5u	c #3F261A",
"6u	c #4A3122",
"7u	c #523322",
"8u	c #3E2A1E",
"9u	c #69442D",
"0u	c #472C20",
"au	c #4A2F1F",
"bu	c #21100A",
"cu	c #8B4E2C",
"du	c #824320",
"eu	c #6E3B1E",
"fu	c #703A1D",
"gu	c #3E2214",
"hu	c #7D4020",
"iu	c #7F411E",
"ju	c #5A2F19",
"ku	c #5D3118",
"lu	c #9C5C2F",
"mu	c #5F331D",
"nu	c #6B381E",
"ou	c #814320",
"pu	c #904F29",
"qu	c #3D1E10",
"ru	c #3E251A",
"su	c #4F3322",
"tu	c #8B5939",
"uu	c #211611",
"vu	c #603A26",
"wu	c #533222",
"xu	c #794C30",
"yu	c #6F452B",
"zu	c #674129",
"Au	c #623B25",
"Bu	c #4A3023",
"Cu	c #6C432A",
"Du	c #633D28",
"Eu	c #5B3725",
"Fu	c #68432D",
"Gu	c #462B1F",
"Hu	c #22100A",
"Iu	c #884A27",
"Ju	c #834520",
"Ku	c #6C3A1E",
"Lu	c #7E4221",
"Mu	c #6E3A1D",
"Nu	c #482819",
"Ou	c #763C1E",
"Pu	c #80411E",
"Qu	c #5D321C",
"Ru	c #4B2A19",
"Su	c #9C5C2E",
"Tu	c #633B23",
"Uu	c #60331D",
"Vu	c #64371F",
"Wu	c #512B18",
"Xu	c #6A371C",
"Yu	c #7D411E",
"Zu	c #8A4A24",
"`u	c #3C1F11",
" v	c #140E0B",
".v	c #6A422B",
"+v	c #5F3B25",
"@v	c #76492D",
"#v	c #895838",
"$v	c #673D26",
"%v	c #613A24",
"&v	c #2F1E18",
"*v	c #784A2E",
"=v	c #3C2419",
"-v	c #774A30",
";v	c #3F251A",
">v	c #533323",
",v	c #6F442C",
"'v	c #74482E",
")v	c #65412B",
"!v	c #492D20",
"~v	c #3B251B",
"{v	c #150D0B",
"]v	c #1A0D09",
"^v	c #885236",
"/v	c #69371B",
"(v	c #804421",
"_v	c #6E3A1E",
":v	c #733B1D",
"<v	c #80421F",
"[v	c #5A301A",
"}v	c #643E25",
"|v	c #643620",
"1v	c #4D2816",
"2v	c #6E381C",
"3v	c #82441F",
"4v	c #7C411F",
"5v	c #8C4C25",
"6v	c #391E11",
"7v	c #69422B",
"8v	c #69422A",
"9v	c #603C25",
"0v	c #76492E",
"av	c #221713",
"bv	c #75482E",
"cv	c #583523",
"dv	c #110D0E",
"ev	c #75492F",
"fv	c #643D25",
"gv	c #5F3B26",
"hv	c #72462D",
"iv	c #74492D",
"jv	c #613E28",
"kv	c #3A261B",
"lv	c #221510",
"mv	c #7F4C34",
"nv	c #69361B",
"ov	c #834523",
"pv	c #6B381C",
"qv	c #492917",
"rv	c #5F311A",
"sv	c #804320",
"tv	c #562D18",
"uv	c #60331E",
"vv	c #663822",
"wv	c #482513",
"xv	c #703A1C",
"yv	c #824420",
"zv	c #773F1D",
"Av	c #8E4E26",
"Bv	c #32190D",
"Cv	c #6C452E",
"Dv	c #0E0A0A",
"Ev	c #653F27",
"Fv	c #6C422A",
"Gv	c #1A0F09",
"Hv	c #895839",
"Iv	c #2C1C17",
"Jv	c #130E0F",
"Kv	c #3A2218",
"Lv	c #633D25",
"Mv	c #694128",
"Nv	c #75482C",
"Ov	c #0F0B0D",
"Pv	c #5F3B28",
"Qv	c #633F27",
"Rv	c #72472D",
"Sv	c #4F3020",
"Tv	c #754A2D",
"Uv	c #5D3B25",
"Vv	c #442B1E",
"Wv	c #42281C",
"Xv	c #1F0F0A",
"Yv	c #7D4322",
"Zv	c #67351A",
"`v	c #68361C",
" w	c #4B2A18",
".w	c #59301A",
"+w	c #582F19",
"@w	c #4B2B1A",
"#w	c #633D24",
"$w	c #9E5D2D",
"%w	c #693820",
"&w	c #643721",
"*w	c #542D19",
"=w	c #6F3A1C",
"-w	c #814420",
";w	c #733D1E",
">w	c #8F5028",
",w	c #2D170A",
"'w	c #573725",
")w	c #6D452F",
"!w	c #643F27",
"~w	c #6C432B",
"{w	c #764A2F",
"]w	c #533522",
"^w	c #8A593A",
"/w	c #5D3923",
"(w	c #5C3823",
"_w	c #150F0F",
":w	c #74492F",
"<w	c #613C25",
"[w	c #5B3822",
"}w	c #100C0C",
"|w	c #6B412A",
"1w	c #5E3A26",
"2w	c #5F3A27",
"3w	c #784B2F",
"4w	c #442A1E",
"5w	c #452B1F",
"6w	c #814523",
"7w	c #854722",
"8w	c #67361C",
"9w	c #763D20",
"0w	c #592F1A",
"aw	c #59301B",
"bw	c #4D2A18",
"cw	c #5E321C",
"dw	c #9F5D2E",
"ew	c #63381F",
"fw	c #6A3820",
"gw	c #61321C",
"hw	c #78401F",
"iw	c #925329",
"jw	c #2B160B",
"kw	c #422B1E",
"lw	c #452D1F",
"mw	c #472E20",
"nw	c #462D20",
"ow	c #563726",
"pw	c #6E462F",
"qw	c #0F0B0A",
"rw	c #68412A",
"sw	c #754A2F",
"tw	c #1A0F0A",
"uw	c #653D24",
"vw	c #4E3120",
"ww	c #221813",
"xw	c #8B593A",
"yw	c #543321",
"zw	c #5A3722",
"Aw	c #201511",
"Bw	c #2E1D17",
"Cw	c #140E0E",
"Dw	c #643D24",
"Ew	c #76492C",
"Fw	c #110C0D",
"Gw	c #4C3224",
"Hw	c #633E27",
"Iw	c #73472E",
"Jw	c #4F3021",
"Kw	c #3D281C",
"Lw	c #7A4D30",
"Mw	c #221611",
"Nw	c #1B0E09",
"Ow	c #824624",
"Pw	c #67371E",
"Qw	c #5F321A",
"Rw	c #6B3921",
"Sw	c #62331C",
"Tw	c #67371F",
"Uw	c #6B391F",
"Vw	c #6A371B",
"Ww	c #94552C",
"Xw	c #2B150A",
"Yw	c #432B20",
"Zw	c #462E20",
"`w	c #70472F",
" x	c #100B0B",
".x	c #4C301F",
"+x	c #664029",
"@x	c #74492E",
"#x	c #3F271C",
"$x	c #8B5A3A",
"%x	c #5F3A23",
"&x	c #613C24",
"*x	c #201411",
"=x	c #130E0D",
"-x	c #72472E",
";x	c #120D0E",
">x	c #4E3324",
",x	c #73482E",
"'x	c #492F1F",
")x	c #7B4D31",
"!x	c #5B3A26",
"~x	c #35231A",
"{x	c #190C08",
"]x	c #844724",
"^x	c #68381F",
"/x	c #57301A",
"(x	c #713B1D",
"_x	c #7F4423",
":x	c #4C2817",
"<x	c #592E18",
"[x	c #633921",
"}x	c #4E2816",
"|x	c #66361E",
"1x	c #91542D",
"2x	c #422A1E",
"3x	c #452E20",
"4x	c #452D20",
"5x	c #70482F",
"6x	c #110C0B",
"7x	c #643F29",
"8x	c #583521",
"9x	c #211411",
"0x	c #140E0D",
"ax	c #72462E",
"bx	c #130E0E",
"cx	c #4C3223",
"dx	c #70442C",
"ex	c #0D0A0C",
"fx	c #5A3926",
"gx	c #844726",
"hx	c #884822",
"ix	c #412314",
"jx	c #4F2B19",
"kx	c #522C19",
"lx	c #542B17",
"mx	c #5E3820",
"nx	c #A05D2E",
"ox	c #482515",
"px	c #693920",
"qx	c #6B3920",
"rx	c #6C3A21",
"sx	c #6C391E",
"tx	c #90542E",
"ux	c #2A160A",
"vx	c #442D1F",
"wx	c #6F472F",
"xx	c #100C0A",
"yx	c #251814",
"zx	c #895939",
"Ax	c #2A1A15",
"Bx	c #5D3723",
"Cx	c #573322",
"Dx	c #553322",
"Ex	c #140F0E",
"Fx	c #70462D",
"Gx	c #46291D",
"Hx	c #140E0F",
"Ix	c #482F22",
"Jx	c #6A422A",
"Kx	c #5C3725",
"Lx	c #5A3925",
"Mx	c #844828",
"Nx	c #693A1F",
"Ox	c #4F2B1B",
"Px	c #4D2A19",
"Qx	c #4D2918",
"Rx	c #4D2919",
"Sx	c #522B18",
"Tx	c #A15D2D",
"Ux	c #472718",
"Vx	c #6A3921",
"Wx	c #6D3A21",
"Xx	c #8E542E",
"Yx	c #29150B",
"Zx	c #40281D",
"`x	c #6E472F",
" y	c #744930",
".y	c #291914",
"+y	c #5E3824",
"@y	c #17100F",
"#y	c #6F462E",
"$y	c #5A3523",
"%y	c #7C4C30",
"&y	c #130D0E",
"*y	c #342017",
"=y	c #4B2E21",
"-y	c #7B4C30",
";y	c #814627",
">y	c #683820",
",y	c #3D2114",
"'y	c #4F2B1A",
")y	c #502B1A",
"!y	c #502B19",
"~y	c #141011",
"{y	c #643C23",
"]y	c #A25D2E",
"^y	c #402315",
"/y	c #633520",
"(y	c #8E532F",
"_y	c #2A160C",
":y	c #462D1F",
"<y	c #0E0A0B",
"[y	c #503122",
"}y	c #462E1F",
"|y	c #8B5B3A",
"1y	c #583421",
"2y	c #291A14",
"3y	c #5A3522",
"4y	c #523120",
"5y	c #171110",
"6y	c #6E442D",
"7y	c #583524",
"8y	c #5B3624",
"9y	c #0C090B",
"0y	c #432C1E",
"ay	c #67381F",
"by	c #3C2115",
"cy	c #4B2917",
"dy	c #42291E",
"ey	c #151012",
"fy	c #A25E2E",
"gy	c #5C351F",
"hy	c #3D2012",
"iy	c #683922",
"jy	c #6A3A21",
"ky	c #915630",
"ly	c #6F4730",
"my	c #0F0B0B",
"ny	c #4F3122",
"oy	c #72482F",
"py	c #8C5C3A",
"qy	c #191110",
"ry	c #7D4D2F",
"sy	c #482C20",
"ty	c #774A2F",
"uy	c #593926",
"vy	c #7C4222",
"wy	c #4C2B13",
"xy	c #604A16",
"yy	c #3B241A",
"zy	c #1A1312",
"Ay	c #653C23",
"By	c #A35F30",
"Cy	c #552E19",
"Dy	c #693A20",
"Ey	c #6B3A21",
"Fy	c #915731",
"Gy	c #2A160B",
"Hy	c #422B1F",
"Iy	c #6E4730",
"Jy	c #120D0C",
"Ky	c #2C1C16",
"Ly	c #71482E",
"My	c #251914",
"Ny	c #472F20",
"Oy	c #8B5B39",
"Py	c #533220",
"Qy	c #513220",
"Ry	c #181110",
"Sy	c #6F442D",
"Ty	c #7F4F30",
"Uy	c #40271D",
"Vy	c #6E422B",
"Wy	c #3B271B",
"Xy	c #573825",
"Yy	c #844420",
"Zy	c #68391F",
"`y	c #4D2A16",
" z	c #543617",
".z	c #4E2B1A",
"+z	c #4C2919",
"@z	c #522D1A",
"#z	c #392016",
"$z	c #171112",
"%z	c #A35F31",
"&z	c #442617",
"*z	c #663922",
"=z	c #693A21",
"-z	c #6B3B21",
";z	c #6C3C20",
">z	c #6E3C20",
",z	c #925933",
"'z	c #29150A",
")z	c #2C1E18",
"!z	c #6D462F",
"~z	c #130D0C",
"{z	c #3F291B",
"]z	c #462F1F",
"^z	c #895938",
"/z	c #41281D",
"(z	c #70452C",
"_z	c #523320",
":z	c #70452D",
"<z	c #3F271D",
"[z	c #553725",
"}z	c #7C4324",
"|z	c #7F4222",
"1z	c #442414",
"2z	c #1B1312",
"3z	c #A46032",
"4z	c #452818",
"5z	c #6A3B21",
"6z	c #6D3C20",
"7z	c #935B35",
"8z	c #29170B",
"9z	c #6B442E",
"0z	c #140D0C",
"az	c #533523",
"bz	c #412A1C",
"cz	c #71472D",
"dz	c #895837",
"ez	c #2B1A15",
"fz	c #6D442C",
"gz	c #4D2F1F",
"hz	c #835332",
"iz	c #3F281E",
"jz	c #3C251B",
"kz	c #7B4426",
"lz	c #7D4223",
"mz	c #381E11",
"nz	c #4C2B18",
"oz	c #381F12",
"pz	c #3D2113",
"qz	c #191212",
"rz	c #A35F32",
"sz	c #643820",
"tz	c #6B3C20",
"uz	c #6D3C21",
"vz	c #8D5530",
"wz	c #2A170C",
"xz	c #6A442D",
"yz	c #533421",
"zz	c #40291D",
"Az	c #885736",
"Bz	c #6C442D",
"Cz	c #40291F",
"Dz	c #7B4527",
"Ez	c #361D10",
"Fz	c #4C2A18",
"Gz	c #492716",
"Hz	c #331C11",
"Iz	c #0F0E0F",
"Jz	c #9E5B2F",
"Kz	c #65381F",
"Lz	c #532E18",
"Mz	c #8A532E",
"Nz	c #29160C",
"Oz	c #4B2F22",
"Pz	c #69442E",
"Qz	c #613D27",
"Rz	c #865736",
"Sz	c #3F261C",
"Tz	c #221410",
"Uz	c #71482F",
"Vz	c #603B23",
"Wz	c #18110F",
"Xz	c #4A2E1F",
"Yz	c #805031",
"Zz	c #120C0D",
"`z	c #39231A",
" A	c #231711",
".A	c #7B4528",
"+A	c #7F4223",
"@A	c #3B1F11",
"#A	c #4C2917",
"$A	c #482716",
"%A	c #2F1A0F",
"&A	c #100E0F",
"*A	c #181212",
"=A	c #9D5A2E",
"-A	c #592F19",
";A	c #462413",
">A	c #6C3C21",
",A	c #89532F",
"'A	c #2B170C",
")A	c #432C20",
"!A	c #4A2F22",
"~A	c #69422D",
"{A	c #1B110E",
"]A	c #4E3222",
"^A	c #71462D",
"/A	c #865635",
"(A	c #211410",
"_A	c #2C1B15",
":A	c #744B31",
"<A	c #19110F",
"[A	c #332117",
"}A	c #7C4D30",
"|A	c #452A1E",
"1A	c #120C0C",
"2A	c #312017",
"3A	c #7C462A",
"4A	c #61351F",
"5A	c #4D2917",
"6A	c #4A2817",
"7A	c #2E170B",
"8A	c #321B10",
"9A	c #161112",
"0A	c #9D5C2F",
"aA	c #502D1B",
"bA	c #482615",
"cA	c #6F3E21",
"dA	c #8B5633",
"eA	c #2E190F",
"fA	c #281A15",
"gA	c #66412C",
"hA	c #503223",
"iA	c #412B1E",
"jA	c #201310",
"kA	c #754C32",
"lA	c #1B1210",
"mA	c #2D1B15",
"nA	c #150E0D",
"oA	c #3D261E",
"pA	c #301F16",
"qA	c #7C472B",
"rA	c #894925",
"sA	c #32190E",
"tA	c #4B2817",
"uA	c #3C1E11",
"vA	c #331C0F",
"wA	c #50311D",
"xA	c #442417",
"yA	c #6C391D",
"zA	c #6D391C",
"AA	c #885532",
"BA	c #41291E",
"CA	c #623D29",
"DA	c #1F1411",
"EA	c #513323",
"FA	c #3F2A1D",
"GA	c #855534",
"HA	c #1F1310",
"IA	c #734A32",
"JA	c #1B1310",
"KA	c #6E452D",
"LA	c #1A120F",
"MA	c #3A231C",
"NA	c #6B422C",
"OA	c #251812",
"PA	c #7C482B",
"QA	c #8A4B27",
"RA	c #351D12",
"SA	c #371D11",
"TA	c #482717",
"UA	c #7F4A2A",
"VA	c #7F4E2C",
"WA	c #2F1B11",
"XA	c #4D301D",
"YA	c #A26135",
"ZA	c #442518",
"`A	c #522C1A",
" B	c #743E1D",
".B	c #763F1D",
"+B	c #85512F",
"@B	c #4C2F20",
"#B	c #3C281B",
"$B	c #805132",
"%B	c #6C442E",
"&B	c #75482F",
"*B	c #4F3022",
"=B	c #1D1310",
"-B	c #362019",
";B	c #6A412B",
">B	c #523121",
",B	c #3E281B",
"'B	c #7A4629",
")B	c #894B27",
"!B	c #2D180C",
"~B	c #432414",
"{B	c #4F2916",
"]B	c #844E2C",
"^B	c #915932",
"/B	c #5C3B26",
"(B	c #4C3120",
"_B	c #A36337",
":B	c #4A2A1B",
"<B	c #452519",
"[B	c #452618",
"}B	c #8A5835",
"|B	c #623820",
"1B	c #79401D",
"2B	c #7D4827",
"3B	c #3F291C",
"4B	c #633D29",
"5B	c #71462E",
"6B	c #1A100E",
"7B	c #331E18",
"8B	c #68402B",
"9B	c #784427",
"0B	c #894C28",
"aB	c #5D3520",
"bB	c #2B170D",
"cB	c #3C2012",
"dB	c #412113",
"eB	c #814D2A",
"fB	c #161012",
"gB	c #452C1D",
"hB	c #A26439",
"iB	c #3F2517",
"jB	c #47261A",
"kB	c #754B2D",
"lB	c #482918",
"mB	c #7A421E",
"nB	c #361F12",
"oB	c #482E20",
"pB	c #503321",
"qB	c #241712",
"rB	c #794B30",
"sB	c #563624",
"tB	c #613D26",
"uB	c #533424",
"vB	c #190F0C",
"wB	c #331E19",
"xB	c #67402C",
"yB	c #654029",
"zB	c #764327",
"AB	c #8A4C28",
"BB	c #2B180E",
"CB	c #402314",
"DB	c #3C1F12",
"EB	c #5A2E18",
"FB	c #3B2415",
"GB	c #9D6239",
"HB	c #3F2416",
"IB	c #4B2B1B",
"JB	c #47271A",
"KB	c #754B2F",
"LB	c #523423",
"MB	c #7A411E",
"NB	c #5D3B28",
"OB	c #2B1A16",
"PB	c #2D1B16",
"QB	c #523422",
"RB	c #5D3A26",
"SB	c #65402C",
"TB	c #754225",
"UB	c #8A4C29",
"VB	c #56321F",
"WB	c #2A180E",
"XB	c #532E1B",
"YB	c #442516",
"ZB	c #452414",
"`B	c #391E12",
" C	c #5A2F1A",
".C	c #130F11",
"+C	c #372113",
"@C	c #9B6139",
"#C	c #3F2415",
"$C	c #4B2B1C",
"%C	c #7A4B2C",
"&C	c #7B411F",
"*C	c #361E12",
"=C	c #4F3224",
"-C	c #4F3123",
";C	c #68402A",
">C	c #77492E",
",C	c #44291E",
"'C	c #513122",
")C	c #442A1F",
"!C	c #221613",
"~C	c #2B1B15",
"{C	c #64402A",
"]C	c #553624",
"^C	c #613E2A",
"/C	c #523223",
"(C	c #734023",
"_C	c #8B4E2A",
":C	c #613E2C",
"<C	c #2A170D",
"[C	c #462616",
"}C	c #351B10",
"|C	c #592E1A",
"1C	c #99623B",
"2C	c #4F2E1D",
"3C	c #3E2316",
"4C	c #462719",
"5C	c #8A522B",
"6C	c #341D12",
"7C	c #110D09",
"8C	c #4E3123",
"9C	c #4D3023",
"0C	c #573624",
"aC	c #653E2A",
"bC	c #41281E",
"cC	c #20130F",
"dC	c #3D251B",
"eC	c #4A2E22",
"fC	c #43291E",
"gC	c #2A1915",
"hC	c #492E22",
"iC	c #412A1E",
"jC	c #2C1B16",
"kC	c #623F29",
"lC	c #4D3122",
"mC	c #4C3022",
"nC	c #271814",
"oC	c #19100D",
"pC	c #341F19",
"qC	c #603C29",
"rC	c #744023",
"sC	c #8C4D29",
"tC	c #2C180D",
"uC	c #432415",
"vC	c #452514",
"wC	c #4F2B18",
"xC	c #572D19",
"yC	c #915F3C",
"zC	c #412317",
"AC	c #65381E",
"BC	c #341C12",
"CC	c #4C2F22",
"DC	c #553625",
"EC	c #623D2A",
"FC	c #563625",
"GC	c #462B20",
"HC	c #492E21",
"IC	c #472D21",
"JC	c #43281D",
"KC	c #4E3022",
"LC	c #402A1E",
"MC	c #5E3D29",
"NC	c #4C2F23",
"OC	c #4D2F22",
"PC	c #281914",
"QC	c #5D3A28",
"RC	c #160F0C",
"SC	c #37221A",
"TC	c #8A4B26",
"UC	c #683C21",
"VC	c #2F190E",
"WC	c #4A4819",
"XC	c #56411A",
"YC	c #4A2816",
"ZC	c #311A10",
"`C	c #582D18",
" D	c #4B2A1A",
".D	c #543120",
"+D	c #48281B",
"@D	c #5F3B29",
"#D	c #69412B",
"$D	c #462C20",
"%D	c #291915",
"&D	c #5C3826",
"*D	c #513123",
"=D	c #452D21",
"-D	c #261814",
";D	c #4D3124",
">D	c #4C3023",
",D	c #291A15",
"'D	c #17100D",
")D	c #6D4226",
"!D	c #2E190E",
"~D	c #382012",
"{D	c #4F2C19",
"]D	c #502C1A",
"^D	c #2A170E",
"/D	c #5B301A",
"(D	c #432618",
"_D	c #5A3827",
":D	c #3B261D",
"<D	c #241511",
"[D	c #4E2F22",
"}D	c #1E120E",
"|D	c #281814",
"1D	c #251714",
"2D	c #2E1C17",
"3D	c #3E271D",
"4D	c #41271D",
"5D	c #492E23",
"6D	c #1B100D",
"7D	c #764425",
"8D	c #31190C",
"9D	c #5B2F1B",
"0D	c #422517",
"aD	c #371E12",
"bD	c #49281A",
"cD	c #49291B",
"dD	c #351D10",
"eD	c #38221A",
"fD	c #472A1E",
"gD	c #4E2E20",
"hD	c #1C120E",
"iD	c #251713",
"jD	c #1A110E",
"kD	c #2D1C16",
"lD	c #311F19",
"mD	c #271914",
"nD	c #271813",
"oD	c #1C100D",
"pD	c #140D0B",
"qD	c #764426",
"rD	c #864B28",
"sD	c #301B10",
"tD	c #4E2B1B",
"uD	c #30180B",
"vD	c #542C17",
"wD	c #392116",
"xD	c #361B10",
"yD	c #422417",
"zD	c #452718",
"AD	c #4F2F1F",
"BD	c #1A100C",
"CD	c #1C110D",
"DD	c #1A0F0C",
"ED	c #1B110C",
"FD	c #1F140E",
"GD	c #1F120E",
"HD	c #190F0D",
"ID	c #180F0D",
"JD	c #190E0C",
"KD	c #824625",
"LD	c #65391F",
"MD	c #301A0F",
"ND	c #311B10",
"OD	c #4E2C1B",
"PD	c #33180C",
"QD	c #2C180F",
"RD	c #6F3D22",
"SD	c #381C10",
"TD	c #442616",
"UD	c #0D0A08",
"VD	c #180D0B",
"WD	c #774226",
"XD	c #311B0F",
"YD	c #341D10",
"ZD	c #402414",
"`D	c #4C2C1A",
" E	c #34190E",
".E	c #2E1910",
"+E	c #3D2013",
"@E	c #703F24",
"#E	c #492B1C",
"$E	c #452717",
"%E	c #0C0908",
"&E	c #503021",
"*E	c #653F2B",
"=E	c #68412B",
"-E	c #543323",
";E	c #553524",
">E	c #4B2C1D",
",E	c #573524",
"'E	c #613D28",
")E	c #66402C",
"!E	c #67402B",
"~E	c #553323",
"{E	c #6F3E23",
"]E	c #321A0E",
"^E	c #4F2D1A",
"/E	c #351B0F",
"(E	c #3C2014",
"_E	c #371D12",
":E	c #3A1F14",
"<E	c #251911",
"[E	c #522E1C",
"}E	c #583320",
"|E	c #593320",
"1E	c #5A3320",
"2E	c #5A3420",
"3E	c #5B3420",
"4E	c #5E3723",
"5E	c #5F3723",
"6E	c #5F3823",
"7E	c #603723",
"8E	c #5F3722",
"9E	c #603822",
"0E	c #623924",
"aE	c #653B25",
"bE	c #643B25",
"cE	c #56301D",
"dE	c #5D3621",
"eE	c #623923",
"fE	c #663B24",
"gE	c #6E422A",
"hE	c #663C26",
"iE	c #623A25",
"jE	c #613924",
"kE	c #5F3824",
"lE	c #5C3521",
"mE	c #56301E",
"nE	c #512D1D",
"oE	c #502C1C",
"pE	c #4F2B1C",
"qE	c #4A2819",
"rE	c #482719",
"sE	c #542F1E",
"tE	c #5E3522",
"uE	c #64361D",
"vE	c #381D12",
"wE	c #3B1F12",
"xE	c #472717",
"yE	c #321B11",
"zE	c #693921",
"AE	c #3D2014",
"BE	c #3B1F14",
"CE	c #3B2014",
"DE	c #301B0F",
"EE	c #130C0A",
"FE	c #502F21",
"GE	c #4E2C1E",
"HE	c #4B2A1B",
"IE	c #4A291A",
"JE	c #4C2A1C",
"KE	c #4F2D1E",
"LE	c #4F2C1E",
"ME	c #4E2B1C",
"NE	c #4B2A1C",
"OE	c #4A2A1C",
"PE	c #4A291B",
"QE	c #4E2D1D",
"RE	c #4E2C1D",
"SE	c #502D1C",
"TE	c #55301E",
"UE	c #532F1F",
"VE	c #512E1E",
"WE	c #462718",
"XE	c #432518",
"YE	c #4E2A1A",
"ZE	c #512C1C",
"`E	c #57301F",
" F	c #5F3523",
".F	c #7F4726",
"+F	c #331A0E",
"@F	c #361C10",
"#F	c #351C12",
"$F	c #391F13",
"%F	c #321C10",
"&F	c #3E2216",
"*F	c #432417",
"=F	c #392217",
"-F	c #0C0909",
";F	c #251711",
">F	c #352018",
",F	c #382019",
"'F	c #382117",
")F	c #392117",
"!F	c #46281B",
"~F	c #542F1F",
"{F	c #4E2C1C",
"]F	c #54301F",
"^F	c #56301F",
"/F	c #402316",
"(F	c #3A2016",
"_F	c #351E14",
":F	c #3B2116",
"<F	c #3C2218",
"[F	c #3E2218",
"}F	c #76492F",
"|F	c #723F21",
"1F	c #834822",
"2F	c #351C11",
"3F	c #603621",
"4F	c #321B12",
"5F	c #3F2116",
"6F	c #331E15",
"7F	c #3A2319",
"8F	c #3C241A",
"9F	c #43271B",
"0F	c #382116",
"aF	c #3D2419",
"bF	c #3F2419",
"cF	c #40251A",
"dF	c #391B0F",
"eF	c #502B17",
"fF	c #2E180F",
"gF	c #2E180E",
"hF	c #371F15",
"iF	c #341C11",
"jF	c #100A08",
"kF	c #3B2319",
"lF	c #372118",
"mF	c #603A28",
"nF	c #3B1E12",
"oF	c #3A1E12",
"pF	c #371C10",
"qF	c #1B100B",
"rF	c #3D2115",
"sF	c #402317",
"tF	c #0E0808",
"uF	c #301910",
"vF	c #3B1F13",
"wF	c #331A0F",
"xF	c #2A170F",
"yF	c #2F1910",
"zF	c #0C0C0C",
"AF	c #16100E",
"BF	c #251612",
"CF	c #1D120F",
"DF	c #0E0D0C",
"EF	c #1C1410",
"FF	c #1A1311",
"GF	c #1B1311",
"HF	c #1C1511",
"IF	c #130E0C",
"JF	c #18100F",
"KF	c #110F10",
"LF	c #111113",
"MF	c #111112",
"NF	c #101113",
"OF	c #101112",
"                                                                                                                                                                                                                                                                ",
"                                                                                                                                                                                                                                                                ",
"                                                                                                                                                                                                                                                                ",
"                                                                                                                                                                                                                                                                ",
"                      . + @                                                                                                                                                                                                       # $ % & *                     ",
"                    = - ; > , '                                                                                                                                                                                                 ) ! ~ { ] ^ /                   ",
"                  ( _ : < [ } |                                                                                                                                                                                               1 2 3 4 5 6 7 8                   ",
"                  9 0 a b c d e f                             g h i                                   g j k                                         l m n                                 o p q                         r s t u v w x y z A B C                 ",
"                E F G H I J K L M N O P Q R S   T U V W     X Y Z `  .                              ..+.@.#.$.                                    %.&.*.=.-.                            ;.>.,.'.).        !.~.{.].^./.(._.:.<.[.}.$.|.1.2.3.4./                 ",
"                5.6.7.8.9.;.0.a.b.c.d.e.f.g.h.i.j.k.l.m.n.o.p.q.r.s.t.u.v.w.x.y.z.z.A.B.z.z.C.D.E.F.G.H.I.J.K.L.M.N.O.P.O.O.Q.R.S.T.U.V.W.X.Y.Z.`. +.+++@+#+$+y.%+%+&+z.%+z.*+*+C.=+-+;+>+,+'+)+!+~+{+]+^+/+(+_+:+<+[+}+|+1+2+3+4+0.5+6+7+8+9+0+                ",
"                a+b+6.c+d+e+f+g+h+i+j+k+l+m+n+o+p+q+r+s+t+w u+v+w+x+o y+z+A+B+C+D+E+F+G+C+C+H+6 I+J+K+L+M+N+O+P+Q+R+S+T+U+V+W+X+Y+Z+`+ @.@+@@@#@$@%@&@*@=@-@;@>@,@'@)@!@~@{@]@^@/@(@_@:@<@[@}@|@1@2@3@4@5@6@7@8@9@0@a@b@c@d@e@f@g@0.h@i@j@k@l@m@                ",
"              n@o@p@q@r@s@t@t@u@v@w@x@y@z@A@B@C@D@E@F@G@H@I@J@K@L@M@e+N@O@P@Q@R@S@S@T@U@V@W@X@Y@Z@`@ #.#+#<@@###$#%#%#T@&#*#=#-#*#;#>#,#'#)#!#~#{#]# +^#/#(#_#:#<#[#}#|#1#2#3#4#5#6#7#8#9#0#L@a#b#c#d#e#f#g#h#i#j#k#l#m#n#o#p#q#r#s#t#M@u#v#w#x#                ",
"              y#z#A#B#C#D#E#F#G#H#I#J#K#L#M#N#O#P#W@Q#R#S#p@T#U#V#W#X#Y#[@z@Z#`# $ $.$+$`#Z@@$#$$$%$&$*$=$-$;$>$,$ $R#'$)$!$~${$]$i#^$/$($_$:$<$[$}$|$0 1$2$3$4$5$+$5$6$7$6$8$9$0$a$b$c$d$e$f$g$h$i$j$k$l$l$m$n$o$p$q$r$s$t$u$v$w$x$E#y$z$A$m#B$C$              ",
"              D$E$F$G$H$).F#I$F#H$2 J$K$L$M$N$O$P$Q$$#T@R$S$T#V@T$U$F#V$W$X$Y$Z$`$V# %.%+%@%#%$%%%&%*%<#{$=%-%;%>%[ [ ,%'%,%)%!%>%~%{%]%^%/%(%_%:%<%[%L@}%|%1%2%3%y+y+4%5%6%7%X$8%9%0%/$a%b%W$a#c%d%e%f%V#g%K$g%h%h%i%[ j%k%l%m%n%o%p%q%r%s%l#t%u%              ",
"              v%w%x%3 y%z%F#F#E#p%F#A%B%y+C%C%C%;%;%D%'%`@+%E%F%G%H%F#F#I%J%K%d#L%L%i%M%L#V#N%V#F$O%F$P%Q%=%R%S%T%U%V%V%V%V#V%l#U%U%U%l#F$W%X%Y%y+D#|$Z%`% &=%t..&+&@&#&$&%&&&$&*&*&=&B%-&;&>&L@,&9#'&)&!&~&C%{&]&A%^&t@t@t@/&x$(&p%F#_&]&:&<&[&}&              ",
"                |&1&2&3&4&5&6&G#7&F#F#-%G#F#F#8&0.9&G#p%0&).a&e%b&v%F#F#F#-%F#F#F#G#G#F#F#F#7&^&c&o d&e&f&g&h&F#]#]#i&i&i&i&j&k&l&j&m&n&c&^&^&^&F#F#o&l$p&q&r&s&7&G#G#G#G#G#G#G#G#G#F#-%I$t&u&v&w&x&y&I$G#-%G#G#G#G#G#-%G#t@t@z&A&B&C&D&3&:&E&F&                ",
"                G&H&I&J&K&L&M&N&O&P&F#h&e+Q&;.R&S&$%T&U&V&W&X&Y&Z&`&G#F#F#F# *.*+*@*#*#*C&$*0.%*G#[%&*I#**W&G#F#t@r&=*d$-*;*>*,*+*G#F#F#F#F#F#F#F#F#=%'*<@)*!*~*{*]*^*/*F#G#G#G#G#P&F#F#%*(*_*:*<*[*4&}*C&9&G#F#F#G#t@/*/*e+|*1*2*3*4*5*6*7*>*8*                ",
"              9*0*a*-*b*c*d*e*f*g*1*0.G&h*i*j*k*l*l*m*n*o*p*Y&q*r*s*G#t*u*v*w*x*y*z*A*B*C*D*E*F*9*G*H*I*&*J*<%u.K*L*M*%# $ $ $N*O*P*9&F#F#F#F#F#F#0.Q*R*Q@S*T*U*V*W*X*Y*Z*/*G#F#G#F#F#`* =.=+=@=#=$=%=&=*===}*-=t#0.A&+*C&O&;=>=,='=)=!=~={=]=^=/=              ",
"              (=_=e$:=<=d*[=}=|=1=2=3=| R&4=h%5=5=5=m*6=7=K*8=9=0=a=9*b=c=d=e=f=g=h=i=j=k=l=m=l=n&n=o=p=q=8=r=s=t=u=v=w=w=w=w=x=y=z=A=B=C=D=4&9=9=8=E=F=G=U*U*U*H=I=J=K=L=M=N=O=Q&#*P=Q=R=S=T=U=V=#=W=X=Y=Z=`= -p=.-+-3&+*@-#-$-#-%-&-*-=---;->-,-              ",
"              '-)-!-~-{-]-[=}=^-/-(-_-:-<-Y#[-}-5=5=|-1-2-V&G#G#G#G#+-3-4-5-5-6-7-7-8-9-0-a-b-c-d-e- -^*^*9&f-j&g-h-Z#i-i-i-i-j-j-k-l-t@t@t@<%/*m-n-o-p-q-U*U*U*U*r-s-J=t-u-X#9&0.6&9&_&X#v-w-x-w-y-X=z-A-B-C-D-[%/*/*/*E-F-G-H-I-J-&-*-K-L-M-N-O-P-            ",
"            R-e$l$S-T-T-U-V-W-X-1=N=s#t.Y-n$Z-w=m*`- ;.;+;1%G#G#G#G##*@;d=#;$;%;7-8-7-&;*;=;-;;;>;,;1 ^&';f+);!;~;{;y=i-i-];y=^;/;];(;t@t@t@<%<%e+e+_;:;<;U*U*U*U*[;};|;1;2;3;D#(&D#E-4;`*5;X=6;7;8;z-9;0;a;b;c;d;/*/*E-';Z*e;f;g;J-&-*-*-h;i;j;k;,-            ",
"            l;R&m;n;o;p;q;r;s;t;u;v;w;x;-*y;l*$#O@z;A;B;5-6&G#G#G#F#d;C;D;E;F;G;H;7-I;J;K;L;M;N;O;,;P;Q;D#R;S;T;U;V;y=i-i-i-^;V;i-w=W;t@<%t@t@R;$.$.X;Y;Z;H=U*r-U*[;`; >.>+>J }$@>R;R;#>$>%>&>X=8;*>=>#=X=->;>>>9*/*}$,>,>8&'>)>!>J-K-*-*-k;O-~>{>]>^>          ",
"            (>_>:><>r;[>}>o;|>1>2> =3>4>5>6>$#7>O@`#8>9>0>/*-%G#F#F#a>b>c>d>e>f>g>h>e#i>j>k>l>m>;;n>o>t@}$)-p>q>r>P%w=i-i-i-w=s>t>`#u>%*D#t@t@t@.*v>w>x>y>r-U*U*U*[;H=z>A>B>C>y$D#@>^&D>E>F>*>G>8;8;X==>H>I>J>K>P;/*d$L>x;d&s#M>N>K-O>*-*-P>k;Q>J-R>0>          ",
"          S>T>U>V>W>X>Y>Z>`>H- ,.,o*8#+,@,#,$,%,&,*,9>=,-,t@-%;,>,/*,,',),!,~,{,],{$L;L;^,/,(,_,:,q c#a*!-<,[,},|,w=w=w=i-w=1,2,3,4,5,6,;,t@<%<%7,8,9,0,a,r-q-r-U*U*b,c,d,e,c#f,t@R;%./*g,h,8;i,W=G>X=X=7;j,k,l,m,Z*d$+%n,!-3&o,p,q,r,*-s,J-k;t,u,v,w,          ",
"          x,y,z,A,B,C,D,E,F,G,H,I,J,K,L,z;S@Q#M,N,^-t;O,u*t@t@P,Q,R,S,T,U,V,W,F$X,Y,^,Z,y;`, '.'+'@'Y#!-!-z$#'$'%'&'*'y=y=='-';'>','Z*Z*;,^&}$@>0.P-'')'!'~'U*U*U*U*{']'^'/'('_'t@D#<%%*:'<'['}'#=&>z-8;|'1'2'3'4'I&D#t.5'6'7'8'9'0'a'b'c'd'K-e')=f'g'          ",
"          h'i'j'V-k'l'm'n'o'p'q'r's't'u'v'w'x'y'5*Y*z'A'B'C'D'Q,E'F'G'H'I'J'K'L'M'N'O'P'Q'R'S'T'D=D'U'V'W'X'Y'O&Z'`' ).)+)@)#)$)%)&)C=5+f,l$2%d$(=*)=)-);)>),)')))!)~){){)V&])^)/)t@;,%*()g&_):)<)X=[)})|)1)2)3)4)7,Q;5)6)7),>o 1*8)9)0)a)b)c)d)e);=f)          ",
"          g)h)i)j)k)l)m)n)o)p)q)r)s)(-t)u)v)w)x)y)z)A)B)C)D)E)F)G)H)I)J)K)L)M)N)O)O)P){=Q)R)S)T)U)V)S$W)X)Y)Z)`) !x*.!+!@!#!$!U;s=*)j&%!&!*!=!-!J ;!_&$.>!,!7)'!)!j#!!D>~!G*{!]!^!n,{)(=/!(!_!$.:!<![!}!|!1!2!3!4!(*D#3;5!6!@%9#7!8!9!0!a!b!c!d!e!w,f!          ",
"          g!v;h!i!j!k!l!m!n!o!p!<,q!`)r!s!t!u!v!w!x!y!z!A!B!C!D!E!F!G!H!I!J!z)K!L!M!N!N!O!P!v;Q!R!S!T!U!V!W!X!Y!Z!U;Z!`!7, ~B'=*.~+~@~9*#~$~%~&~*~=~-~.=;~>~,~h@+-3&[%' v*'~)~!~~~{~]~'$^~/~(~_~:~r=4'<~[~}~|~1~2~+-3~4~5~6~7~8~9~0~a~b~c~d~e~f!f~g~h~          ",
"        i~j~k~l~m~n~o~p~L*q~r~s~t~U'u~v~w~x~y~z~A~B~Z'C~D~^#E~F~ )G~H~I~J~K~L~M~N~I,O~P~Q~R~S~T~u*g%U~V~W~X~w~%@Y~Z~`~ {.{m'+{@{#{;;${%{w+&{*{W)%%@>3!={-{;{>{,{'{){!{~{{{]{@>^{/{({_{:{<{[{}{|{1{2{3{3{4{1{5{6{7{8{9{0{a{b{c{d{e{f{g{h{i{d!d!j{k{l{m{n{        ",
"        o{p{q{r{s{t{u{v{v~w{z%x{y{e>z{A{B{C{D{E{F{G{H{I{ =J{K{L{M{N{P-c-J~O{P{Q{R{R{S{T{U{V{W{X{Y{y~Z{`{ ]c;P,y).]+]@]#]$]%]&]*]=]-]M;;]>],]'])]`*Q& =!]~]{]]]^]/](]_]:]<][]}]|]1]2]3]4]5]6]7]8]9]0]a]b]c]d]e]f]g]h]i]j]k]R*l][@m]n]o]p]q]r]s]t]u]v]w]W'        ",
"      x]y]z]A]G=B]C]D]E]F]G]H][%I]-$I&C>%$J]~)~)K]L]M]9>N]O]K.[%Z*g&P]Q]R]S]T]U]V]W]X]Y]Z]`] ^O-.^u*+^@^P-#^$^%^&^$]*^=^-^;^;^>^,^'^)^x~`*!^!^!^V&4;[,~^{^]^^^/^(^_^:^<^[^}^|^1^r&('n-#>7,2^3^4^4^4^5^6^7^8^9^0^0^a^b^c^d^e^e^P-f^g^h^i^j^k^l^m^n^o^p^q^+*      ",
"      s^t^u^v^w^x^T@H=y^z^A^B^p>f^C^D^E^F^S*S*G^H^I^J^K^L^K.M^(=Q;%@N^O^P^Q^R^S^T^U^V^W^X^Y^Y^Z^#{`^ /(*./+/@/#/$/%/&/*/=/-/;/>/,/'/)/!/!^!^`*!^!^u.5,~/{/]/^///(/_/:/</[/}/|/1/!^`*!^t@t@2/3/4/5/4^5/6/7/8/9/0/a/b/c/!-+%R&R&d/e/f/g/h/j^i/l^l^l^j/k/l/I)      ",
"    m/n/o/p/q/r/s/t/u/v/w/z;x/y/z/A/B/t{H^H^S*H^C/D/E/F/..G/s)H/Q;I/J/K/L/M/N/T^S^O/P/Q/R/S/S/T/U/V/;.(=./W/%!X/Y/Z/;/-/-/`/ (.(+(@(#($(!^!^!^!^!^[,%(&(*(=(^/-(-(;(>(,('()(!(~(`*f+M^D%C#C={(](^(/(((_(9^:(<([(4/}(|(r%_'c^m;1({)2(3(4(4(i/l^5(6(7(8(9(r)3&    ",
"  0(a(b(c(d(e(f(g(h(i(j(%#k(4&l(m(A]n(o(S*S*S*p(q(r($-2^s(;$t(u(n$7!y,v(w(x(y(z(A(B(C(Q/D(D(T/E(F(G(('d$H(';=%Y)I(J(-/-/-/K(L(M(N(O(P(m~C'%*%*j&z&V&Q(R(S(T(U(V(W(;(X(Y(Z(`(]=3$ _S%!!._D%o +_@_^(#_$_6/%_<(<(&_*_}(=_-_X'J{Y';_>_,_z~'_)_k^)_5(6(!_~_{_]_t@    ",
"  ^_ )/_(___:_<_1$[_}_|_1_Z!2_-.*@3_4_5_6_n(7_8_9_0_a_b_r!c^c_d_e_a=O%f_g_h_i_j_k_l_m_Y^n_o_p_O>q_r_D#J ';d$J s_t_u_v_w_x_y_z_A_B_C_Y{+^Y#R,D#D_`*M^|*;_E_F_G_H_I_I_J_K_L_M_-%;.N_O_!&P_Q_/!R_S_T_U_v-V_W_X_Y_Z_`_ :.:O%_'+:@:>%#:$:%:&:*:=:-:;:>:,:'$B*':t*    ",
"  ):!:~:{:]:^:/:(:_:::<:A&[:}:|:1:2:3:4:5:6:7:8:T{9:0:-.3$J x;a:U)b:c:d:e:f:g:h:i:j:k:l:m:%-%-n:o:p:./';q:C'r:s:t:C~u:v:w:x:y:z:h{A:B:-.H(;!c#/!s(C:2^D:E:F:G:H:I:J:K:L:M:N:5&O:+%P:P_Q:R:S:T: .U:V:W:X:Y:Z:`: <.<+<@<W'_'d/u>B^#<-*$<6,S-%<&<*<5:=<-<;<><,<    ",
"'<)<!<~<^*{<]<^<<:K)/<(<_<:<9_<<[<}<|<1<2<3<4<z)5<N~6<7<8<8<8<9<9<9<0<a<@;b<c<d<e<f<g<h<i<j<k<l<m<)+n<o<p<q<r<s<7<t<O,u<M:v<w<e!x<y<z<A<y/9<B<B<9<C<S;D<E<^<F<U{6&.* *-%y)G<H<I<J<K<L<5+M<N<O<P<O:Q<R<7,q:#'S<T<U<V<}*W<X<r!+:Y<Z<`<@^ [0:S,/*/*/*8&>*.[+[@['<#[",
"'<$[%['<&[l!l(*[=[-[;[>[,['[)[w,L^![9=()|*2^[< .!&~[{[][1 1 $^B=o ^[/[([_[@<:[.~<[[[}[|[1[2[.{3[4[5[6[7[8[9[0[ +=%$&$&a[O]b[p)E-Q%c[J*m,,*d[e[f[D-g[h[i[j[L#`)k[l[m[n[o[p[q[r[s[t[m,9=u[v[ .O+w[x[}&u[y[z[G*A[B[_&C[0=*)s(G&#^e[D[E[F[G[)[H[I[/[}[<<l)J[K['<L['<",
"Y{/-M[N['<O[P[%*Q[R[S[T[U[V[@{;=W[H%X[@>Y[Z[Z#`[ }.}+}@}%: ~`*%*Q;%@#}$}%}&}:=*}=}5]f,-};}>}_,,}'}(*$')}!}~}O%{}$:]}^}/}S##,(}_}6_^}:}<}L*>]>])][}}}|}1}2}3}4}5}6}7}5~8}9}0}a}b}C'!^`*D>G&c}d}e}f}g}h}i}j}k}l}m}n}{*e+o}f+>]3;R<p}q}q(r}s}t}u}v}w}x}y}s}z}A}B}C}",
"D}E}F}G}H}I}#';$J}r;K}L}T[M}R'5*N}O}!%/!v=P}Q}R}o(z{S}T}U}6,!^t@Q;I&V}W}X}Y}Z}`} |.|+|@|@|#|$|%|Y~&|a<K*<@G&q'*|=|A/-|6_;|>|,|'|)|!|~|<}>]>]>]>]{|]|^|/|(|_|:|<|[|[|}|||1|2|3|4|s)o}/*/*g&5|6|7|8|7|9|7|0|a|b|c|d|e|A&J f,-!W#I&f|g|h|r}i|i|i|j|k|l|m|n|o|p|q|r|",
"s|t|u|v|l(('D<w|T-o;x|y|z|A|B|C|4'D|E|F|G|H|I|J|K]K|L|M|N|;!s=C'Q;e[O|P|Q|R|S|T|U|V|V|@|W|X|Y|Z|`| 1.1l~q&s@+1@16:6_6_6_6_;|6}#1)|o($1]<>]>]>]./%1&1*1=1-1_|;1}|}|;1;1>1,12|'1)1#'!^/*/*c#!1~1{1]1^1/1(10|0|_1:1<1[1e+C'}1|1112131415161r}7181r}9101a1b1c1v|d1e1",
"f1g1h1i1$.j1k1l1m1X>n1o1p1q1r1N}o>s1t1u1v1/}w1x1y1z1A1B1C1;!n:=)M^,*D1E1F1G1H1I1U|@|@|J1K1L1M1N1O1P15,Q1R1V'S1T1U1V16_6_6_W1X1Y1)|Z1`1 2>]>].2+2@2#2$2%2&2*2=2-2}|}|_|;2>2,2e~'2=)!^/*t@.1)2!2~2{2]2^2/20|d_(2_2:2<2^*C'[2|1}2|212223242r}52r}62j|72829202s|a2b2",
"c2d2e2f2g2h2i2j2k2l2m2n2o2F[p2[<q2r2s2t2u2v2w2x2y2z2A2B2C2>* 2D2 <E2F2G2H2G1I2J2K2L2M2N2O2P2Q2R2/[b=&!@#>_&!k<S2T2U2V2>|]~W2X2Y2Z2`2 3])>]<}.3+3@3#3$3%3&3*3=3-3;3>3,3'3)3!3~3{3]3o}/*t@#*^3/3(3_3:3<3[3}3|3 %1323U&33(=4353|16373839303a3b3c3m|42d3e3f3K[g3h3i3",
"j3k3l3=)V$m3n3m1o3p3q3r3s3t3u3,_v3w3x3y3z3A3B3o|C3D3M|E3F3C>W<G3E)H3I3J3K3L3M3N3O3P3Q3R3S3T3U3V3W3X3U'>_>_@%I&G'Y3Z3`3 4.4+4@4#4$4%4&4o>*4=4-4;4>4,4'4)4!4~4{4]4^4/4(4_4:4<4[4k~{! 2z& *k<}4o$|4142434d_G@4454@^64748'C'84t~94*404<<a4b4c4d4e4f4g4h4i4j4k4l4m4n4",
"c;o4o4p4q4r4s4t4u4v4&}w4L!x4y4$'T&z4A4B4C4D4E4F4G4H4I4J4K4L4J#M4N4O4P4V3Q4R4S4T4U4O3V4W4X4Y4Z4`4 5.5+5D)@5>_#5b=r'$5%5&5*5=5m*-5;5v!>5P;@#H/,5'5)5!5~5{5]5^5/5(5_5:5<5[5}5%:|5152535456,Z*55b%6575859505a5f#b5$^e[%{7*c5F|d5e5j1f5g5h5i5j5k5l5m5n5o5p5K[q5r5n4s5",
"t5u5,-v5%@w5x5o5y5Z4j<z5A5B5C5D5E55,u!F5G5H5I5J5K5L5M5N5O5P5Q5G^R5W)S5T5U5I5V5W5X5Y5Z5`5 6f~R_.6+6@6#6$67%%6&6*6B=q_=6-6;6>6,6-6'6t[w;)6q$0 :#W|!6~6{6]6^6/6(6_6:6<6[6C>G&9<}6|6162636f{m]4656@^R<6676e/8696K 06a6a~b6c6d6e6f65>g6h6i6j6k6l6m6n6n6o6p6q6r6u5s6u5",
"t6u6D<;%43*6v6w6x6y6z6A6B6C6D6E6c;F6G6H6I6J6K6L6M6N6O6P6Q6R6S6T6U6V6W6@/X6Y6Z6`6E: 7f~2(.7+7)* .@7#7$7%7&7*7=7-7/~+-k[w!;7K6>755)*,7,706'7)7!7~7{7]7^7/7);W[(7_7P;:7<756[7}7|7172737475767+:5677879707(!a7b7c7d7e7f7P]g7h7i7j7k7l7m7n7o7R_R_s_p7q7v3r!r7C)s7Z't7",
"u7u7v7 5v721r7z%w7Q=q'u.X<x7y7z7k~A7B7C7:=D7H6E7F7G7H7I7J71#K7L7M7N7O7f[P7Q7R7S7T7U7[<V7W7X7d[Y7{*Z7B4`7 8.8+8@8#8Q<d[J6Y7Y7Q*$8X7%8%8P;&8*8=8-8;8>8,8#8'8Q*)8!8!8~8{8)*)*t[]8^8/8(8_8:8<8Y)k[Q*Q<z%;.;.Q*)*[8P-}8%{|818283848586878p>[8'8Q<'8'8,_,_{*88}<|2D~98",
"08a8b8c8d8e8f8g8]%+&d#h8n*94u!i8j813s]k8l8m8n8x/o8p8q8r8W$s8t8l{u8v8w8x8 %y8z8._._._[ A! % %A8x/m8B8C8D8E8F8G%G8H8I8J8K8L8M8N8O8P8Q8Q8R8S8T8U8V8~*W8X8i2Y8Y8Z8`8`8z,`8 9.9+9@9#9$9%9&9*9=9-9;9n;>9,9'9'9Z8Y8)9!9~9{9]9^9/9/9(9_9:9<9[9;9}9|9,9|9`8|919293949d859",
"697989699909a9b9c9d9e9f9g9h9i9j9k9l9m9n9o9Q3p9<|q9r9s9t9u9v9w9x9y9z9A9B9C9D9E9p8F9F9w]G9H9I9U2J9K9L9M9N9O9P9Q9R9S9T9U9V9W989X9Y9Z9`9 0.0+0@0#0$0%0&0*0=0a1-0-0-0;0>0-0=0,0'0)0!0~0{0]0^0/0(0_0:0<0[0}0|0|010|02030405060/:70809000>0a0b0c0d009e0e0f0g0h0i0j0k0l0",
"m0n0o0p0q0r0s009t0u0A]v0[|P}/}w0x0%<y0z0A0B0C0D0E0F0G0H0I0G0J0K0L0M0N0O0P0Q0R0{~S0T0U0V0W0X0v^v^v^Y0Z06~`0 a.a+a@a#a$a%a&a*a=a-a;a>a,a'a)az]!a~a{a]a^a/a(a_av_:a<a[a}a|an0B0J0K01a2a#63a4a5a6a6a7a8a9a0a0aaa9aba7acaaadaeafagahaiajakalamanaoapaqarasataua89vawa",
"P%t>xa`[ya^$zaI;I;}3|3}3]$}3AaBaCak*Da];EaS*FaGaHaIaJaKaLaMaNaNaOaPaQaRaSaTa7~E=UaE=Va4 4 u(Waz=XaX$YaR*ZaF'`a]%E$ b %e^./././q:./J >+;*r#4=Y-.b.b2%b%+bU:@b+b#bZ<j}#5$b%b&b*b&b=b-b;b:%W%[&e&h%>b,bO*'b)$)bA^!b=$~b{by;]b^b/b(b_b:b<b[b}b|b1b2b3b4b5b6b7b`[E%8b",
"g%9b0bn*)&abbbbbcbbbbbbbp&B#p&dbdbdbeb%%z;l*fbDa6>gbhbi#z=ibjbkblbmbnbobpbqbrbsbtb2 0#ubP:vbvb,%._wby80#._cbB#3 Q%G$xbp&._ybO_zbg!cbB#p&AbxbBbBb&&CbCbB#ubDbDbEbEbFbEbEbGbHbIbJbJbGbFbFb,!FbGbKbW%LbMbNbObPbQbO@c[RbZ$Sb`$#%z$>&._Q%eb3 Q%Q%dbdbQ%dbQ%L%TbUb1]s>",
"Vbc Dbabn$%&f&WbEbk9WbGbWbWbEbEbWbGb>&,%Xb<&<&YbL%54A!Zb`b c.c+c@c#c$c%c&c*c=c-c;cubA!A!._._>cO_Db,c.%t6t6'c)c!c~c{c]c^c/c(c_c_c_cP]M@m$d+d+d+d+d+v>:c!-V'b&Jb<c[c[cGbGbGbGb>&JbJbDbDb}cDbDbx[2 |cw%1cx%2c3c4c5c95956c95|%~&FbGbt$N_N_DbN_ybybVbVbN_ybyb0#._7c8c",
"x&9cx&x&x&W/x&0cacac/~bccc):cc[{dcecfcgchchcicgcgcgcjcfcfckckckclcgchchcfcmcmchcncecncjcncicicgcgchcocpcococqcrcsctcucscscq*vcwcxcvcxcxcucucocycycycuczczcycucoclclcAclclcococycycycycyczcyclczcocycAcgclcycucucucycBcCcDcEcFcGcHcHcHc/~'*x&s#IcIcIcIcIcx&x&x&-~",
"JcJcKcLcMcNcNcOc_&PcQci W&4'RcScTcUcUcUcVcUc4!m<m<m<UcUcWcWcUcVcVcVcXcVcVcYcYcWcZcVcVcVcVcVcUcUcVcZcVcVcVcVcYcYcYcYcScScZc`c d.d+dSc.d.d.dZcZcZcZcSc+d@dScVcVcScSc.dZcScSc.d.dZc d d#d#d#d#d$d$d%d&d$d*d=d-d-d;d>d;d,d'd)d!d~d{d]d^dZc.dVcVcVcn[/dm[m[Kcr=(d_dJc",
"JcJc:dJ*(*'*J*/~<d[d}&r#v&>!}dSc|d1d2d3dB54d5d5d4d6d7d8d9d0dn t#0dad:!:!<*bdcddded(dfd![/~cd1!gdhdidjdR=DcDc:!:!:!:!kdldmdndodad0d:!EcpdEcqdXcrdsdgdtd:!kdkd:!:!adudvdwdtdxdydzdAdqdBdCdCcCdCdCdDdDdqdRcEdFdGdHdIdJdKdLdEdMdMdNdOdn=3)o&<~McPcPd<~ .).).G&>!QdJc",
"JcJc^[Rd+%,>s@j%t.H/z8#&SdDb1dTdUdVdBdWdE#p%XdYdndZdEc`du&C$u&r@u& e.e+e@exd#e$egdn>%e&eC$*eY&=e-e;e>e+e,e'e.e.e.eI}I})e)e!eu&e%~e{e$e]eY&^e/e(e_e{e:e<eu&%e[e'-%e}e|e#d^eo%dc1e2er*#e3e4e5e<e<ey&}e6e'd7er@8e9eWd,e0eaebebecedeeeK..!#%V$+/fefegef[}&}&.1#%heJc",
"JcJcGciejekex%h#`$3,leA^meneAdZcoepetdqerereE#^eo%_dseteueI C$d+u&e%ve.ewerdxe'&yeze%eAe/c*eY&BeCeDeEeFe8e'e{e#e#e~e:eldGeHeC$'-*e#eY&]eY&IeJeR=Kel xe4eu&%exer@<e}eweLeYdMeNe*doe=exe eOe4e+ePe-&QeReSeyer@]eqe'ePeWdTeUeVeVeWeXeYeF'F'+6Ze`e f.f+f@f#f=%~&r=Jc",
"$fJcr=@^D-%f&f*f=f-f]3;f>f-$,f'f)f!ftd~f{fqeqe'e]f^f/f(f4]_f e(cr@C$l-xe:fDe<fl ye[fr@t)_fY&]eBe}f|f1f2f3f'e#exe#e4f8eldDe(c.e[e<fxe<fr*Y&^e5fR=6fxeu&d+7fl-+e/c'-Me:f^f8fMeYd9f2e3f eC$u&xel-'-`&Bey&0faf7fbfcf'edf0eefffgfBdhfl( =m,ifjfkflfmfnfofpfqfrf_7sfJc",
"Jctf@^5>ufvfwfxfyfzfAfBfCfDfEf7<hfpetdqeFfGfsdHfIfJfDc6e4]KfLf}c[cMft)v>hf.=|.NfH&OfPfV:QfRfSf5]TfB5Uf[eVfVfxeWfXf e<f)e5d&eYfu&ZfYf2fSfXf8e5fR=`f _ g g_f.gM@+gl-6e@g#g$g6e}e%g2eVf.gj6_fYf&gM@H%*g]f=g-gI 2fMe<f;g~e^epd(e>gBdg2,gd/'g&f)g!gn,y+e^&%>&e/r&~gJc",
"JcJc{g]g(2^g/g(g<-_g:g<g<g[g}g|gwepe(e~ec<1gs.2gye3g4gab5g6g7g8g9g0g7g<bag>*bgcg3;G&7gdg9gegfgggGe;!hgigegjgkg#9lgmgngOfX#ogkgpgqgrgsgtgugngJeq:vg>$#9wgxgygzgAgi99.n L[BgCgDgEgFgGg8gHgIgJgKgLgMgAei6NgOgPgQg.bJbRgSgT$[cTgTga<UgVgg8p8WgXg &]%J%YgZg];43F*`gJc",
"tfJc h.h+h@h#h$h%h~&&hU:*h=h-hg2ededtd;h>h,h'h)h!h3g~h%&{h]h^h/h(h9g_h:h<h[h}h|h}$#8Kg>$1h2h}hw%3hX<4h5h6h7h8h0g9h0hahbht#z+chdhehfhghhhz+:&ih.2jhkhlhObmhnhohphqhrh<dshthjeuhvhndwhxhc%yhzhAhBhChAea%DhVfEhFhNf+gGh&&&&DbZfe%r_Hhj*U*v^IhJhKhZ2|#LhMhNh%$S,OhJc",
"JcPhQhRhShThUhVhWhXh#bYhZh`h-h iVd@etd;h.i+i@i#i!h5f~hYb$i%i&ilh*i9g=iLbag-iF:;i7'W7>i,i'i)iOb!imd~i{i]i^i/i(i_i:i<i[ibhod}i/ich|iehn5n5yh1i2i3i4i5i6i|h:i7i8i9ifh0i%.aibiZ%cidindwhxhdgeifigihiiic jiDhkilimib&G%@inioi<cZfu&h@HhpiqiriW|siti}|3}]'z3uiB@S,Ohvi",
"JcwixiyiziAiBi!$CiDiEiFiGiHiIiUgJiedUeKiLi@i.iMixd5f0cYbohNiOi_hlh*iz+:hi a:mgPia[o77gQiRiSiTiUiViQ1Wi>iXilhYiZi`i jFh.j+j@jn5eh#j$jgh%j&j1i2iS:*jJ@=j-j;j>jyh,j$j'j)j%[!jjeF&~j]fl,{j]jeiehAh^j/j&gU$Dh]f(j_j:j<j[jc }j~c|j3iG&1j2j3j4j5j6j7j7j8j9jf9u00jS,Ohvi",
"JcJc'*ajbjcjdjejfjgjE&hjijjjIiIiUdVdtdkjLi>hljmjnj5fs#Yb$iojpjr.8iAhJ3^ii qjmgcgH#%{8gQiRi:@Z)Sgmd~irjsj:itjujvjwj|hxjyjX#zjAjBjdhCjzhDjEjtgFj:-*jGj=j-jHj0g9gIjJjs.Kjl(LjjeMj~jYdNjOjujPjehgiOiQjRjC#SjTjUjVjWjXjc<t)t)~cC$Yj .l!Zj!1`j k.kf97j+k@k>1#kK%66$k%k",
"JcJc&k*kfhp&=k-k;kA/J1>k,k'kIiIiUdedtd)kLi>h'h!kxd5ft#<&~k%i{k]k^k/k(kNb|$_k5h:kP,%{9g<kRi:@Ti[k-e}krjsj|k1kk7JjHj|h2k3kX#4k5k jdhdhzh6k7k8k9kZf0kakbkckwjdkekfk7k'j>+gkhkN#ikjkqekkek]j8beh8ilk;jLf|.mknkSiokpkqkc<9.}j_cu&C$D:1jrksktkukvk!_wkxkykzkU|U'AkBk%k",
"JcJc%@Ck4%U'DkEkq8FkGkGkHkIkIiIiJkKktdI}Lk>h.iMk!h5fn F$Nk%iOk,jPk&i/hQk|$RkSkTkm;74yhUk6$~bTi[k)e+gVk_h|h(iWkXkxgck2k3k>!Yk#9hh7kEjfiZkdh`k lP]m5.l/ick|hpg9g+l@lk3k%gk#l=;`:~j$l%l{j]j&l{b8#kh*lq!'&=l-l1@ok;l>lpk,l} 'lu&u&D:l!)lsk!l~l{l]l^lSb/l(lu1_l.2r&%k",
"JcJc+/:l:><ls>[l}lFkGkGk|l1lIi-h2lKktd3l4l.i1&5lnjSjt#ikNk6lIj7l,j8l9lcg +M@#9TkS%0l=iUk6$~bPb2&alblcl_hdl%<el#jNbckflgls#hlyhLg&jiljlfidhklll9.mlph^i j|hnlolpl&j6'H#ql#lrlsl~jtlulBhvlAhwl8#xlQkD_H%3gylzlokAlAl;lKei@P]l-b&@*BlClDlElFlGlHl-<IlJl_|KlVbLlF*Ml",
"JcJcNlOlPlk(Y[U'QlRlSlGkTlUlIi-hUepeBdVlWl.iXlYlcdZl`*p:`l m8l,j.m,j+mcgR<9.nl@m:c>7^hw9#m~b$mp:%mbl4i=ifh{b&m7k*m|h=mgl9#-myh;m7k,$qgrg#j>m,mu6'm)m!m~m{m]m^m/m8bu~(mI6_mQb:mjk<m[m}m'igi&j8ixl|mLfU$3gh&1m2m9.Al;l;l} d+v>b&C&3m4m++5m0%6m7m8m9m0mambmVb7*cmdm",
"wiwifcem*!*!fm_'gmRlhmimjmkmIi-h(elmmmnmomUiE$pm~hqm9&rmsmtmdg]kumkh$$cg3$vmugTk{&wmxmym6$zmAm bBmCmDmEm:i/i%<&jFm-j2kyjq:Gm9gzhHmilIm;m#jJm,m9.Km)mg+wj;jLmMmNm=in,r%OmPmfh:mQmVfRmBh'ihiEjAhSm|mTmZ&5ft*Ums%)c9.VmVmAlI u&)cB&3m'e++Wm@l.5Xm^lE{Ymzkw]n$/bZm`m",
" nwi%..n+n!%,'_'gm@n37#n$n%nIi-h&nqd*n=n-n-n;nh2j$>n9&Xl,n'n8i]j)n7$,j!nI/~n>i{n'c)*Sk]n^n$j~b/n(n_n:nEm:iekbk7k:&~m$b.j(=<nxh[nwlZ-;m}n$j|n9k1n2n)m3n|m`idk8i4n5nF6Y#6n7n#j8n~jbfRm6i+$tj9n=i0n;jMfanbncnG~dn_c9.en9.Al+gu&I E-l!,efngn|@hno8injnkn;1lnybmn0.%k",
"nnonH6pn+nr:Ub_'4%qnrnsntnunl!UgKdUeDc=nom-nvn:&Pe>n9&3cwn^{AhxndgvlPkynI/znEmbgm$An0gBnRiCnehDnDeEnFnGndl#j(}$j{:~mHnIno%JnKnchwl&m;mJgzmLn9kt)MnNnOnPnQn>iRnSngiTnY#6nUnpgVnWn*gXnYnZn&l#j`n omhMfYf5f.o)}+o@o#o+g$o9.t)3e%o<d1j&*&o!l*o=oo825-o;o>op80#,o'o%k",
"wi na>Zhm9)o!o#%}2~oz>{ov:unIi-hjd(enj]o6+G%T>^o/oqm`*(o_o$$1h=jxn^k:oFm%:<o[o*m'c +vjBn`%&meh}o|o1o2o3ock#j&m~m4o~m#5bh}eJn5o6o#j@ldh|k~bLn5f}j7o8o9o0oQnao.m57z+y+bocodopgeofo]ejgckRi1h9n_hgoHj_fWf5f~hhoiojokolomololo3eno/~l!d$oopoqo^lo8o8rosotou(5%uoM^`m",
"PhviW7vo!% &wo#%}2xoyozoAov;l!l!BoConjDouh>&Eo^oC$qm(*Fo!}8l1h(iAh5nohQjGoHo(k*mz$I/@lIoE%$jehFh|oJoFnKo*mwl&mLoMo~m1&bhjcNoLhF:{b@lwljl~mOo9kPoQoyhRoSoOnsjxlToUoy+0*VoUnpgWoXoVlYo|kZo]j`o7g p.pM@3e=l+p@p#pjoG%lo$pko@oe%$padIi6,%p&p*p8mo8=p-p;p>p3>5%,p-='p",
"Ph)pH6!p[ ~%w~Tn}2~p{p]p^p/pl!Bl(p_pDdDoT$[c!i:pm$Zl./$b3n^kxn(i=i/i/hFmGo<p(k^i{&[p@$}p1kP%$mYo|p1p2p3p4p/ivj~m}hehvnbh^e4k5pckeh#j6p!njl599ken7pdgug;j:&sj)n8p9p<,l$0p7n&jWoXo|!Vjwjc%c%ap*i/kNby$.ebpcpdp+!1g;lP]Yjeppk3efpcdIigp%phpip8mjp8(kplpmpnp_bopM^%k",
" n)p%@pp!&qpL{rpsptp{7upvpwpIiUg{fTjqdDoT$t)2&^iD_xpD>Sgyp8#F%&lek6o}nypGoXj(k{n{&GoDazpApP%)iYo2eBpCpn5uh/ieizm)izm=m.jNeDp5pdl{b#j b4o#jEp=lAlFpJ3aoGpHpsjkhc%Ip<,| JphkEjKpXoLpokwj6$dgxm8b^k!n%.l bpMpNpOpPpAl/cQp@o[je%Rp/fIiSpTpUp;p8mVpWpXpYpZp-or8`p'o%k",
" q%k.q+qI%@qvk#q$q%q&q*q=q-q-hUg{fE#;q>q,qt)ciNb'qbpo})qVn!qvl1kYn|hck~q%@:j(k!n{&{q]qymAp#,$m8n^q$>/q(q_qwlAp$j:qzm=m.j{f<qRn|k$j#j[q{:#j}q=lAl|qUo]mFmFo=ixl/k1q2qWfJp3q0gWo4q5q6qcg6$1h9h8h^k*mn $e]d7q8q9qc<#o0qaq@obqa&P]H&l!Yecqdqeq8mfqgqhqiqjqkqlqmq8'%k",
"PhMlnqoq#<u1pqpqqqrqsqtquqvq-hv;(p9e.owqxq<cci!nyqDh;,zqWo8b1hhi%<8o<iAqq%jo(kghj%[pBqCqAp#,DqEqFqGqhlHqIqwl&lHmdhP%=myjJqKq^hdl$jdh=m{:Lq(q,mloMq9g6o4oFh_hSmxn-j2q3eNqU8/iOqPq4m!kQqRqBhxg9hRnFm4g{ebpDgSq0oTq1nUq$p@obqxeYje+-hK6VqWqXq8mYqZq`qmp r.r+r@r#r%k",
"%k)pwb$r#<]!pq%rfq&r*r=r8[#e-h-h9e9eG#nmD}I ciXi_qDhj&$&bg&j&j@lAp&j^o-r%@s._h;rV'i Ob`-Io#,DqEqFq>r,r'r)r|itj,$!r~r=me-{r]r8i|h~b#jXl^r{bbg=l}j,n5n5g:pMklh/r1h~m_'Wf(r_r/i:rPq4m<rQqvl(i|h8o[r}rdd|r=lDg1r2rc<} #oloTq2gZ&3r$.-h4r5r6r7r8r9ryk0rarbrcrdrgq#r%k",
"%k%ke&I0k(er%r%rfrgrhrirjrkr-hUgYdp%E#%e7cD_'hxgWjbp/)3c1q8b$jCj(i9g4cxjr!@o_h8o+% .}hz;lr#,DqYoFqmrnrorpr6o}mqrrr~r=me-srtrgifh$m{b4p4c{bkg=l1n}iur_hQjFhvr8pwr|h:cXfxryrJj-rPqzrArBr'i(i0glhCrDrddErDh@oFrGr1gqkHr} ;l_qZ&5q).-h'*IrJrKrLr*p25MrNrOrPrQlQr#r%k",
"%k%kRrSrTr'3Ur%rVrWrXrYrZr`r-hUgqe9eE# s4c.sp:xg+smk/)@sIg`n$mLq8b8h4c#s[hep$s0g<c;.h#CnqrIm%sYooeGq&s)>prJgpgkhel!b;n*s=sb)=i^i.pfhT>-s9n:&3g1nLhPj*iMoFo_ixn(i|hS%| ;syr$jMgPq>s<rBrc%=j,s(k's)s4gDo=l@o!s~s1n,lHr} ;l{s#e]s^s-h>!/s(s_s:s-:<sMr[s}s|s1s2s3s%k",
"Ph%k]$4s5s6s7syk8s'3snXr9s0sBl-hYd9ey&asbsEbcs!ndsmkesfs>j!}DqJjPjwl-sxj;!kogs9n'qf^hsP%&lis%s-rwejsksDr'hNb8hlsmsBa=mbhcfb)8hnsosps4pqs9n^oSjAeLh@l8h:&rs1q]j=j:iB%| 0plizm#sPqMp!kssts*i`idkusvs.*]obpepwsxsYjmoHrAl;l[jPeysQ&-h3$zs(sKrAsWpGlBsCsDsEsFsGs3s)p",
"Ph%k[b4s)oHsIsJs8sKsLsMsNsOs-hv;Bop%7'nsPst)p:QsRsmki&t%Ssgs2:9nYnwlTsUsVsWsgs{bloW7Xs:@%<~bYs-rZs`s t.t4p:p:q+t@t#t;nbhWdb)Xk$t%t&t#5:hck|nDh~c*t&j0g#.=t0gvl%<Xi:ca&Omog$mEo4q-t;t|m>t9n,t|h't)t.*!t=l~t{t]t!c#oAlAllo^t/tvc}*-h(t_t:t<t[t}t|t1tCs2tVpZg3t3s)p",
"Ph%k4t5t6th9Is7t,pYm:tzo|a8t i iTjG#U$5cbs}c9t!nQgmk0t!i;j9pat~m8o&jZ)Us'*Ws$s:q}c%{btctPjDqdt-rZsetft.t4p/jgt^kelht3c;e0eb)9n1_it<bcijt|k>m5fD_kt&j)}Lb1i5glh@$Qjj%a&Omltht>hPq-txjQkbkmtnt:iotptddqtbprtsttt3'utAlAl} pk/txc}*-hvtwt#nxtytlpztAtBtCtDtZgEt3s)p",
"%k%kFtGtXaHt`}ItJt2sKtLtMtNt)<m<tdod eOt bc Pt!nQtmkQ;uhQsKghh~m9npgHj$b./}c_h$j}cRt/nct@lStTtHp:fUta).t4p!mSiVt%<ht;n;ebfWt{b1_Tt:h)rMgSiXtbp'cYt8h)}$tHpIg<i7k^i#%B%wm>i<bWlPqZt-r{:(kdl`tig u)re+.ubpu%+u@uenKe;l;llou6+eyc}*Ug#u$u%u&uCsxt*u=u-u;u>u_b,u#r)p",
"%k%k'u)u&t!u~uIs#1{u]u^u/u(um<N]qdR=XfO_3c_urm*m:umkD#<u|mLh9nxg'u8o{m;t(*Mf[u9n}uRt|ugt&jStosAqoe1u2u.tXl<b)ieiPjrlE$4[^e3u:qHposl}prp:^iCh5fj%Yt7kugQs^o4u5h8hTt5u| !*/hhsWlPq6u{:g+8gQqVnPnot7u#>8uDhRp+u9u0uPo9.;l1nau.eAc|*-hbucudueuNrfu5sguhuiujuFsku#r)p",
"%k%k'uluh#muC7`}Vrnu]uoupuqu i iqdR=rui@rmrh9tkg9qbp%*zbmtNn9n!mXs9h;i$b(*M@ao,s} f7;nSiJjqhTt~q:fsutu.t1&<b:qHm7krlE$uuYdYt:q:rvuasprwu6h=mDh:cxu:qyu]izujgQk8hAuru| J67g/jWlmkBuCuwjdkDuEuPnotSgn-5qbpt)[uFuGu3'enHrt)@o.e2'd;UgHuIuJuKuLuMuNuG3OuPuQuRu`pm-)p",
"Ph%kYsSuTuUuVu~uWuXuzoYuZu`u v iyeR=d+|c sI 7c:pPnNg(=rh.vEh8o+v1_-j<ike%*5u@v9nq!f7=m|kl}u@osOq2eau#vvuF&6hdk$v}h%vvnuu&v*v{b-rvuslwuwu1_XlXo=v-vTiCuUmzunsMb/i6p;v:c{*Em4o>vmkcp,v;i9p*mVnPnLmSg$.<eJfAe'v)v3'0u!vKeAe9.~vyca<{v]v^vMs/v(v_vPr=o:v<vZq}l[v'o)p",
"%k%k}vSug#UuC8|v1v2v3v4v5v6vm<)<lmddHe;lenr@!v1_7vNgM^zq8v_o5gQj9v<i<i4pM^| 0vfh{&%{2mfhikeoTs%bav#o#veo,h6h5gNb*hj>HnuuFgbv{bjtvuEuF&E$|ncvdvboevfvSsUmOn$teo|hgv[l:cP-ur%t>vXo+p,v{m<ibgjgPnhvBbs#<ebp+givjv%oT;DgPo_f9.kvzclv i]vmvsnnvovpvr8qvrvsv`p2@tv'o%k",
"%k%k}vSu*~uvC8vvwvxvyvzvAvBvm<m<qddd>smomor@T;MkCvDvM^bb|mltdkHjEvFv|h7uD>2%li}hueGv2mfhF&eo1_kehfEbHvOqci8kxm^iXs%6HnalIv'vehasAq~qjt bMb bJvKvevLvMvUmQjgv^o|k1_.!Wf@^Nv/j sOv|!{gFm{:AqPvQvRvSvn ;hDh#oTvUvVvfp0u3'Wv9.X&yc,~ vXvYvMsZv<v`vr8 w.wsv+w@wDt0.%k",
"%k%k#w$w*~!u%w&w*w=w-w;w>w,wm<)<7eddaqmoT;0qmo'w)wDvD>CbOn-j:p!wRo~wFmx2cdq&{wj>4eo7;n$m<b<bXs]wavb&^w:h!ihs:q/w(wfs|&alIv'veh begWoDn b!m[q_wV$:wfv<w#.[wyp%tOb[i.!Wf<@Nv/j,q}w;h|w4o1w2w2wQvRvSvX#+pDh$o3wFhcp4w3'5w&ePoj$lc,~ v&46w7w8w9w]gFsRu0wduawbwcwr%%k",
"%k%kf#dwew0wfwgwQ3pvhwMuiwjwm<m<td/fkwlwmwnwT;owpwqw~hT$rwHj+vV}{:Du:rbq/f+/sw<bl-twE$2huw/wDnvwww)-xw:hyw^rTt/wzwW%_qAwBwaoAm(o3c4p#scvegp:Cwr#X/Dwhsxj2k1_Dn%t$tj%Wf=%Ew[b,qFwGwmggv1wjg2wHwIwJwX#KwDh@oLw}omoVvVvmoAe#o}eAcMwm<NwOwMsknPwQwFsO4uk#nWu]bjul9)p",
"%k%k[3dweww8RwSwTwUwnuVwWwXwm<m<BdEcYwlwmoZwmox2`w x~!.x+xZ)4o/j1w1wasbq-~;!@xbs#x.[;nn<YsCh4c`fZsv>$x:h,h-s%x&x4cT$@o*x_pao~brmikF&[q'h3cwu=xH#-xhthsxjns/jHphsDnt6WfR<olu@`f;x>xmg1i1wPv2wQj,xJw%.KwPq'x)x!xP]3'_c0uAe_c}e~xMwm<{x]x]u^xbw/xFsO4(x_x:xD{<xPlMl",
"%k%ke{dw[x}xRw|xu]8(t]Uw1xjwm<m<tdqd2xfp3x4xmo;l5x6x).<u7xg+:pMbXtXtnsx2-~J Rv:buea>;n<bOb4cprHr2e/c^wl}!i-shsh#8xoimo9xBwgs~bx%3cPs3cprp: s0x>,axhths bnsQj!mhsDn.sWf3&J3hsi@bxcx8vgv-rWoOq<wdxJw^&5qexu6)xfxe$3'3'0uAe/c]f~x,~m<%ngxhxU1ixjxFsr8*pkxA7B8lx':)p",
"%k%kmxnxV;oxu]pxpxqxrxsxtxuxm<m<7esedflwnwvxmo%owxxxn-g!1i4ogv:rbsjtHpom/fq&'v2&4]x~ns:hXi1&g!;gyxUqzxbsF&(wj>2hne8cmo;eAx0gzmbs:hBxCxBbDx sExa[Fxhs<b1&ns.p<bTsDnS:Wf3&}i<bGxHxIxJx1i bOqKx!m5hx20t|!Ng,l)xLxe$3'1nGuI l--lYd.=m<v;MxhxNx=uOxOxPxQxRxEs-oSxt))p",
"%k%kP@TxQbUxpxVxTw8(Wx{pXxYxm<m<2lseZxfpvxlwZwVv`xDvH&i@asegfgPsbs:reo6+ddP, y sue4&Dn>mcgF&}  gyxnozx:hXl,&c[2hneg!1n4[.ydkzmPs!m+ys>Bbx%[k@y7'#y$yrm.i2kQjeg/j2kI ;v[,%y<bt)&yfpPivuMgfgXtHpQsbq*y|!Dh=y-yfx7faqVvVvb&[e_p]flvm<..;yYr>y,ybw'y)yjxjx'y!y!yM@~y",
"%k%k{y]yQb^yUrqx/yrx{pFk(y_ym<m<2l2l#xmolwmo:ycp`x<y#rg!xjXtWons b:r1_[yR=Y-:w,q4eD=Ch>m:iF&Al4wyx}y|yMb=mjeRb}h1yD}3'4[2yvr$j3yPsbs4y[k2cBb5yKj6y3cDx7yMg1i(w1iasI ru[,%y<bAeCwWvSk^o bHp8yKx#.1gy%Kw9y=yUofxdf(cVv0y7fxe+j]flvm<q -:hxaybyA7cyjxOxOxOx-o-odyey",
"%k%kTifygyhyiyjy~urx{pFkkyjwm<m<gf2l e:yvx:ymo>slymy3s,qasegAq b!ias1_nyR=Nfoybb4ed;Dn8y{m4pen_c4d}ypy^insx5XtTt8xutAe4[Ax/hLq(onerm[k[k3cBbqy&* uPs:rcvXlDn$t4ojtMfB%Spry<b{&Cwu&Sk{n2m/jDnjt#.pk'&~e9ysytyuy/cdf0q0y/ckv_p]f,~m<)<vy]pay0rwyxy#1'yOx'yjx`2yy`m",
"%kzyAyByCy(b%rDyjyEy&r{pFyGym<m<Bd2lanT;vxmofpHyIyJyH&Sv2k$t=tE$[kas+vx2KyC$Lyoi'-s(asbs;iXl5w_cMyNyOyNbTs4cbsTt(o} (c4[AxLm9n5c8x(oPyQy4cuhRy&*SyXtOq bXl=m:rypeg[c)-C>TyXsWfbxUyVykgYog+jtns=t;lxeWyDh4wltXy]cYjYj]c7f{e_pnd,~m<)<vyYyZyc6`y z#1#1.z'y+z@z#z)p",
"%k$z{y%zfr&z*z=zB/-z;z>z,z'zm<m<)z2l2fmwvxlwfpkw!z~z3suhvneg#.asF&as/jbq:!{z(j'j+e_& bbsmtp:aq_ced]z^zctTs4c4c`iLblo/z4[Ax(z$m(obsPsx%_z;nCbRyKj:zeg1&vnasnseoyp^r[c:c./+t<bu&Cwzr#9ynxj!mx%jtgv}jWfkvDh<z(z[zUq_cYjdfu&X&Cc[{.=4!)<}z|z^xc6k]6tcy#1JtJt1zVp#z)p",
"%k2z{y3zrp4z`}=zB/5z;z6z7z8zm<)<)zUeY&mw3xlwcpmw9z0zs*azt%Fogv:rke b{:u6gdbzczVb'-s*bsbsmgF&Qpkw5dnodz'u+v3cp:ot[i1nUylvezfz%xE$bsas1&2&=mgzRyP[czDnUi#5:r~q:&Du<bJb5u/!hz%tl-&yiz,v*mke5cx%jt1_}cl-*eDhjz{gaz%o%o/cdfu&teCd>g4'4! vkzlz^xmznzk]oz#1'ybwpzLr#z)p",
"%kqz0 rzXp9{h9R}Itsztzuzvzwzm<)<DcUedcZwlwlw+pX:xzIis*ptyz=mke1&T>E${:@osebzRv1n'-/fns5cQnF&zzkwKknoAz%s^r1c1& u2m}c#x4['oBzRb;n2kasXlywDngzRy(&czas@iF&:r1w:r4o1_9.b&>+smAu4eJyCz,vFm1&eg4cjt#.3'.g=eNg2f5hk}{cYj7fQpC$6efd+j,~m<0<Dzar{lEzFzFzF|#1OxGzHzVpX3Iz",
"%k$ze{Jz(2@:KlKzKzLztz%qMzNzm<)<lmtd/f4xmofp+eOzPzn~s*Iq-n-nUiciHn1&Qz'qnj]cRvD_ eddbsE$xg!izz2x!h$pRzctnsF$E$Qs=m}cSzTz'oUzVz2k2k bXl=mrsgzWzX#Fxjt#5>hxjDnywFoFoXz/c7'Yz%t4]ZzCz#9yp4pjtik=mgvGu#x*gmk`z3nvwzzYjYjQpC$}efd9d Am<)<.A+A~u@A#Asp$1JtOx$A%AVpc}&A",
"%k*Ai>=Ax/@:o8-A;z;A>A;o,A'Am<m<xd(e^s)A:ynwxe!A~A{A#>]AnySvcip:E$T>1w4wnj0q^A5u e.*;nPy<bSgzz{c!hcp/A'u=mF$2c4oE$t)Sz(A_A:AVz=m=mXl=mMg4o[j<Aadotns4p4p=mjt;n[i2k@o'l[A}A/j|A1AizIp1w,hE$2&F&4p3'u&}eEgyyGp<u7fdfYj]c/c2Afd+j Am<0<3A:t4A6v5A6A7A'y'y$A8A8sX3&A",
"%k9A/n0Ax/6'aAbAcAGlNx;odAeAm<g2fA(e!h>snwmo_cHrgA`ge+hA[yuhci3ckeF&xj(c2y{c(zWv ee+#5Cgjt s(cdfydiA/A{mOqE$ bFm.it)#xjA_AkA&tcv1&F& bom2mXzlAmAot:hOqjtXlHpjtgv2kHrdf&*}A%t gnAoAKo:r)rcvDxF&'hdf#xdc<ySzBrzbYj(caq0y]cpAkd+j_&g20<qArAHt>8#A6AsAtAEsuAvAix/)&A",
"%kzywASrx/u~v~xAlq<syAzAAA~im<g2fA(e!hBAnwmomo!vCADAe+EA6+[j-nE$@iUi8nHe2y{c(z}c ecmuh|cjt-ndyzzB5FAGAXiasE$cv4o,h gUyHAezIAeo3crmF&=mx2.i9.JA_AKAWoWo4pSg1w^rgvCh@oanD>3w4o=yLAMANAas s b[qp:7uzz%e]f<yWvXi>cYj{c0yvxYjIf(eodOAm<)<PAQA+hRAQxtASATAVrUAVAWAav&A",
"%k$zXAYAK%ZbQlZA`A({ B.B+BYgm<g2!h(exdzr3x3xmo!vPv.jAxbq@B[j-nF&'h4pAq3';q'lLm}j4elv1.|cas<j{cYjB5#B$BTtikywik1_)rt)dy.jez%B:h;ncvyw=m<j>h9.`gmAmgjtMgF&)ryp1w#.eg;lu&8&&B:p*B=B-B;Bsl>B=m b1&omzz%e-l<y.gQq>cr@,Bdfcp+pR=(et#h@m<)<'B)Bwk!B'yQx0r~B-o{B]B^B/B&A",
"%k$z(B_BK%j*:B<B[B}B|B1B2B>fm<|gfA(eqdKwmomomo9.PvOf2yXzuhyz#5#5xj:rypGudd'l't1nl-Q&;l<&jtgg_c3BOA+pYtMb2&pr,h[iSgj6_c.jez4B(w bE$cicv<j@iPoDA6&ssXlkexjDnSo1_ah:hg!7ft#5BMoe<6B7B8Bbs sci!iF&6+Zx%enk<y7f|m2 kvWyC$0yPedd(et#i m<)<9B0BaBbB'y#1cB~B-oGldBeBivIz",
"%kfBgBhBK%iB:BjB^)kBlBmBU*nBXcb_lm(eDckvmomo:yPoPv@g2yoBpBHnDnasT>|&gv1ngdbzUm3' eO=1nCg-rSgHe+pqBr@rB<bpr,h,hbt<jMfHeq=ez2wbsF&ywyzE$T$RsPo*x_AssywT>sBEqQkxj1_Ch'jYjR=wgtBuBvBwBxB bx2!iUiprWjZxOeR%<y%eyB2 ,e5e3B0y~eDc-gt#i 4! vzBAB9mBB-8-oCB~Bnp!yDBEB4o&A",
"%kfBFBGBK%HBIBJB^)KBLBMBU*84m<b_lmkd1!ysnwlwmo+eNB<~m-_c_q|&+i>hqk2g[i1nkdYjCuVv+ea<I |c$t7uUq<e@g7f3w:h)r4pF&rsyqWv4wq=OB1w3c7uprds1&1.ptnw*xPB7xPyljQBomUs'hxj=mloYj/fRB=tLkHhXdSB2kIqF&!iUiWjdfOe_pXeC#7x2 #eKwYjaq,egdDcadh@4! vTBUBVBWB}lXBYBZB-o-o`B Cw~&A",
")p.C+C@Cd##C$CJBjB%C+B&Cgj*C v7<lmIf1!xcnwmomoBePordFg7fXjLB=C-C,lOzYo3'CoC$;CHe~ea<Zx|cFoIq(cPeZm7f>Ceg6+om7urs,l7f,Cq=OBVn1&)r[y'CF&c<~n)C!C~C{CQye<omUf;t]C4pci(c#xagLijgWlvBXd^CUsQBciUi!i/Cdy<e_pXcr#+v>cl-+pr@+p*eDccdadrd)<)<(C_C:C<CTAXB[C6A!y!y}C|C%h&A",
"&A%ke[1C2C3C.&4CO9W)5C;3F^6Cm<7CaffdtdAcmomomor*T;<~Fgl-<jpt8C9COzOz0C4wfd3eaCbC<mcCdC!i2m,l3r4mZm.g[uF&!vOzeCT>!v#xfCq=gCHp!i)r'CJw7u;lhCiC!CjCkC<jlClCmCljljhAc<r@%enC,qRBEAoCpCqCMkqkXzdsSg>v2x)k_p`cOgegs.3r+p:e:e*eDcgdkd Am<m<rCsCF{tCuC!yvCsp!ywCl8xC%h&A",
")p%kn-yC2C3CIBJBJB^)zCACv1BCm<7Clmkd(e}emomomo]eoB AkdVfUt]C=CCC!vX:DCZxfdl-ECOeWd|*]e;lFCKe|!4f4[u&[owuGCHCIC2gT;4eJC3kgCRBSg/Ca!x2KC0uMpLC|o_AMCSv9CNCOCEA7u2gHr<e%ePCsyFhEAo~9eQC+iT;pk<jx2Li(c<e_pRCSCYojoZx<e'e~e{e;qddR=`gm<m<A/TCUCVCWCXCYC'yjx#1ZC`CA*&A",
"%k%k('3> Dmn.D+D+D[B$!(2C]F|m<7<UdgdR=}emomo0uX&Po,~_pG#]e;h[e[e.e5e]cY&fd4e@D3lYdgl]f9e]e,e$lMeZm'&#DqkEeIC1f6f$DOe(c3k%D&Dgg/C*DCCUfsy=Dzz-DPBQCgg;DOzhC>D]AmCpk%eZx,D,Cfx6+o~9eowDgT;CCsybq>h2xI}_p'D/*Eox2ZxPe'eHf'e/f/fddo~m<)<E|)B)D!D~D{D]DJtbw~B^D/Dfm&A",
"%k%ky%Nu^yF|$y+Dm9k~mn(Dme>8m<7<edgd~C^eenmomo]eoB.=-l![E#:e[e+e+e~e3B]et*Yf_D:DTjgl9e9e[A[A[A[AMw<D[D9eMeX&,eI}Fe<fY&}D|D/zX&:eyy+er@ZxKwVf1D2DUfue<z3D<eZxkwT;AlFeiz2y4D-rx2o~re5D$D=D$DHeHrLi2x:eodoCA&xqHC4mHf~xsdYdDc2y/f6D0<0<7D0B(keA6Cnp]D2@Ru8D&h9DXp&A",
"%k&Ad/0DaD}C(obDcDZAf{4%i9dDm<7<lmgdgdBo$Dmo$DeDhCOfTjreR%*g<f<m:e<mFe$lt*VffD8ekd`gE#E#E#y&[A[A(ATzgDE#E#E#E#E#y&}eodhDiDG#]f}e}e}ei6i6Ac![jDkDVf8&sr_pR%G#X#+jt*.obfB5B}Aeyyo~lD^e$l0e$l$l'e8eX#.o-go~mDm-Gfgdgd-g-g-gDcnD/foDpD{vqDrD)beAsDJt'yOxtDuDBBvDw~&A",
"%k&AwDx{0hxD.iyDm9k~mnzDADn] i&|;e.=q=ZmddddddZmydo~}D3k}D}D3kyj3k0=glhD^>^>}*O]9*B) /2/BD^>CDO]DD6DC&}D =ED2/^>N=E<N= /o~}D}D =4& =4&0=yj|*1[CD0=|*|*|*|*FDd;|*GD0=lv6D^>^>^>HDDDvB / /y< /y< / /vBB)IDvBHhvBHhq~B)Hh /y< /JDBlUc)<YhKDLDMDNDAt.zD5ODPDQD0wv~)p",
"%k&Aji+5RDSDBb=|O9TD#:@:r:5){vUDl!1[3m3m3m3m3m3mUg3m3m3mv;+^v;q UgUgIiUg3m3m3m3ml!l!l!l!Bl3ml!1[1[1[1[1[1[1[BlHhHhHDHDvBHDi!JDJDHDHDHDHDHDHDHDHDHDvBvBvBvBJDvBvBJDvBvBvB1[1[vBJDJD1[1[1[B)BlB)Bl3m.,VDB)B)B)BlBl+^.,.,3mVDHDvBBl4! vn}WD]'XD$1YDZD`D]% E.E!u2@)p",
"%k)pQ;+E@Ec6#EH}Tr$EiB@:5%P,I,%E.j4'4'2yH&!hB&&Esl*E=EXnmtmtOnCAvsggab._O_rhzqgzSv'C-EEo@i;E;E;E>hciprAD7ck3:>>E*&,h,Ecv(o(o(o8x3c3c4p7uAD>E[ [ )&eb'hXl3cbsjtjtegeg:r:regFoHpFoVnAq~q'ECARg)ExB!E!E,t6pvu1w:r#s~E>v'e6D.,o77,s[Vc vIo{EKs]E>8*C8A}l^E/EsDYq.z)p",
"%k%k7,(EA@_E:>:EH}MrO}4z:Br%I,%E A5d<ED#(&Sfc;[E[EXpXBVp8mP9}E6-|E1E2E3E@sBx4E5E6E7E8E9E0EQbaEgbqhaEbE8E}EcEdEeEM$aEfEfEG| jrg{b9ngE#95gdx#90g#9Lg9n0h0hlgrg;m6k6o6ohEat0EiEjEkElEi=3E6c|EmE^lXB8r8r[E[E[EfmnEoEoEpEqErEm8sEtEm8Zc vCq.$uE]EvE*CF|wExExDyEzE'y)p",
"%k)pR=AE_uvEBECECESADE.5:Bf,EE%E7dag<~SzFEGEHEIEm9IBIBIBH3JEU>KELEMEw~v~H3$CNEOEPEPEOEcD:Bw~z*$CNEz*z*H3H3r>U>A*QEREm8z*HEHEHEIBH3m8A*SE6:TETEXmo8TETETETEM9TETETEo8-<8m8m8m8m8msEsEsEUEVEr>H3v~$C+nWE&zXEXETrPEbDYEZE[E8m`E Fm8VcXcIo.Fv0+FvE*CF|}CxD@F8,@kSE)p",
"%k&A3shn#F$F$!$!$!`B%F&F*F=Fql-F@g5d A;Fe+^*$.$.~!~!7,D>3333W<33G/s)3;Q;C'C'C'Q;k&es>F5]@-@-,F=}'Fjis@(mC#=F=F=F=F)F=F)F)F)F)F)F@-@-@-'FH$!F~F~FHEHE{F]F^F^FsE/FM4M4&Fbymn(F_Fb6C'C'W<W<.2z~*4)FN{;_:F;_N{q)<F[F94IEB*t~;_{)(mq:Tcm<}F|F1F+FvE*C2FV8=|=|.E3F4F)p",
"%k)pk<5Fx7c}$!$!$!=|$13CG!/)@<-FqB5dOA]#U$C#C#C#C#.bC#.bC#v&|.boKvKvC#ji7'(&^&Q;D#^&(&0t0t0tj&Q;^&D#E-;,<%(&(&^&Q;Q;Q;^&0t0tj&0tj&;,;,q:6,(=]#Q;9#M^6Fi&;v<,<,uejia[a[]#a%2f7F|.8F8FYf.!{&d:k9==9F2q.!boP,P,0Fq)S%q)S%aFI)bFcF8'|gm<IpdFeF@FvEaD>8<4CECEfFgF]*%k",
"%k)pa>~:=*hF$!$!$!:EiF~:G!63jF%E A5d5di&C#C#C#bo|.|.|.|.bokFboKvKvKvC#C#ji@-@-=}lFlFlFr#r#ji=}=}@-=}lFH#H#H#Zf~EmF6F*y>F&*0t0tP[P[0t*y5]5]lFjiji(mKvKvbo|.|.kFboC#(mC#C#C#|.|.|.|.Z&C#7F|.|.|.|.|.|.|.|.bov&anv&|.|.|.|.|.7F7F(&m<VcSvnFoFpFvEvE>8]EBsf{&hfF]*)p",
"%k&AqFBEjD/'rF$!$!CEaDsFG!h6tF-F A5d5d%*0t}$0t0t0t0ti&i&i&i&i&0ti&0t0t0t0tj&j&6F6FQ;Q;Q;^&j&^&^&Q;;,c&;,c&C'o}G/>]o};,;,;,E-(=(=C'%*D#D#Q;Q;0t0t0t0t0t0t0t0t0t0t0t0t0t0t0ti&*y7'i&7'0t0t0t0t0t7'&*KjD#;,%*%*;,D#%*8&7,~!~!Z*F*3&)< vuFvFoFc6`BH}SAwFBECExFyF/=)p",
"%k%kExvhzFAF3kBF,<cCCFCeOhDAvhDFTf>dzd>dTf>dTfTf>dTfTfTfTf>d>d>d>dzd>d>dTfTfzdTf>d>dTfJAJAEFJAJAJAzd>dzdFF-d8{-d-d;d>dGF;d>d;d>dGF>d-d;dzd>d>d>d>d>d>d>dJAzd>d>dzdzd>dzdzd>d>d>d>dTf>d>d>d>dTfTfHFTfTfTfTfTfTfTfTfTfTfTfTfCeCeFF=xIFCDD=c:E<CDA5p*A5A5A5n>.jJF%k",
")p q q)p)p)p)p)pKF q)p)pKF)pKF&ALFMFLFLFNFLFLFLFLFLFLFLFLFLFLFOFOFLFLFLFLFJcMFOFLFLFLFLFLFMFLFLFLFNFLFLFMFMFLFMFMFMFNFOFLFLFNFLFMFLFLFNFOFJcNFLFLFNFLFLFNFNFtfLFLFLFLFLFLFLFMFLFLFLFLFLFLFLFLFLFLFLFLFLFLFLFLFNFNFLFLFOFMFLFLFMFKF q%k)p q q)p)p&A&A)p q qKFKF)p"};
