/* XPM */
static char * kawara_S_xpm[] = {
"128 128 7277 2",
"  	c #FF00FF",
". 	c #523928",
"+ 	c #533B2B",
"@ 	c #4D3B2F",
"# 	c #38271F",
"$ 	c #523A28",
"% 	c #533823",
"& 	c #533926",
"* 	c #211814",
"= 	c #895F42",
"- 	c #A97249",
"; 	c #B2794C",
"> 	c #885A39",
", 	c #5C4030",
"' 	c #22160F",
") 	c #2F2019",
"! 	c #694935",
"~ 	c #8A5E3B",
"{ 	c #AD7649",
"] 	c #AB7548",
"^ 	c #8A603F",
"/ 	c #322417",
"( 	c #6E4D37",
"_ 	c #825536",
": 	c #8D5D3B",
"< 	c #92613C",
"[ 	c #492B1B",
"} 	c #482C1E",
"| 	c #3C2519",
"1 	c #180F0A",
"2 	c #472C1C",
"3 	c #4E301E",
"4 	c #52301C",
"5 	c #A46F44",
"6 	c #97643D",
"7 	c #8F5E3A",
"8 	c #5A3F2C",
"9 	c #A2714C",
"0 	c #623B22",
"a 	c #8E5E3C",
"b 	c #64412B",
"c 	c #472B1D",
"d 	c #3A2517",
"e 	c #393A13",
"f 	c #262F11",
"g 	c #3B291E",
"h 	c #473325",
"i 	c #261911",
"j 	c #724F34",
"k 	c #3A2619",
"l 	c #382419",
"m 	c #6F4D33",
"n 	c #2E1E15",
"o 	c #24160F",
"p 	c #4B3528",
"q 	c #150D0A",
"r 	c #2C3A19",
"s 	c #3C501B",
"t 	c #40561C",
"u 	c #324010",
"v 	c #3B3F15",
"w 	c #3F2819",
"x 	c #543220",
"y 	c #7D5336",
"z 	c #8C5D3A",
"A 	c #593C1F",
"B 	c #5F4326",
"C 	c #2D2115",
"D 	c #FE00FE",
"E 	c #624631",
"F 	c #865B3B",
"G 	c #5C3821",
"H 	c #956745",
"I 	c #43291C",
"J 	c #301D13",
"K 	c #2B1C11",
"L 	c #263905",
"M 	c #33500B",
"N 	c #557B1D",
"O 	c #52761C",
"P 	c #466518",
"Q 	c #385016",
"R 	c #273716",
"S 	c #10170A",
"T 	c #344419",
"U 	c #42561D",
"V 	c #38481A",
"W 	c #10130C",
"X 	c #34251A",
"Y 	c #8A6142",
"Z 	c #A3714A",
"` 	c #7B5439",
" .	c #25170F",
"..	c #150D09",
"+.	c #9F6F49",
"@.	c #A46F45",
"#.	c #603C26",
"$.	c #2B1B13",
"%.	c #311F16",
"&.	c #6D482E",
"*.	c #A77348",
"=.	c #946643",
"-.	c #130C09",
";.	c #21140D",
">.	c #7B5235",
",.	c #A8754B",
"'.	c #966946",
").	c #2A1B13",
"!.	c #181C0D",
"~.	c #3C4716",
"{.	c #52641E",
"].	c #54691C",
"^.	c #526B1E",
"/.	c #546E1E",
"(.	c #5A7922",
"_.	c #5A7C1E",
":.	c #54761B",
"<.	c #3F5D13",
"[.	c #324A0F",
"}.	c #473E1A",
"|.	c #3A2419",
"1.	c #4C2F1F",
"2.	c #956643",
"3.	c #54401E",
"4.	c #4F4A20",
"5.	c #815E45",
"6.	c #56351F",
"7.	c #59371F",
"8.	c #865C3F",
"9.	c #482D1F",
"0.	c #2D1B14",
"a.	c #654022",
"b.	c #3D3D0D",
"c.	c #345603",
"d.	c #406508",
"e.	c #3F6209",
"f.	c #415F0F",
"g.	c #4A6018",
"h.	c #425A18",
"i.	c #456517",
"j.	c #557616",
"k.	c #567719",
"l.	c #4C6A18",
"m.	c #304910",
"n.	c #463A19",
"o.	c #3E2515",
"p.	c #8A6141",
"q.	c #94633F",
"r.	c #75482B",
"s.	c #4B2F1F",
"t.	c #392316",
"u.	c #261710",
"v.	c #644833",
"w.	c #704F36",
"x.	c #704F35",
"y.	c #6F4E34",
"z.	c #6E4E34",
"A.	c #6D4E34",
"B.	c #6E4D34",
"C.	c #6E4F34",
"D.	c #6E4F35",
"E.	c #6E4F36",
"F.	c #684B33",
"G.	c #64452F",
"H.	c #A87349",
"I.	c #905C36",
"J.	c #755037",
"K.	c #291912",
"L.	c #573C28",
"M.	c #6C4B33",
"N.	c #6B4B32",
"O.	c #6C4C33",
"P.	c #6C4B32",
"Q.	c #6D4C33",
"R.	c #6D4D32",
"S.	c #6C4E34",
"T.	c #675034",
"U.	c #5F5332",
"V.	c #545329",
"W.	c #4D5127",
"X.	c #3E4921",
"Y.	c #38441A",
"Z.	c #685337",
"`.	c #513A2A",
" +	c #281910",
".+	c #80583A",
"++	c #AA764A",
"@+	c #9D6A42",
"#+	c #593E2A",
"$+	c #6F5037",
"%+	c #6E4E33",
"&+	c #6E4D32",
"*+	c #6D4D33",
"=+	c #725137",
"-+	c #634530",
";+	c #422B1C",
">+	c #332015",
",+	c #68452C",
"'+	c #A87347",
")+	c #96633D",
"!+	c #6C4B35",
"~+	c #432615",
"{+	c #4C3A1A",
"]+	c #344713",
"^+	c #2E4212",
"/+	c #445716",
"(+	c #576D1A",
"_+	c #56701A",
":+	c #4B6716",
"<+	c #395611",
"[+	c #2D480E",
"}+	c #2E4A0E",
"|+	c #34530E",
"1+	c #35550E",
"2+	c #304C0B",
"3+	c #5F4521",
"4+	c #613D24",
"5+	c #21160F",
"6+	c #503222",
"7+	c #8D6242",
"8+	c #6C492B",
"9+	c #554120",
"0+	c #48321F",
"a+	c #79583F",
"b+	c #4F301C",
"c+	c #6A4C38",
"d+	c #41281C",
"e+	c #2A1A13",
"f+	c #2E1B14",
"g+	c #643E27",
"h+	c #583D1D",
"i+	c #243A04",
"j+	c #253E04",
"k+	c #333510",
"l+	c #5E3C21",
"m+	c #704629",
"n+	c #784D2C",
"o+	c #494418",
"p+	c #2C470A",
"q+	c #3F4113",
"r+	c #6D4825",
"s+	c #6E4724",
"t+	c #754728",
"u+	c #9A6946",
"v+	c #7D4928",
"w+	c #663E24",
"x+	c #482D1D",
"y+	c #412719",
"z+	c #794B2E",
"A+	c #8E5E39",
"B+	c #96633C",
"C+	c #98643C",
"D+	c #9B673F",
"E+	c #9C683F",
"F+	c #9C673F",
"G+	c #9A663D",
"H+	c #99653E",
"I+	c #915F3A",
"J+	c #835736",
"K+	c #8A5F3E",
"L+	c #8E5A38",
"M+	c #7A4829",
"N+	c #3C2415",
"O+	c #342115",
"P+	c #65432C",
"Q+	c #6D472B",
"R+	c #7A5033",
"S+	c #7D5132",
"T+	c #855837",
"U+	c #8B5C39",
"V+	c #8D5D39",
"W+	c #905F39",
"X+	c #906039",
"Y+	c #8D5E38",
"Z+	c #5D4A23",
"`+	c #445514",
" @	c #58741A",
".@	c #4E6C19",
"+@	c #2D4C0D",
"@@	c #3B5F0D",
"#@	c #5F6E23",
"$@	c #4F321D",
"%@	c #2B1A11",
"&@	c #3E2618",
"*@	c #724629",
"=@	c #7C4D2C",
"-@	c #7F583C",
";@	c #835A3A",
">@	c #94623B",
",@	c #96623B",
"'@	c #95623A",
")@	c #946139",
"!@	c #925F37",
"~@	c #8F5C36",
"{@	c #8D5B36",
"]@	c #8A5A35",
"^@	c #8A5B35",
"/@	c #876C34",
"(@	c #856C33",
"_@	c #7A4A29",
":@	c #683F26",
"<@	c #27180F",
"[@	c #502F1C",
"}@	c #835434",
"|@	c #7F4C2C",
"1@	c #684026",
"2@	c #4D2B1A",
"3@	c #7B4828",
"4@	c #634221",
"5@	c #634222",
"6@	c #634521",
"7@	c #4F431D",
"8@	c #4A4320",
"9@	c #4B3E1F",
"0@	c #573F21",
"a@	c #5D4023",
"b@	c #48391A",
"c@	c #2B3B0C",
"d@	c #29460A",
"e@	c #3E3B14",
"f@	c #53351F",
"g@	c #482D1C",
"h@	c #251811",
"i@	c #492C1E",
"j@	c #775239",
"k@	c #734F2F",
"l@	c #4F441C",
"m@	c #483620",
"n@	c #3D2E25",
"o@	c #6F4C35",
"p@	c #4F2F1C",
"q@	c #51321F",
"r@	c #3F281C",
"s@	c #382317",
"t@	c #311D16",
"u@	c #613B24",
"v@	c #6C4227",
"w@	c #614323",
"x@	c #634122",
"y@	c #673E23",
"z@	c #613821",
"A@	c #5C3520",
"B@	c #55311E",
"C@	c #4F331E",
"D@	c #402D18",
"E@	c #4B2F1C",
"F@	c #58351F",
"G@	c #5C371F",
"H@	c #5D3821",
"I@	c #432D20",
"J@	c #805030",
"K@	c #7C4828",
"L@	c #613A23",
"M@	c #41281B",
"N@	c #402618",
"O@	c #613922",
"P@	c #603920",
"Q@	c #653A20",
"R@	c #6A3D23",
"S@	c #6E4025",
"T@	c #714225",
"U@	c #7A4727",
"V@	c #794728",
"W@	c #764527",
"X@	c #734326",
"Y@	c #704125",
"Z@	c #6A3F24",
"`@	c #51301E",
" #	c #926544",
".#	c #7D4929",
"+#	c #704327",
"@#	c #3C2417",
"##	c #774629",
"$#	c #704225",
"%#	c #6E4024",
"&#	c #744426",
"*#	c #764526",
"=#	c #774526",
"-#	c #774627",
";#	c #724426",
">#	c #694224",
",#	c #5B4021",
"'#	c #563C20",
")#	c #373814",
"!#	c #415B14",
"~#	c #56581D",
"{#	c #55351F",
"]#	c #352017",
"^#	c #683F25",
"/#	c #774728",
"(#	c #6A442C",
"_#	c #331D11",
":#	c #7B492A",
"<#	c #7C4929",
"[#	c #7C4928",
"}#	c #7B4A29",
"|#	c #7C4A29",
"1#	c #7C492A",
"2#	c #6A4424",
"3#	c #553F1C",
"4#	c #636320",
"5#	c #5B741E",
"6#	c #6C5725",
"7#	c #7D4C2B",
"8#	c #76482B",
"9#	c #2E1C13",
"0#	c #472B1B",
"a#	c #814C2C",
"b#	c #7B4C2C",
"c#	c #291911",
"d#	c #4F2E1C",
"e#	c #5D3720",
"f#	c #613A22",
"g#	c #633B22",
"h#	c #623B24",
"i#	c #59351F",
"j#	c #55321D",
"k#	c #54331E",
"l#	c #54331F",
"m#	c #53341F",
"n#	c #48331A",
"o#	c #313210",
"p#	c #422C19",
"q#	c #3E2718",
"r#	c #372217",
"s#	c #2E1D14",
"t#	c #2E1D15",
"u#	c #5F4230",
"v#	c #734F33",
"w#	c #503D1A",
"x#	c #513A23",
"y#	c #473224",
"z#	c #603D28",
"A#	c #52311E",
"B#	c #4C2F1E",
"C#	c #392318",
"D#	c #311E15",
"E#	c #321F18",
"F#	c #321E17",
"G#	c #311E17",
"H#	c #362117",
"I#	c #352115",
"J#	c #3A2114",
"K#	c #4E2E1E",
"L#	c #53311F",
"M#	c #54311F",
"N#	c #5B3621",
"O#	c #4B3B1A",
"P#	c #58471F",
"Q#	c #6C3F23",
"R#	c #6B3E23",
"S#	c #6D4024",
"T#	c #7B4728",
"U#	c #794628",
"V#	c #553320",
"W#	c #3B2316",
"X#	c #301E16",
"Y#	c #3A2317",
"Z#	c #6E4126",
"`#	c #704126",
" $	c #6F4125",
".$	c #714227",
"+$	c #774729",
"@$	c #6E4227",
"#$	c #7F4C2E",
"$$	c #845131",
"%$	c #462818",
"&$	c #7B5337",
"*$	c #7A4728",
"=$	c #693E24",
"-$	c #25170E",
";$	c #331E14",
">$	c #76462A",
",$	c #724428",
"'$	c #6A3E23",
")$	c #653B22",
"!$	c #603820",
"~$	c #613A21",
"{$	c #5F3921",
"]$	c #5B361F",
"^$	c #593621",
"/$	c #56341F",
"($	c #55351E",
"_$	c #4F341C",
":$	c #3A3716",
"<$	c #52361F",
"[$	c #583621",
"}$	c #331F15",
"|$	c #271911",
"1$	c #764728",
"2$	c #5B3721",
"3$	c #291810",
"4$	c #704228",
"5$	c #78472A",
"6$	c #79492B",
"7$	c #7A492C",
"8$	c #704627",
"9$	c #50411B",
"0$	c #5E4420",
"a$	c #764929",
"b$	c #7F4D2C",
"c$	c #7E4E2F",
"d$	c #311E14",
"e$	c #3C2518",
"f$	c #593521",
"g$	c #834C2C",
"h$	c #7C4C2C",
"i$	c #301F13",
"j$	c #342217",
"k$	c #3D2416",
"l$	c #3B2417",
"m$	c #40281A",
"n$	c #462A1A",
"o$	c #4E2F1C",
"p$	c #50301C",
"q$	c #4A2D1B",
"r$	c #462918",
"s$	c #452A19",
"t$	c #462B1A",
"u$	c #402819",
"v$	c #2D1C12",
"w$	c #293A0F",
"x$	c #2F2514",
"y$	c #362116",
"z$	c #41271A",
"A$	c #6C4A31",
"B$	c #563723",
"C$	c #3F281B",
"D$	c #3A2518",
"E$	c #573522",
"F$	c #543320",
"G$	c #4C2F1D",
"H$	c #372117",
"I$	c #321E18",
"J$	c #4F301E",
"K$	c #54321E",
"L$	c #5E3722",
"M$	c #623A23",
"N$	c #653B23",
"O$	c #663E22",
"P$	c #724627",
"Q$	c #774628",
"R$	c #714327",
"S$	c #56321E",
"T$	c #4E3020",
"U$	c #382318",
"V$	c #382217",
"W$	c #53311E",
"X$	c #54311E",
"Y$	c #55311D",
"Z$	c #5B3520",
"`$	c #593420",
" %	c #4A2C1B",
".%	c #422819",
"+%	c #3F2618",
"@%	c #3D2517",
"#%	c #402619",
"$%	c #472A1A",
"%%	c #56331F",
"&%	c #382115",
"*%	c #694026",
"=%	c #271810",
"-%	c #311D17",
";%	c #43281A",
">%	c #492A1A",
",%	c #482B1B",
"'%	c #482B1A",
")%	c #472B1A",
"!%	c #472A19",
"~%	c #4A2B1A",
"{%	c #4B2C1A",
"]%	c #4E2D1B",
"^%	c #53311D",
"/%	c #53331E",
"(%	c #443F19",
"_%	c #563A1E",
":%	c #53331F",
"<%	c #311E16",
"[%	c #271811",
"}%	c #784728",
"|%	c #5A3520",
"1%	c #271711",
"2%	c #382216",
"3%	c #412718",
"4%	c #442719",
"5%	c #482A1A",
"6%	c #4C2C1B",
"7%	c #4D2C1A",
"8%	c #58351E",
"9%	c #59351E",
"0%	c #593520",
"a%	c #362218",
"b%	c #372114",
"c%	c #77492B",
"d%	c #352216",
"e%	c #3D271A",
"f%	c #583420",
"g%	c #54321F",
"h%	c #53321E",
"i%	c #50301D",
"j%	c #3F2619",
"k%	c #341F15",
"l%	c #292C0D",
"m%	c #263C09",
"n%	c #2D430F",
"o%	c #322017",
"p%	c #331F18",
"q%	c #2B1911",
"r%	c #3A2217",
"s%	c #5E3B26",
"t%	c #563521",
"u%	c #462C1D",
"v%	c #382418",
"w%	c #543421",
"x%	c #563421",
"y%	c #372218",
"z%	c #22140D",
"A%	c #362017",
"B%	c #3D2519",
"C%	c #44281A",
"D%	c #44291A",
"E%	c #764629",
"F%	c #77472A",
"G%	c #4A2E1E",
"H%	c #372318",
"I%	c #4C2D1D",
"J%	c #4E2E1C",
"K%	c #4E2D1C",
"L%	c #4F2F1D",
"M%	c #51301D",
"N%	c #563321",
"O%	c #362015",
"P%	c #6B3F26",
"Q%	c #4E2F1D",
"R%	c #301E17",
"S%	c #3D2418",
"T%	c #52301E",
"U%	c #55321F",
"V%	c #55331F",
"W%	c #543420",
"X%	c #503F1E",
"Y%	c #573B21",
"Z%	c #5C3721",
"`%	c #784729",
" &	c #482A19",
".&	c #4A2B1B",
"+&	c #4B2C1B",
"@&	c #4D2D1D",
"#&	c #4E2E1D",
"$&	c #4F2F1E",
"%&	c #50301F",
"&&	c #4F301F",
"*&	c #50301E",
"=&	c #4D2E1E",
"-&	c #342018",
";&	c #382215",
">&	c #452A1B",
",&	c #5E3923",
"'&	c #382319",
")&	c #4B2C1C",
"!&	c #4A2C1C",
"~&	c #472A1B",
"{&	c #40261A",
"]&	c #3B2318",
"^&	c #321E16",
"/&	c #2E2313",
"(&	c #321F16",
"_&	c #241710",
":&	c #623C27",
"<&	c #53321F",
"[&	c #553420",
"}&	c #342116",
"|&	c #543522",
"1&	c #563522",
"2&	c #533221",
"3&	c #281811",
"4&	c #1E120D",
"5&	c #281711",
"6&	c #2C1A14",
"7&	c #331E17",
"8&	c #2F1D15",
"9&	c #2E1C15",
"0&	c #341F18",
"a&	c #3C2619",
"b&	c #40281B",
"c&	c #321D15",
"d&	c #352116",
"e&	c #563420",
"f&	c #472B1C",
"g&	c #281911",
"h&	c #301D17",
"i&	c #341F16",
"j&	c #331E16",
"k&	c #341E16",
"l&	c #331D16",
"m&	c #331D15",
"n&	c #321D16",
"o&	c #271912",
"p&	c #4D2F1E",
"q&	c #331F14",
"r&	c #2A1912",
"s&	c #321F17",
"t&	c #3A2315",
"u&	c #3F271B",
"v&	c #3A2418",
"w&	c #3C2618",
"x&	c #2D1D13",
"y&	c #332018",
"z&	c #301C16",
"A&	c #2B1913",
"B&	c #281812",
"C&	c #261711",
"D&	c #1B110D",
"E&	c #573420",
"F&	c #553422",
"G&	c #251710",
"H&	c #291A13",
"I&	c #27170F",
"J&	c #49271C",
"K&	c #6A3828",
"L&	c #623223",
"M&	c #5B2F21",
"N&	c #3F2018",
"O&	c #25150F",
"P&	c #321D17",
"Q&	c #22150F",
"R&	c #3A2316",
"S&	c #482B19",
"T&	c #382014",
"U&	c #25150E",
"V&	c #2C1A13",
"W&	c #281A12",
"X&	c #372319",
"Y&	c #38241A",
"Z&	c #392419",
"`&	c #352118",
" *	c #2F1C16",
".*	c #2C1B14",
"+*	c #291812",
"@*	c #251610",
"#*	c #23150F",
"$*	c #2A1913",
"%*	c #301D15",
"&*	c #332017",
"**	c #362317",
"=*	c #23140E",
"-*	c #372115",
";*	c #362217",
">*	c #2D1B12",
",*	c #21130D",
"'*	c #2E1D13",
")*	c #22150D",
"!*	c #21120B",
"~*	c #26140C",
"{*	c #25140D",
"]*	c #261610",
"^*	c #2B1A13",
"/*	c #301D16",
"(*	c #2F1D14",
"_*	c #281A11",
":*	c #201610",
"<*	c #1F1610",
"[*	c #1B120D",
"}*	c #20140F",
"|*	c #1F130E",
"1*	c #271410",
"2*	c #2F1812",
"3*	c #341B15",
"4*	c #361B16",
"5*	c #381C16",
"6*	c #381C15",
"7*	c #341D14",
"8*	c #25140E",
"9*	c #1A100B",
"0*	c #3A2417",
"a*	c #362115",
"b*	c #703B29",
"c*	c #783E2A",
"d*	c #783E2B",
"e*	c #793F2C",
"f*	c #653426",
"g*	c #3D1E17",
"h*	c #2C1C11",
"i*	c #342014",
"j*	c #402617",
"k*	c #6E4226",
"l*	c #704226",
"m*	c #6F4226",
"n*	c #502E1D",
"o*	c #26150F",
"p*	c #1C120D",
"q*	c #38251B",
"r*	c #36231A",
"s*	c #281912",
"t*	c #2F1D16",
"u*	c #261611",
"v*	c #20120D",
"w*	c #22130E",
"x*	c #361E15",
"y*	c #47291B",
"z*	c #4C2B1C",
"A*	c #4F2D1D",
"B*	c #48281A",
"C*	c #41241A",
"D*	c #3F231A",
"E*	c #3A2017",
"F*	c #2B1912",
"G*	c #1A110B",
"H*	c #2B1C12",
"I*	c #322016",
"J*	c #2C1C13",
"K*	c #281710",
"L*	c #301B13",
"M*	c #4D2D1C",
"N*	c #693D24",
"O*	c #54311C",
"P*	c #27170E",
"Q*	c #21140C",
"R*	c #4E2D1A",
"S*	c #744325",
"T*	c #7A4627",
"U*	c #7B4626",
"V*	c #794424",
"W*	c #55281B",
"X*	c #472118",
"Y*	c #381D16",
"Z*	c #2B1A12",
"`*	c #2F1C15",
" =	c #1D120D",
".=	c #211510",
"+=	c #30251E",
"@=	c #372F28",
"#=	c #3C342C",
"$=	c #3D352E",
"%=	c #3C342D",
"&=	c #372F29",
"*=	c #4B3024",
"==	c #44281C",
"-=	c #271812",
";=	c #3E1E18",
">=	c #421F1A",
",=	c #411F18",
"'=	c #442019",
")=	c #46221A",
"!=	c #47231B",
"~=	c #46231A",
"{=	c #43221A",
"]=	c #41211A",
"^=	c #402019",
"/=	c #251510",
"(=	c #301D14",
"_=	c #3E2719",
":=	c #48291B",
"<=	c #773D2B",
"[=	c #79402C",
"}=	c #7A402C",
"|=	c #5F3124",
"1=	c #44221A",
"2=	c #2D1610",
"3=	c #18100B",
"4=	c #382316",
"5=	c #704326",
"6=	c #47271B",
"7=	c #42221A",
"8=	c #1F150E",
"9=	c #1E130D",
"0=	c #1E130E",
"a=	c #160E09",
"b=	c #1D110B",
"c=	c #3D2119",
"d=	c #3C1E19",
"e=	c #3A1D18",
"f=	c #512D1E",
"g=	c #5C3522",
"h=	c #5C3422",
"i=	c #5B3421",
"j=	c #573120",
"k=	c #512A20",
"l=	c #502A20",
"m=	c #502B21",
"n=	c #1B130E",
"o=	c #170F0B",
"p=	c #20150F",
"q=	c #201410",
"r=	c #1D140E",
"s=	c #311C15",
"t=	c #371E17",
"u=	c #381F17",
"v=	c #623922",
"w=	c #6F4225",
"x=	c #6F4124",
"y=	c #6E4124",
"z=	c #57331E",
"A=	c #2D1C13",
"B=	c #20140E",
"C=	c #20130D",
"D=	c #1F120D",
"E=	c #51301B",
"F=	c #7C4724",
"G=	c #7A4525",
"H=	c #7B4625",
"I=	c #703D22",
"J=	c #59291D",
"K=	c #59291E",
"L=	c #55291E",
"M=	c #2B1710",
"N=	c #1C110C",
"O=	c #22140F",
"P=	c #241510",
"Q=	c #170F0A",
"R=	c #2C1C15",
"S=	c #342921",
"T=	c #37312A",
"U=	c #36312A",
"V=	c #3A342B",
"W=	c #3B342C",
"X=	c #3A332B",
"Y=	c #543829",
"Z=	c #6C3D29",
"`=	c #4D2E1F",
" -	c #19110C",
".-	c #231510",
"+-	c #261811",
"@-	c #382119",
"#-	c #421F19",
"$-	c #401E19",
"%-	c #5B3022",
"&-	c #623626",
"*-	c #613626",
"=-	c #5C3223",
"--	c #5A3122",
";-	c #552F20",
">-	c #572F21",
",-	c #49281C",
"'-	c #3D271B",
")-	c #3E2619",
"!-	c #3D2518",
"~-	c #613423",
"{-	c #763C29",
"]-	c #773D2A",
"^-	c #552B1F",
"/-	c #45221A",
"(-	c #261510",
"_-	c #20150E",
":-	c #3D2619",
"<-	c #3A2416",
"[-	c #663D24",
"}-	c #6F4326",
"|-	c #6C4025",
"1-	c #3E1E17",
"2-	c #49231C",
"3-	c #281712",
"4-	c #40211A",
"5-	c #3D1E18",
"6-	c #593321",
"7-	c #5A3421",
"8-	c #593421",
"9-	c #573020",
"0-	c #532B20",
"a-	c #532B21",
"b-	c #4F2820",
"c-	c #512921",
"d-	c #43241C",
"e-	c #1E140F",
"f-	c #1B120C",
"g-	c #371F17",
"h-	c #3F2317",
"i-	c #6E4225",
"j-	c #6E4224",
"k-	c #663C22",
"l-	c #3E271B",
"m-	c #2A1A14",
"n-	c #2A1A12",
"o-	c #5C351D",
"p-	c #894F29",
"q-	c #7C4625",
"r-	c #7B4624",
"s-	c #64331F",
"t-	c #572920",
"u-	c #3C1F17",
"v-	c #382F26",
"w-	c #37312B",
"x-	c #35302A",
"y-	c #39332B",
"z-	c #3A332A",
"A-	c #47352A",
"B-	c #6B3E28",
"C-	c #653B28",
"D-	c #23160E",
"E-	c #301E15",
"F-	c #2C1B12",
"G-	c #4A2921",
"H-	c #3F1E18",
"I-	c #49251C",
"J-	c #643627",
"K-	c #633526",
"L-	c #613525",
"M-	c #5E3423",
"N-	c #633826",
"O-	c #643727",
"P-	c #26160F",
"Q-	c #FC00FC",
"R-	c #1E140E",
"S-	c #412518",
"T-	c #753B29",
"U-	c #773C2A",
"V-	c #793F2B",
"W-	c #7A3F2C",
"X-	c #47221A",
"Y-	c #392317",
"Z-	c #6F4127",
"`-	c #704227",
" ;	c #673C24",
".;	c #47211A",
"+;	c #46221B",
"@;	c #2F1A14",
"#;	c #3D1E19",
"$;	c #45241A",
"%;	c #5D3623",
"&;	c #5D3620",
"*;	c #603B22",
"=;	c #5D3721",
"-;	c #4D251F",
";;	c #4A241E",
">;	c #45231C",
",;	c #1D130E",
"';	c #301E14",
");	c #150F09",
"!;	c #311C16",
"~;	c #371E16",
"{;	c #54301E",
"];	c #6E4125",
"^;	c #6D4124",
"/;	c #6F4224",
"(;	c #352013",
"_;	c #63381E",
":;	c #91552B",
"<;	c #7C4624",
"[;	c #7C4725",
"};	c #784324",
"|;	c #59281E",
"1;	c #57281E",
"2;	c #422119",
"3;	c #321E14",
"4;	c #23160F",
"5;	c #3A3028",
"6;	c #39322B",
"7;	c #38312A",
"8;	c #39322A",
"9;	c #3B342A",
"0;	c #3B332A",
"a;	c #673D2A",
"b;	c #6A3C28",
"c;	c #44271A",
"d;	c #20130E",
"e;	c #4B2D21",
"f;	c #401E18",
"g;	c #512A1F",
"h;	c #633727",
"i;	c #5F3324",
"j;	c #653828",
"k;	c #653727",
"l;	c #473226",
"m;	c #3A2216",
"n;	c #5D3121",
"o;	c #793C2A",
"p;	c #773B2A",
"q;	c #6E3626",
"r;	c #7A3C2A",
"s;	c #703829",
"t;	c #401F19",
"u;	c #3F1F18",
"v;	c #160D0A",
"w;	c #342015",
"x;	c #402718",
"y;	c #5C3620",
"z;	c #6F4126",
"A;	c #5F3521",
"B;	c #4A231C",
"C;	c #623F2B",
"D;	c #45221B",
"E;	c #43201A",
"F;	c #58321F",
"G;	c #663B23",
"H;	c #5D3622",
"I;	c #5B3620",
"J;	c #5E3921",
"K;	c #603A22",
"L;	c #5E3821",
"M;	c #4F261F",
"N;	c #4B241F",
"O;	c #48241E",
"P;	c #1A100A",
"Q;	c #321E15",
"R;	c #311F15",
"S;	c #170F09",
"T;	c #472D20",
"U;	c #341C15",
"V;	c #643A22",
"W;	c #392012",
"X;	c #764525",
"Y;	c #93562A",
"Z;	c #7F4825",
"`;	c #7D4725",
" >	c #6D3922",
".>	c #58281F",
"+>	c #48221A",
"@>	c #321F15",
"#>	c #291A12",
"$>	c #563827",
"%>	c #3C3128",
"&>	c #3B332B",
"*>	c #3A322A",
"=>	c #3B342B",
"->	c #5C3928",
";>	c #6B3D29",
">>	c #5D3624",
",>	c #3C2517",
"'>	c #553928",
")>	c #623C28",
"!>	c #542B20",
"~>	c #5B3122",
"{>	c #653627",
"]>	c #5B3123",
"^>	c #1B100C",
"/>	c #FD00FD",
"(>	c #5B3F2E",
"_>	c #381F13",
":>	c #45281A",
"<>	c #713928",
"[>	c #6C3425",
"}>	c #75392A",
"|>	c #5C2D21",
"1>	c #3F1F17",
"2>	c #2E1712",
"3>	c #52301D",
"4>	c #673D24",
"5>	c #321D11",
"6>	c #693E25",
"7>	c #734526",
"8>	c #532C1F",
"9>	c #49221B",
"0>	c #2F1712",
"a>	c #1C100B",
"b>	c #9A6742",
"c>	c #552A21",
"d>	c #522822",
"e>	c #613623",
"f>	c #623722",
"g>	c #633922",
"h>	c #603921",
"i>	c #5E3922",
"j>	c #603A23",
"k>	c #5E3721",
"l>	c #52271F",
"m>	c #4F2520",
"n>	c #1A110D",
"o>	c #1E120C",
"p>	c #1D110A",
"q>	c #865B3D",
"r>	c #4D2B1B",
"s>	c #563220",
"t>	c #6E4026",
"u>	c #3A2215",
"v>	c #3F271A",
"w>	c #8E542C",
"x>	c #915529",
"y>	c #824A26",
"z>	c #774123",
"A>	c #5C2A1E",
"B>	c #4E241C",
"C>	c #2C1B11",
"D>	c #2E1C14",
"E>	c #784E33",
"F>	c #5E432F",
"G>	c #3A322B",
"H>	c #38322A",
"I>	c #442F23",
"J>	c #6F402B",
"K>	c #6B3E2A",
"L>	c #402818",
"M>	c #9C6844",
"N>	c #5C3122",
"O>	c #623526",
"P>	c #633627",
"Q>	c #552E21",
"R>	c #643526",
"S>	c #4B3324",
"T>	c #563623",
"U>	c #4F2C1D",
"V>	c #5E3221",
"W>	c #773B29",
"X>	c #783B29",
"Y>	c #5D2C1F",
"Z>	c #7D3E2E",
"`>	c #74392A",
" ,	c #381C17",
".,	c #170D0A",
"+,	c #724225",
"@,	c #58341F",
"#,	c #6C3F26",
"$,	c #6D4025",
"%,	c #95623B",
"&,	c #663C25",
"*,	c #6D3E26",
"=,	c #42201A",
"-,	c #24140F",
";,	c #311D15",
">,	c #352117",
",,	c #22120C",
"',	c #B0754A",
"),	c #613324",
"!,	c #552822",
"~,	c #532822",
"{,	c #4D231D",
"],	c #57311F",
"^,	c #5F3A21",
"/,	c #5A3120",
"(,	c #50261F",
"_,	c #522620",
":,	c #43211C",
"<,	c #42271A",
"[,	c #291811",
"},	c #8E5E3B",
"|,	c #79482A",
"1,	c #8B5632",
"2,	c #482516",
"3,	c #6D3F26",
"4,	c #6C3E26",
"5,	c #2D1A12",
"6,	c #2E1B13",
"7,	c #2D1B13",
"8,	c #321C11",
"9,	c #93562D",
"0,	c #95562B",
"a,	c #8C5028",
"b,	c #714023",
"c,	c #794325",
"d,	c #622C1E",
"e,	c #4B221A",
"f,	c #3B2317",
"g,	c #543727",
"h,	c #815538",
"i,	c #3B332C",
"j,	c #332922",
"k,	c #663C2A",
"l,	c #6B3F2B",
"m,	c #1F130C",
"n,	c #422719",
"o,	c #8E5E3D",
"p,	c #815034",
"q,	c #563022",
"r,	c #633827",
"s,	c #653929",
"t,	c #5A3123",
"u,	c #5A2F21",
"v,	c #653526",
"w,	c #3B1D17",
"x,	c #5F3F28",
"y,	c #67422A",
"z,	c #633423",
"A,	c #743B28",
"B,	c #743A28",
"C,	c #733A28",
"D,	c #411E17",
"E,	c #72372A",
"F,	c #54281E",
"G,	c #381B17",
"H,	c #251410",
"I,	c #140C0A",
"J,	c #26130A",
"K,	c #97633E",
"L,	c #714224",
"M,	c #8F5E3C",
"N,	c #522C1D",
"O,	c #2F1913",
"P,	c #372116",
"Q,	c #412818",
"R,	c #372016",
"S,	c #2B1812",
"T,	c #8E5B39",
"U,	c #74432C",
"V,	c #522721",
"W,	c #532821",
"X,	c #5C4020",
"Y,	c #603721",
"Z,	c #5D3820",
"`,	c #422219",
" '	c #43201B",
".'	c #44201B",
"+'	c #361C18",
"@'	c #130C07",
"#'	c #311D13",
"$'	c #4B2D1C",
"%'	c #905C37",
"&'	c #794929",
"*'	c #6C4023",
"='	c #754526",
"-'	c #A0673C",
";'	c #3F1E13",
">'	c #6B3D25",
",'	c #502D1D",
"''	c #794726",
")'	c #9A5A2D",
"!'	c #96572B",
"~'	c #804925",
"{'	c #6A3D21",
"]'	c #63371E",
"^'	c #653520",
"/'	c #351E15",
"('	c #2C1A12",
"_'	c #402519",
":'	c #150C07",
"<'	c #68442D",
"['	c #3A3128",
"}'	c #3D342D",
"|'	c #383129",
"1'	c #352E27",
"2'	c #362319",
"3'	c #452B1E",
"4'	c #211610",
"5'	c #432919",
"6'	c #442819",
"7'	c #342016",
"8'	c #341E15",
"9'	c #65412D",
"0'	c #553221",
"a'	c #9C6843",
"b'	c #653928",
"c'	c #673C2B",
"d'	c #643828",
"e'	c #5D3124",
"f'	c #50271C",
"g'	c #3E1F19",
"h'	c #402516",
"i'	c #AC7146",
"j'	c #9B603E",
"k'	c #723A28",
"l'	c #5E2F21",
"m'	c #361A15",
"n'	c #45201A",
"o'	c #351A16",
"p'	c #301915",
"q'	c #180E0A",
"r'	c #362016",
"s'	c #23130D",
"t'	c #784F32",
"u'	c #9F6940",
"v'	c #8E5B35",
"w'	c #976137",
"x'	c #A46C40",
"y'	c #795033",
"z'	c #381D17",
"A'	c #24130F",
"B'	c #291711",
"C'	c #311D14",
"D'	c #352015",
"E'	c #462A19",
"F'	c #492A19",
"G'	c #331C14",
"H'	c #371C16",
"I'	c #4D2A1E",
"J'	c #6C3C25",
"K'	c #663624",
"L'	c #582B20",
"M'	c #582C1F",
"N'	c #5B3121",
"O'	c #5C3421",
"P'	c #5B3120",
"Q'	c #572D20",
"R'	c #43211B",
"S'	c #321A15",
"T'	c #331B17",
"U'	c #402518",
"V'	c #3E2518",
"W'	c #3D2318",
"X'	c #3F2518",
"Y'	c #3E2418",
"Z'	c #3D2217",
"`'	c #875836",
" )	c #9D663D",
".)	c #895631",
"+)	c #7D4C2C",
"@)	c #935C35",
"#)	c #9B623A",
"$)	c #3A1D14",
"%)	c #391F16",
"&)	c #341D15",
"*)	c #22140E",
"=)	c #331D13",
"-)	c #714324",
";)	c #8E532B",
">)	c #8D5329",
",)	c #844F28",
"')	c #854D28",
"))	c #864C27",
"!)	c #894F27",
"~)	c #724224",
"{)	c #372015",
"])	c #2D1A11",
"^)	c #462619",
"/)	c #351F16",
"()	c #1B110B",
"_)	c #37271D",
":)	c #3C3229",
"<)	c #3D352D",
"[)	c #3A3129",
"})	c #45372C",
"|)	c #4C392C",
"1)	c #50372A",
"2)	c #19140F",
"3)	c #271A12",
"4)	c #1E150E",
"5)	c #341F14",
"6)	c #432918",
"7)	c #452918",
"8)	c #503324",
"9)	c #B47B4C",
"0)	c #A56E46",
"a)	c #8D5B3A",
"b)	c #815133",
"c)	c #895435",
"d)	c #845237",
"e)	c #401F18",
"f)	c #3C1E17",
"g)	c #27130A",
"h)	c #9B6743",
"i)	c #422217",
"j)	c #4F2E24",
"k)	c #42231B",
"l)	c #341A15",
"m)	c #341B16",
"n)	c #351C18",
"o)	c #2A1713",
"p)	c #1D100D",
"q)	c #3C2318",
"r)	c #43261A",
"s)	c #321D14",
"t)	c #452A1D",
"u)	c #6B452B",
"v)	c #7D5233",
"w)	c #6D472D",
"x)	c #371C13",
"y)	c #321B15",
"z)	c #311B15",
"A)	c #281510",
"B)	c #180E0B",
"C)	c #301C11",
"D)	c #422617",
"E)	c #422616",
"F)	c #4A2A18",
"G)	c #56311B",
"H)	c #5E341D",
"I)	c #3E2419",
"J)	c #22120E",
"K)	c #301A14",
"L)	c #3C2118",
"M)	c #4E2A1C",
"N)	c #47241A",
"O)	c #48251C",
"P)	c #46241C",
"Q)	c #3C1E18",
"R)	c #301A15",
"S)	c #2A1712",
"T)	c #160C09",
"U)	c #0E0A06",
"V)	c #46281A",
"W)	c #633A21",
"X)	c #412517",
"Y)	c #3E2317",
"Z)	c #643E26",
"`)	c #372216",
" !	c #25160F",
".!	c #3F2519",
"+!	c #613F28",
"@!	c #734C32",
"#!	c #6F4B31",
"$!	c #3B2015",
"%!	c #1F130D",
"&!	c #3D2417",
"*!	c #462919",
"=!	c #56341E",
"-!	c #412618",
";!	c #2E1C12",
">!	c #2F1E15",
",!	c #42291A",
"'!	c #53311C",
")!	c #5D3822",
"!!	c #3C2418",
"~!	c #2C1B13",
"{!	c #371F14",
"]!	c #65371F",
"^!	c #6A3C21",
"/!	c #311E13",
"(!	c #1D140D",
"_!	c #271A11",
":!	c #2C1D15",
"<!	c #2E221A",
"[!	c #4C3427",
"}!	c #513528",
"|!	c #3E281D",
"1!	c #2B1D15",
"2!	c #221911",
"3!	c #20160F",
"4!	c #130F0A",
"5!	c #4E2D19",
"6!	c #56321C",
"7!	c #22150E",
"8!	c #23120D",
"9!	c #6E4931",
"0!	c #391C14",
"a!	c #503123",
"b!	c #593625",
"c!	c #5B3727",
"d!	c #411F17",
"e!	c #3E2019",
"f!	c #2B1610",
"g!	c #4A2D1E",
"h!	c #100B0A",
"i!	c #180E0D",
"j!	c #1E1110",
"k!	c #1E1210",
"l!	c #170E0C",
"m!	c #090807",
"n!	c #070707",
"o!	c #663823",
"p!	c #57301D",
"q!	c #42271B",
"r!	c #2C1A11",
"s!	c #2C170F",
"t!	c #2B160E",
"u!	c #2D1710",
"v!	c #2C1710",
"w!	c #22130D",
"x!	c #1F110C",
"y!	c #2E1911",
"z!	c #301A12",
"A!	c #492C1B",
"B!	c #905B35",
"C!	c #7E4C2A",
"D!	c #734021",
"E!	c #824E2D",
"F!	c #935E39",
"G!	c #402418",
"H!	c #1F110D",
"I!	c #1E100C",
"J!	c #291712",
"K!	c #311B16",
"L!	c #2F1A15",
"M!	c #2F1914",
"N!	c #2E1A15",
"O!	c #2D1914",
"P!	c #1F120F",
"Q!	c #2C1A16",
"R!	c #110B06",
"S!	c #94613C",
"T!	c #87512C",
"U!	c #824C28",
"V!	c #7B4927",
"W!	c #86522F",
"X!	c #7C4F2F",
"Y!	c #2B1B10",
"Z!	c #2D1913",
"`!	c #2C1912",
" ~	c #2D1A13",
".~	c #2D1712",
"+~	c #41221A",
"@~	c #46271D",
"#~	c #694229",
"$~	c #945D35",
"%~	c #965F36",
"&~	c #784627",
"*~	c #623920",
"=~	c #3D2618",
"-~	c #291B13",
";~	c #1C130E",
">~	c #1C140E",
",~	c #221610",
"'~	c #301914",
")~	c #523521",
"!~	c #A06437",
"~~	c #7F4A27",
"{~	c #734122",
"]~	c #6F3F22",
"^~	c #784A2B",
"/~	c #2E1E14",
"(~	c #141310",
"_~	c #110F0D",
":~	c #16100B",
"<~	c #241811",
"[~	c #251A13",
"}~	c #1F1710",
"|~	c #16120D",
"1~	c #141413",
"2~	c #181818",
"3~	c #5A3A25",
"4~	c #794B2B",
"5~	c #6D3E21",
"6~	c #653A1F",
"7~	c #53301A",
"8~	c #5B3922",
"9~	c #6E472D",
"0~	c #28170E",
"a~	c #1D100B",
"b~	c #1F100C",
"c~	c #21110C",
"d~	c #29140F",
"e~	c #2C1610",
"f~	c #2D1711",
"g~	c #3B1E15",
"h~	c #3B1F16",
"i~	c #64442E",
"j~	c #915E3A",
"k~	c #442517",
"l~	c #2D1912",
"m~	c #22130F",
"n~	c #19110E",
"o~	c #1A100D",
"p~	c #24150F",
"q~	c #180F0B",
"r~	c #562E1C",
"s~	c #61341F",
"t~	c #422518",
"u~	c #432719",
"v~	c #4C2B1B",
"w~	c #4D2C1C",
"x~	c #1E110C",
"y~	c #2E1A12",
"z~	c #311B12",
"A~	c #371E14",
"B~	c #3E2217",
"C~	c #3A1E16",
"D~	c #2E1B11",
"E~	c #986037",
"F~	c #A96D40",
"G~	c #6E442B",
"H~	c #3A2219",
"I~	c #401F1A",
"J~	c #4F2620",
"K~	c #3E1E19",
"L~	c #2B1613",
"M~	c #180D0C",
"N~	c #140C09",
"O~	c #0C0706",
"P~	c #160D0C",
"Q~	c #251311",
"R~	c #351D18",
"S~	c #3F221D",
"T~	c #3D211C",
"U~	c #8C5935",
"V~	c #9A623A",
"W~	c #925D36",
"X~	c #754A2C",
"Y~	c #3B1F1A",
"Z~	c #43221D",
"`~	c #44221C",
" {	c #40201A",
".{	c #391C17",
"+{	c #3A1C16",
"@{	c #43211A",
"#{	c #49241D",
"${	c #4A261E",
"%{	c #1B0F09",
"&{	c #9F6338",
"*{	c #9D643A",
"={	c #3C1D18",
"-{	c #4E241F",
";{	c #46201C",
">{	c #3E1D1A",
",{	c #361A17",
"'{	c #331A17",
"){	c #361A16",
"!{	c #411E1A",
"~{	c #4D231F",
"{{	c #552623",
"]{	c #502520",
"^{	c #845231",
"/{	c #9B6137",
"({	c #9B6037",
"_{	c #975E35",
":{	c #8E5A35",
"<{	c #694228",
"[{	c #302017",
"}{	c #171818",
"|{	c #191A1C",
"1{	c #18191A",
"2{	c #171718",
"3{	c #161617",
"4{	c #161717",
"5{	c #1A1C1E",
"6{	c #1C1D1E",
"7{	c #1A1B1D",
"8{	c #1A1310",
"9{	c #462819",
"0{	c #955D35",
"a{	c #A06538",
"b{	c #8D5933",
"c{	c #885733",
"d{	c #794C2C",
"e{	c #5E3720",
"f{	c #3B2114",
"g{	c #301811",
"h{	c #432019",
"i{	c #442119",
"j{	c #432219",
"k{	c #452319",
"l{	c #532B1C",
"m{	c #432519",
"n{	c #271610",
"o{	c #90623E",
"p{	c #9E643A",
"q{	c #7C4626",
"r{	c #6B3C21",
"s{	c #5B331D",
"t{	c #59321D",
"u{	c #5C341D",
"v{	c #613921",
"w{	c #3B2118",
"x{	c #412316",
"y{	c #5B311F",
"z{	c #5C3220",
"A{	c #522C1C",
"B{	c #321C12",
"C{	c #381F14",
"D{	c #452617",
"E{	c #55301C",
"F{	c #613820",
"G{	c #59311E",
"H{	c #452119",
"I{	c #47221B",
"J{	c #311D12",
"K{	c #4D2A1A",
"L{	c #522D1B",
"M{	c #4F2D1F",
"N{	c #3B2218",
"O{	c #4D2520",
"P{	c #4D2521",
"Q{	c #4E2520",
"R{	c #512621",
"S{	c #47241E",
"T{	c #3D201B",
"U{	c #3D201A",
"V{	c #45251D",
"W{	c #552D21",
"X{	c #512B20",
"Y{	c #3F211A",
"Z{	c #3C2117",
"`{	c #452619",
" ]	c #4B291B",
".]	c #46231C",
"+]	c #43211D",
"@]	c #44211C",
"#]	c #4C231C",
"$]	c #56271F",
"%]	c #602A21",
"&]	c #662D22",
"*]	c #652C22",
"=]	c #622B22",
"-]	c #5E2920",
";]	c #1F100B",
">]	c #301C13",
",]	c #5F3821",
"']	c #774B2E",
")]	c #311C13",
"!]	c #401F1B",
"~]	c #542520",
"{]	c #572622",
"]]	c #562523",
"^]	c #532422",
"/]	c #502421",
"(]	c #4F2420",
"_]	c #512421",
":]	c #572623",
"<]	c #572523",
"[]	c #582724",
"}]	c #411F1B",
"|]	c #3F2318",
"1]	c #512F1F",
"2]	c #5E3624",
"3]	c #48291E",
"4]	c #40261B",
"5]	c #362118",
"6]	c #221913",
"7]	c #2F2720",
"8]	c #332A23",
"9]	c #302923",
"0]	c #2A2521",
"a]	c #22201E",
"b]	c #1B1C1D",
"c]	c #1B1C1C",
"d]	c #202120",
"e]	c #292824",
"f]	c #352F27",
"g]	c #22211F",
"h]	c #1B1B1C",
"i]	c #2F1B14",
"j]	c #4E2918",
"k]	c #4C2B19",
"l]	c #502F1A",
"m]	c #472919",
"n]	c #331C12",
"o]	c #61321E",
"p]	c #69351D",
"q]	c #68351F",
"r]	c #66341E",
"s]	c #65341E",
"t]	c #6C3920",
"u]	c #6A3920",
"v]	c #713F21",
"w]	c #57311C",
"x]	c #523826",
"y]	c #A76C3F",
"z]	c #87502D",
"A]	c #7B4525",
"B]	c #7C4827",
"C]	c #734225",
"D]	c #754323",
"E]	c #804B29",
"F]	c #704025",
"G]	c #43261B",
"H]	c #3C2219",
"I]	c #130E09",
"J]	c #663A21",
"K]	c #754425",
"L]	c #613421",
"M]	c #50231D",
"N]	c #150E0A",
"O]	c #1D110D",
"P]	c #42291C",
"Q]	c #744530",
"R]	c #4C2520",
"S]	c #4C2421",
"T]	c #542821",
"U]	c #663226",
"V]	c #633225",
"W]	c #502B20",
"X]	c #4C2B20",
"Y]	c #522E21",
"Z]	c #5D3425",
"`]	c #663928",
" ^	c #693B29",
".^	c #47241D",
"+^	c #170E0A",
"@^	c #26170F",
"#^	c #28180F",
"$^	c #1C120C",
"%^	c #381E16",
"&^	c #49231D",
"*^	c #713025",
"=^	c #793427",
"-^	c #7C3428",
";^	c #7C3528",
">^	c #783326",
",^	c #7D3629",
"'^	c #83382A",
")^	c #612C23",
"!^	c #301C15",
"~^	c #71422A",
"{^	c #9A5D38",
"]^	c #82402D",
"^^	c #732F24",
"/^	c #6D2D23",
"(^	c #6B2D24",
"_^	c #6B2E24",
":^	c #6E2F25",
"<^	c #5C2823",
"[^	c #552523",
"}^	c #562624",
"|^	c #572824",
"1^	c #28170F",
"2^	c #140D09",
"3^	c #4A392D",
"4^	c #392F26",
"5^	c #382F25",
"6^	c #302D26",
"7^	c #2E2C27",
"8^	c #2C2C26",
"9^	c #2C2B26",
"0^	c #362E26",
"a^	c #1E1E20",
"b^	c #1C1716",
"c^	c #331E13",
"d^	c #2B190F",
"e^	c #301D12",
"f^	c #1E120B",
"g^	c #402216",
"h^	c #753C20",
"i^	c #753D1F",
"j^	c #783E20",
"k^	c #7A3F22",
"l^	c #794022",
"m^	c #7A4122",
"n^	c #6C391F",
"o^	c #6C3B20",
"p^	c #733E24",
"q^	c #44251A",
"r^	c #FB00FB",
"s^	c #966640",
"t^	c #A96C3E",
"u^	c #7D4525",
"v^	c #774223",
"w^	c #925A33",
"x^	c #9D6237",
"y^	c #AA6D41",
"z^	c #7F4B2B",
"A^	c #6B3E24",
"B^	c #59341F",
"C^	c #5A341E",
"D^	c #5A341F",
"E^	c #432718",
"F^	c #754326",
"G^	c #744324",
"H^	c #754325",
"I^	c #562B1F",
"J^	c #4F241E",
"K^	c #3D1D17",
"L^	c #120D09",
"M^	c #2F1C14",
"N^	c #734C31",
"O^	c #8B5736",
"P^	c #4B231F",
"Q^	c #5F2E24",
"R^	c #71392A",
"S^	c #733A2A",
"T^	c #753C2B",
"U^	c #814D36",
"V^	c #865537",
"W^	c #683927",
"X^	c #683929",
"Y^	c #683A28",
"Z^	c #6A3A29",
"`^	c #271612",
" /	c #190F0B",
"./	c #2F1D13",
"+/	c #2F1E13",
"@/	c #1E130C",
"#/	c #724831",
"$/	c #6F3B2B",
"%/	c #6D2F25",
"&/	c #7E3628",
"*/	c #7C3628",
"=/	c #7B3628",
"-/	c #7B3627",
";/	c #7D3628",
">/	c #743327",
",/	c #723227",
"'/	c #803729",
")/	c #6C3025",
"!/	c #241410",
"~/	c #9E623A",
"{/	c #A4653A",
"]/	c #84412B",
"^/	c #7B3225",
"//	c #7C3325",
"(/	c #7C3326",
"_/	c #7C3427",
":/	c #793226",
"</	c #5E2923",
"[/	c #512523",
"}/	c #572725",
"|/	c #592824",
"1/	c #2D1811",
"2/	c #1A0F0B",
"3/	c #835A3E",
"4/	c #3B3027",
"5/	c #3A3026",
"6/	c #332D26",
"7/	c #2D2B26",
"8/	c #2B2A25",
"9/	c #2C2A26",
"0/	c #2A241E",
"a/	c #3D3229",
"b/	c #2A2724",
"c/	c #131313",
"d/	c #392216",
"e/	c #2E1A11",
"f/	c #2E170F",
"g/	c #713B20",
"h/	c #773D20",
"i/	c #7A4022",
"j/	c #62331E",
"k/	c #7C4426",
"l/	c #57311E",
"m/	c #583D28",
"n/	c #AA6E40",
"o/	c #A36739",
"p/	c #995E34",
"q/	c #A1663B",
"r/	c #AA6C3E",
"s/	c #7E5030",
"t/	c #854D2D",
"u/	c #9C6037",
"v/	c #A4693F",
"w/	c #6C3E23",
"x/	c #502E1C",
"y/	c #0D0906",
"z/	c #392215",
"A/	c #754224",
"B/	c #693B21",
"C/	c #6E3E25",
"D/	c #4C221C",
"E/	c #4D241E",
"F/	c #25130F",
"G/	c #311C14",
"H/	c #3E2517",
"I/	c #291910",
"J/	c #764B2F",
"K/	c #8C5637",
"L/	c #5D2A22",
"M/	c #74382B",
"N/	c #733B2A",
"O/	c #84543A",
"P/	c #935E3C",
"Q/	c #6B3B29",
"R/	c #693A29",
"S/	c #693928",
"T/	c #6A3929",
"U/	c #522A1F",
"V/	c #231310",
"W/	c #2F1E14",
"X/	c #73482F",
"Y/	c #884631",
"Z/	c #713024",
"`/	c #7C3627",
" (	c #7F3729",
".(	c #733227",
"+(	c #6B2D23",
"@(	c #7E3529",
"#(	c #6A2F25",
"$(	c #25140F",
"%(	c #2B1811",
"&(	c #A4653C",
"*(	c #A56539",
"=(	c #8D4B2F",
"-(	c #7D3426",
";(	c #7E3427",
">(	c #7B3326",
",(	c #602922",
"'(	c #502423",
")(	c #562725",
"!(	c #582823",
"~(	c #301A13",
"{(	c #895D3E",
"](	c #3C2E24",
"^(	c #393026",
"/(	c #3A3127",
"((	c #3A3027",
"_(	c #352E26",
":(	c #2E2A25",
"<(	c #2E2B26",
"[(	c #26231D",
"}(	c #322C25",
"|(	c #151615",
"1(	c #3B2217",
"2(	c #27140E",
"3(	c #552C1B",
"4(	c #7A3F21",
"5(	c #7A4023",
"6(	c #7B4123",
"7(	c #60311B",
"8(	c #6B3A20",
"9(	c #683B22",
"0(	c #3F2B1D",
"a(	c #825736",
"b(	c #AA6B3C",
"c(	c #AA6B3B",
"d(	c #AB6D3D",
"e(	c #AD6F3F",
"f(	c #AA6D40",
"g(	c #5C3822",
"h(	c #804A2A",
"i(	c #B07243",
"j(	c #955C34",
"k(	c #46291A",
"l(	c #100B09",
"m(	c #835433",
"n(	c #744224",
"o(	c #714124",
"p(	c #703E23",
"q(	c #5E2E20",
"r(	c #4B211C",
"s(	c #21140E",
"t(	c #442818",
"u(	c #54311D",
"v(	c #8F593A",
"w(	c #6C3328",
"x(	c #76392B",
"y(	c #753B2A",
"z(	c #743B2A",
"A(	c #773E2B",
"B(	c #784F35",
"C(	c #925F3C",
"D(	c #693A28",
"E(	c #693929",
"F(	c #46261C",
"G(	c #140B09",
"H(	c #301E13",
"I(	c #7B3C2C",
"J(	c #803829",
"K(	c #7D3627",
"L(	c #87412B",
"M(	c #6D3625",
"N(	c #612A1F",
"O(	c #7D3729",
"P(	c #51261E",
"Q(	c #2A1812",
"R(	c #824E2F",
"S(	c #A46539",
"T(	c #9A5A35",
"U(	c #7B3124",
"V(	c #7C3426",
"W(	c #7D3326",
"X(	c #7D3527",
"Y(	c #692E21",
"Z(	c #4C2320",
"`(	c #562724",
" _	c #41271B",
"._	c #492C1C",
"+_	c #66452F",
"@_	c #614531",
"#_	c #3B3127",
"$_	c #3B3128",
"%_	c #2D2A25",
"&_	c #272420",
"*_	c #2D251D",
"=_	c #171716",
"-_	c #361F15",
";_	c #3C2217",
">_	c #3C2317",
",_	c #24140D",
"'_	c #773E23",
")_	c #7B4022",
"!_	c #713D21",
"~_	c #422315",
"{_	c #6D3F24",
"]_	c #412419",
"^_	c #583C2A",
"/_	c #9F643B",
"(_	c #A86A3B",
"__	c #A96C3C",
":_	c #AE6F3E",
"<_	c #885633",
"[_	c #8B5531",
"}_	c #AD7043",
"|_	c #915D38",
"1_	c #5E3A25",
"2_	c #050506",
"3_	c #AA6A3C",
"4_	c #834D2B",
"5_	c #714024",
"6_	c #724123",
"7_	c #764226",
"8_	c #572B1F",
"9_	c #44211B",
"0_	c #3C1F19",
"a_	c #2E1914",
"b_	c #120C09",
"c_	c #55321E",
"d_	c #5A361F",
"e_	c #472C1B",
"f_	c #9A603D",
"g_	c #9C5C39",
"h_	c #81422C",
"i_	c #753928",
"j_	c #723828",
"k_	c #8F5738",
"l_	c #5C3C29",
"m_	c #926140",
"n_	c #6A3A28",
"o_	c #6B3A29",
"p_	c #6C3A29",
"q_	c #2E1A13",
"r_	c #231610",
"s_	c #1B0E0A",
"t_	c #4B251B",
"u_	c #965C3A",
"v_	c #965B38",
"w_	c #84422C",
"x_	c #7C3526",
"y_	c #7E3626",
"z_	c #A05F38",
"A_	c #683725",
"B_	c #4F251D",
"C_	c #53261D",
"D_	c #42281B",
"E_	c #945B35",
"F_	c #A5653A",
"G_	c #8B482C",
"H_	c #7B3525",
"I_	c #7B3425",
"J_	c #7E3824",
"K_	c #733720",
"L_	c #4A241D",
"M_	c #4F2621",
"N_	c #462B1B",
"O_	c #482C1D",
"P_	c #4C2D1B",
"Q_	c #4C2E1C",
"R_	c #160C08",
"S_	c #3F2B1F",
"T_	c #503526",
"U_	c #3B2E24",
"V_	c #2C2924",
"W_	c #2B2823",
"X_	c #2C2822",
"Y_	c #2F2922",
"Z_	c #2C2620",
"`_	c #1F1914",
" :	c #302A23",
".:	c #111110",
"+:	c #351F13",
"@:	c #452819",
"#:	c #3C2216",
"$:	c #2D1A10",
"%:	c #2A1911",
"&:	c #5C321D",
"*:	c #9A5B34",
"=:	c #8D502C",
"-:	c #7E4323",
";:	c #783D20",
">:	c #783F21",
",:	c #8B502B",
"':	c #341F17",
"):	c #2D1F15",
"!:	c #7C5335",
"~:	c #3F2216",
"{:	c #623D27",
"]:	c #74482B",
"^:	c #73482C",
"/:	c #3E2015",
"(:	c #683E25",
"_:	c #5E3823",
"::	c #4E2F21",
"<:	c #361E17",
"[:	c #060608",
"}:	c #11090A",
"|:	c #211412",
"1:	c #351C14",
"2:	c #653C24",
"3:	c #996037",
"4:	c #9A5F36",
"5:	c #865331",
"6:	c #532E1D",
"7:	c #4A271C",
"8:	c #3B1F17",
"9:	c #3C201B",
"0:	c #190E0A",
"a:	c #2B1A10",
"b:	c #0B0806",
"c:	c #1E110D",
"d:	c #42261A",
"e:	c #885434",
"f:	c #A5673F",
"g:	c #965937",
"h:	c #995E3C",
"i:	c #B2784D",
"j:	c #401E13",
"k:	c #7D5035",
"l:	c #593023",
"m:	c #522C1F",
"n:	c #321C15",
"o:	c #18110D",
"p:	c #563422",
"q:	c #2F1C13",
"r:	c #482919",
"s:	c #4B2F1E",
"t:	c #2A1611",
"u:	c #6D452B",
"v:	c #935F3A",
"w:	c #A1663C",
"x:	c #A2653D",
"y:	c #8D5935",
"z:	c #4C261C",
"A:	c #412019",
"B:	c #281611",
"C:	c #1D120C",
"D:	c #241610",
"E:	c #331B14",
"F:	c #653D26",
"G:	c #7E472A",
"H:	c #723B24",
"I:	c #6A351F",
"J:	c #65321C",
"K:	c #67351F",
"L:	c #5C2F1C",
"M:	c #3C1F18",
"N:	c #3A1F17",
"O:	c #190F09",
"P:	c #4A2D1C",
"Q:	c #4C2E1B",
"R:	c #4B2D1B",
"S:	c #42291B",
"T:	c #0E0905",
"U:	c #341E12",
"V:	c #492B1D",
"W:	c #412C20",
"X:	c #4A2F21",
"Y:	c #593423",
"Z:	c #5B3422",
"`:	c #583422",
" <	c #341F13",
".<	c #1A140D",
"+<	c #2E2821",
"@<	c #110A08",
"#<	c #47291A",
"$<	c #140B08",
"%<	c #724529",
"&<	c #8A5632",
"*<	c #84502E",
"=<	c #7B4E2E",
"-<	c #54301D",
";<	c #372017",
"><	c #1B0F0C",
",<	c #261712",
"'<	c #060606",
")<	c #140E0A",
"!<	c #453122",
"~<	c #2D1F16",
"{<	c #2E1B15",
"]<	c #311B14",
"^<	c #351D16",
"/<	c #221411",
"(<	c #0B0708",
"_<	c #130A0A",
":<	c #45261E",
"<<	c #321813",
"[<	c #100A07",
"}<	c #27150E",
"|<	c #391E15",
"1<	c #3D2117",
"2<	c #391E16",
"3<	c #361D18",
"4<	c #341C17",
"5<	c #291612",
"6<	c #180C0A",
"7<	c #110C09",
"8<	c #0D0A06",
"9<	c #0E0A07",
"0<	c #140D0A",
"a<	c #21140F",
"b<	c #311A12",
"c<	c #4B2E20",
"d<	c #5E3D2C",
"e<	c #513223",
"f<	c #3E1D15",
"g<	c #3E1D17",
"h<	c #371A15",
"i<	c #351B16",
"j<	c #311A15",
"k<	c #21130E",
"l<	c #241311",
"m<	c #130E0A",
"n<	c #5F3B24",
"o<	c #311C11",
"p<	c #301B11",
"q<	c #52321E",
"r<	c #9F643C",
"s<	c #6F472C",
"t<	c #190D09",
"u<	c #3C2019",
"v<	c #3D1F18",
"w<	c #3E2018",
"x<	c #351B15",
"y<	c #190E0B",
"z<	c #080707",
"A<	c #0B0907",
"B<	c #0F0B08",
"C<	c #0D0A07",
"D<	c #42281A",
"E<	c #1D110C",
"F<	c #49261E",
"G<	c #2A1710",
"H<	c #100B07",
"I<	c #0C0905",
"J<	c #0D0905",
"K<	c #100A05",
"L<	c #1C130C",
"M<	c #21160E",
"N<	c #1E150D",
"O<	c #100D07",
"P<	c #0C0A06",
"Q<	c #23150D",
"R<	c #281810",
"S<	c #2F1D12",
"T<	c #291A10",
"U<	c #211811",
"V<	c #0F0D0B",
"W<	c #2F1B12",
"X<	c #2F1C12",
"Y<	c #432717",
"Z<	c #412617",
"`<	c #402517",
" [	c #130A09",
".[	c #1B0F0B",
"+[	c #1E0F0B",
"@[	c #100908",
"#[	c #090707",
"$[	c #0A0807",
"%[	c #0F0B09",
"&[	c #1F160F",
"*[	c #070505",
"=[	c #0F0808",
"-[	c #2F1B17",
";[	c #47251D",
">[	c #643527",
",[	c #763E2D",
"'[	c #6B3626",
")[	c #44201A",
"![	c #311F17",
"~[	c #5E3523",
"{[	c #49201A",
"][	c #331811",
"^[	c #24170F",
"/[	c #301812",
"([	c #331713",
"_[	c #0F0706",
":[	c #20120E",
"<[	c #311913",
"[[	c #351A15",
"}[	c #321914",
"|[	c #281411",
"1[	c #180E0C",
"2[	c #130908",
"3[	c #552821",
"4[	c #221511",
"5[	c #6C4428",
"6[	c #A86A3D",
"7[	c #9E6338",
"8[	c #A1653A",
"9[	c #A6683C",
"0[	c #74492B",
"a[	c #352016",
"b[	c #1C0F0C",
"c[	c #603923",
"d[	c #23140D",
"e[	c #23150E",
"f[	c #25160E",
"g[	c #191A0B",
"h[	c #422C18",
"i[	c #7F4826",
"j[	c #824C2B",
"k[	c #1C110B",
"l[	c #18100C",
"m[	c #17110C",
"n[	c #150F0B",
"o[	c #120C08",
"p[	c #25120E",
"q[	c #401C15",
"r[	c #301810",
"s[	c #291710",
"t[	c #20140D",
"u[	c #1E140D",
"v[	c #18110A",
"w[	c #3F2718",
"x[	c #462C1C",
"y[	c #0A0705",
"z[	c #18110B",
"A[	c #100B08",
"B[	c #070605",
"C[	c #17100C",
"D[	c #43251C",
"E[	c #3C1C15",
"F[	c #3D1C16",
"G[	c #52271E",
"H[	c #371B15",
"I[	c #2F1711",
"J[	c #47241B",
"K[	c #29110D",
"L[	c #0C0808",
"M[	c #36261A",
"N[	c #37271B",
"O[	c #3F271F",
"P[	c #331F17",
"Q[	c #663627",
"R[	c #793D2B",
"S[	c #7C3E2C",
"T[	c #80402C",
"U[	c #7E402C",
"V[	c #653326",
"W[	c #110C08",
"X[	c #321F14",
"Y[	c #53301E",
"Z[	c #6A3D22",
"`[	c #6D3E24",
" }	c #704124",
".}	c #633621",
"+}	c #4B201B",
"@}	c #472019",
"#}	c #2C1511",
"$}	c #411B17",
"%}	c #3A1A15",
"&}	c #381A14",
"*}	c #3E2318",
"=}	c #382118",
"-}	c #482A1B",
";}	c #522F1E",
">}	c #512B1E",
",}	c #552721",
"'}	c #2E1813",
")}	c #6F452A",
"!}	c #74482C",
"~}	c #512F1C",
"{}	c #170E09",
"]}	c #6C3D22",
"^}	c #734223",
"/}	c #704023",
"(}	c #6D4026",
"_}	c #6D3F23",
":}	c #351E11",
"<}	c #311B13",
"[}	c #2C2011",
"}}	c #1C1E08",
"|}	c #4A2F17",
"1}	c #985529",
"2}	c #8A4D27",
"3}	c #764122",
"4}	c #744123",
"5}	c #734224",
"6}	c #6F4023",
"7}	c #6C3D20",
"8}	c #623720",
"9}	c #50231C",
"0}	c #56241C",
"a}	c #391B13",
"b}	c #3B2117",
"c}	c #392015",
"d}	c #57341E",
"e}	c #5B381F",
"f}	c #583620",
"g}	c #55341F",
"h}	c #54341E",
"i}	c #523420",
"j}	c #50321F",
"k}	c #513422",
"l}	c #5C3723",
"m}	c #6A3C24",
"n}	c #744327",
"o}	c #301C14",
"p}	c #623C2A",
"q}	c #451E19",
"r}	c #723926",
"s}	c #693523",
"t}	c #5D2E20",
"u}	c #54291E",
"v}	c #542A1F",
"w}	c #52281D",
"x}	c #562A20",
"y}	c #653223",
"z}	c #250F0C",
"A}	c #431516",
"B}	c #3A231A",
"C}	c #372018",
"D}	c #4A2D1F",
"E}	c #5B2F22",
"F}	c #512E20",
"G}	c #58301E",
"H}	c #391E13",
"I}	c #3C261C",
"J}	c #723A29",
"K}	c #683324",
"L}	c #7F3F2C",
"M}	c #5D2E22",
"N}	c #130B07",
"O}	c #3B2418",
"P}	c #754324",
"Q}	c #774324",
"R}	c #683920",
"S}	c #491F1B",
"T}	c #401D18",
"U}	c #28220F",
"V}	c #603D26",
"W}	c #5F3422",
"X}	c #491F18",
"Y}	c #532719",
"Z}	c #67391E",
"`}	c #61351E",
" |	c #5F351E",
".|	c #5E351E",
"+|	c #5F361E",
"@|	c #61371F",
"#|	c #5C2F1D",
"$|	c #572721",
"%|	c #562621",
"&|	c #0E0B08",
"*|	c #563826",
"=|	c #3A1F13",
"-|	c #734123",
";|	c #724122",
">|	c #714022",
",|	c #6E3F22",
"'|	c #623921",
")|	c #714123",
"!|	c #724223",
"~|	c #392011",
"{|	c #27280E",
"]|	c #253409",
"^|	c #605118",
"/|	c #A15A2A",
"(|	c #884B26",
"_|	c #774021",
":|	c #774122",
"<|	c #764121",
"[|	c #774222",
"}|	c #784222",
"||	c #743F21",
"1|	c #57271C",
"2|	c #58241C",
"3|	c #371A13",
"4|	c #391F15",
"5|	c #82573A",
"6|	c #59351D",
"7|	c #59361F",
"8|	c #58361E",
"9|	c #59371E",
"0|	c #5A3720",
"a|	c #5B3820",
"b|	c #643921",
"c|	c #7B4325",
"d|	c #7B4427",
"e|	c #28150C",
"f|	c #9B6944",
"g|	c #471F17",
"h|	c #693423",
"i|	c #713925",
"j|	c #713926",
"k|	c #6F3A26",
"l|	c #602F20",
"m|	c #713825",
"n|	c #6D3624",
"o|	c #28110C",
"p|	c #58261C",
"q|	c #53241C",
"r|	c #55241C",
"s|	c #86482D",
"t|	c #894A2E",
"u|	c #83472C",
"v|	c #8A4B2E",
"w|	c #422317",
"x|	c #643123",
"y|	c #803F2C",
"z|	c #7F402C",
"A|	c #502820",
"B|	c #42211A",
"C|	c #281511",
"D|	c #57311D",
"E|	c #764326",
"F|	c #351D11",
"G|	c #693D25",
"H|	c #724124",
"I|	c #794425",
"J|	c #653922",
"K|	c #532A1D",
"L|	c #461E1B",
"M|	c #301711",
"N|	c #394A22",
"O|	c #84542F",
"P|	c #7F4B2C",
"Q|	c #59291B",
"R|	c #5C2D1B",
"S|	c #66391B",
"T|	c #5E321B",
"U|	c #61361E",
"V|	c #60371F",
"W|	c #62381F",
"X|	c #5F431D",
"Y|	c #582721",
"Z|	c #572621",
"`|	c #40211B",
" 1	c #060505",
".1	c #271710",
"+1	c #150A04",
"@1	c #A76F44",
"#1	c #4E2B18",
"$1	c #341C10",
"%1	c #20310B",
"&1	c #2D400D",
"*1	c #6E741A",
"=1	c #9A5628",
"-1	c #864924",
";1	c #784122",
">1	c #794122",
",1	c #652F1D",
"'1	c #331812",
")1	c #361D13",
"!1	c #A77046",
"~1	c #4F2A15",
"{1	c #4E2D17",
"]1	c #56331B",
"^1	c #5A4F19",
"/1	c #636A19",
"(1	c #5C421D",
"_1	c #5C341E",
":1	c #824526",
"<1	c #7E4427",
"[1	c #2A150D",
"}1	c #3E2417",
"|1	c #422618",
"11	c #3C2215",
"21	c #25150D",
"31	c #A26C41",
"41	c #7D472B",
"51	c #6E3725",
"61	c #703925",
"71	c #723A26",
"81	c #723A27",
"91	c #713A26",
"01	c #5C2E20",
"a1	c #713724",
"b1	c #653221",
"c1	c #2F150F",
"d1	c #894C2F",
"e1	c #783F28",
"f1	c #7E422B",
"g1	c #74422B",
"h1	c #7F452B",
"i1	c #884A2D",
"j1	c #351F14",
"k1	c #572F1F",
"l1	c #582C1E",
"m1	c #773A28",
"n1	c #5C2B1E",
"o1	c #81402C",
"p1	c #7B3E2C",
"q1	c #3D1B15",
"r1	c #3F1F1A",
"s1	c #703F25",
"t1	c #7F4725",
"u1	c #5D331E",
"v1	c #724125",
"w1	c #925D38",
"x1	c #6E472E",
"y1	c #7A4527",
"z1	c #4D231B",
"A1	c #421D19",
"B1	c #1F1A0E",
"C1	c #445B22",
"D1	c #936038",
"E1	c #955B34",
"F1	c #5A291C",
"G1	c #56261C",
"H1	c #50231A",
"I1	c #4A1E16",
"J1	c #60361E",
"K1	c #62411C",
"L1	c #5F541B",
"M1	c #582620",
"N1	c #572520",
"O1	c #3C1D17",
"P1	c #070504",
"Q1	c #321D13",
"R1	c #3B2216",
"S1	c #24120A",
"T1	c #B67C4D",
"U1	c #69391F",
"V1	c #704022",
"W1	c #744222",
"X1	c #8D532F",
"Y1	c #432112",
"Z1	c #693C23",
"`1	c #24110A",
" 2	c #301B14",
".2	c #301B12",
"+2	c #2C1D10",
"@2	c #1D350A",
"#2	c #27310B",
"$2	c #586B14",
"%2	c #905923",
"&2	c #905126",
"*2	c #784022",
"=2	c #794123",
"-2	c #794222",
";2	c #794120",
">2	c #723821",
",2	c #57241B",
"'2	c #351D13",
")2	c #9B643B",
"!2	c #634124",
"~2	c #4C5610",
"{2	c #697018",
"]2	c #584416",
"^2	c #544417",
"/2	c #5E3F1F",
"(2	c #512E1B",
"_2	c #814426",
":2	c #7E4327",
"<2	c #29150D",
"[2	c #3C2316",
"}2	c #402417",
"|2	c #28160E",
"12	c #9A663E",
"22	c #AE6C3F",
"32	c #693521",
"42	c #703926",
"52	c #743A27",
"62	c #713826",
"72	c #582B1F",
"82	c #733825",
"92	c #56291D",
"02	c #2A130E",
"a2	c #84482E",
"b2	c #7E432C",
"c2	c #733F2D",
"d2	c #663525",
"e2	c #6F3927",
"f2	c #542D1B",
"g2	c #130D0A",
"h2	c #623D28",
"i2	c #613322",
"j2	c #723927",
"k2	c #793B29",
"l2	c #783A29",
"m2	c #50251B",
"n2	c #7C3E2B",
"o2	c #653022",
"p2	c #2F1813",
"q2	c #1A0D08",
"r2	c #905935",
"s2	c #7D4424",
"t2	c #7A4223",
"u2	c #764224",
"v2	c #6E3E22",
"w2	c #A16940",
"x2	c #4E3021",
"y2	c #673722",
"z2	c #451E17",
"A2	c #3A1A13",
"B2	c #374919",
"C2	c #334A16",
"D2	c #3D2315",
"E2	c #24140E",
"F2	c #72482B",
"G2	c #AB6C3E",
"H2	c #58271D",
"I2	c #53241B",
"J2	c #544415",
"K2	c #5E371B",
"L2	c #62361F",
"M2	c #61361F",
"N2	c #5F361D",
"O2	c #544618",
"P2	c #3B2113",
"Q2	c #4E201B",
"R2	c #3F1C16",
"S2	c #825436",
"T2	c #895431",
"U2	c #743F20",
"V2	c #744021",
"W2	c #7C4623",
"X2	c #A76639",
"Y2	c #411D12",
"Z2	c #724023",
"`2	c #512C1A",
" 3	c #23100A",
".3	c #2D1E10",
"+3	c #28310A",
"@3	c #1D3608",
"#3	c #1E1409",
"$3	c #455B12",
"%3	c #747419",
"&3	c #83611E",
"*3	c #7E4721",
"=3	c #784021",
"-3	c #784221",
";3	c #784121",
">3	c #774120",
",3	c #75401F",
"'3	c #65361D",
")3	c #7F4324",
"!3	c #431D13",
"~3	c #2B150E",
"{3	c #3A2015",
"]3	c #351E13",
"^3	c #6F482C",
"/3	c #795030",
"(3	c #273C05",
"_3	c #65851A",
":3	c #67701A",
"<3	c #5E461C",
"[3	c #5E3920",
"}3	c #5A3620",
"|3	c #5A351F",
"13	c #653620",
"23	c #5B301C",
"33	c #2F1B13",
"43	c #3A2115",
"53	c #422519",
"63	c #2D1910",
"73	c #573621",
"83	c #A3673C",
"93	c #5E321F",
"03	c #995D39",
"a3	c #743A25",
"b3	c #85472E",
"c3	c #874A2E",
"d3	c #451F15",
"e3	c #6B3524",
"f3	c #411C15",
"g3	c #6F3727",
"h3	c #6D3828",
"i3	c #75412E",
"j3	c #4A281B",
"k3	c #472A1C",
"l3	c #4A2B1D",
"m3	c #976441",
"n3	c #7C462F",
"o3	c #793A28",
"p3	c #793A29",
"q3	c #421B14",
"r3	c #4D2019",
"s3	c #411C16",
"t3	c #311914",
"u3	c #261511",
"v3	c #23130C",
"w3	c #8E5D3A",
"x3	c #9F6238",
"y3	c #814625",
"z3	c #7E4422",
"A3	c #8A522C",
"B3	c #AB7043",
"C3	c #411E16",
"D3	c #341812",
"E3	c #486923",
"F3	c #1E3206",
"G3	c #402416",
"H3	c #4C2A1B",
"I3	c #351A12",
"J3	c #7A4B2E",
"K3	c #643220",
"L3	c #5D2C1D",
"M3	c #59281B",
"N3	c #59311B",
"O3	c #592A1D",
"P3	c #63361E",
"Q3	c #63351E",
"R3	c #5E321E",
"S3	c #552C1D",
"T3	c #3B1915",
"U3	c #341612",
"V3	c #301712",
"W3	c #1C0E09",
"X3	c #382015",
"Y3	c #7F5537",
"Z3	c #A96E40",
"`3	c #8B532D",
" 4	c #723E20",
".4	c #6E3E20",
"+4	c #905226",
"@4	c #A46538",
"#4	c #401B13",
"$4	c #4C281A",
"%4	c #321810",
"&4	c #1D0F09",
"*4	c #341E13",
"=4	c #342012",
"-4	c #2E2A0D",
";4	c #223208",
">4	c #1D3408",
",4	c #141106",
"'4	c #334310",
")4	c #618E15",
"!4	c #5F7E15",
"~4	c #7A631F",
"{4	c #824E25",
"]4	c #7D4622",
"^4	c #7B4220",
"/4	c #7F4924",
"(4	c #7E4B21",
"_4	c #402213",
":4	c #61371D",
"<4	c #32190F",
"[4	c #28150D",
"}4	c #24130C",
"|4	c #5A401E",
"14	c #3F4312",
"24	c #39490D",
"34	c #423014",
"44	c #5F3820",
"54	c #4D2E1C",
"64	c #341D13",
"74	c #1C1009",
"84	c #361E13",
"94	c #442619",
"04	c #1E0E0A",
"a4	c #7C4F31",
"b4	c #C37D48",
"c4	c #8E4F2F",
"d4	c #8C4D2F",
"e4	c #995835",
"f4	c #7A3A22",
"g4	c #743D27",
"h4	c #3B1912",
"i4	c #421D15",
"j4	c #3C1B15",
"k4	c #310E0D",
"l4	c #4F261B",
"m4	c #582D1F",
"n4	c #442519",
"o4	c #43271A",
"p4	c #462319",
"q4	c #200E09",
"r4	c #AF7044",
"s4	c #955D3B",
"t4	c #854B32",
"u4	c #6F3625",
"v4	c #5C2D20",
"w4	c #3A1B16",
"x4	c #291814",
"y4	c #150C08",
"z4	c #2C140C",
"A4	c #774C2F",
"B4	c #A3663B",
"C4	c #B36F3F",
"D4	c #B3703E",
"E4	c #8E5D39",
"F4	c #2D1410",
"G4	c #2D1511",
"H4	c #2C1611",
"I4	c #3E501A",
"J4	c #48711C",
"K4	c #273709",
"L4	c #352211",
"M4	c #3D2215",
"N4	c #522F1B",
"O4	c #482817",
"P4	c #28130E",
"Q4	c #442316",
"R4	c #6D3A24",
"S4	c #61301F",
"T4	c #5B2A1E",
"U4	c #58291E",
"V4	c #592A1E",
"W4	c #56281D",
"X4	c #4B251A",
"Y4	c #321611",
"Z4	c #2F1611",
"`4	c #1E0F0A",
" 5	c #1F110B",
".5	c #3F2316",
"+5	c #3F2214",
"@5	c #3D2317",
"#5	c #553522",
"$5	c #5F3D26",
"%5	c #895A36",
"&5	c #98623A",
"*5	c #986039",
"=5	c #945C33",
"-5	c #381911",
";5	c #371A12",
">5	c #1B110A",
",5	c #3C2712",
"'5	c #2E250C",
")5	c #242D09",
"!5	c #1A2707",
"~5	c #25290A",
"{5	c #456B10",
"]5	c #2C4B0A",
"^5	c #264206",
"/5	c #404011",
"(5	c #4F5014",
"_5	c #5B551A",
":5	c #725E23",
"<5	c #6B4821",
"[5	c #2D190D",
"}5	c #2E1A10",
"|5	c #24130B",
"15	c #4B2716",
"25	c #5B321D",
"35	c #311911",
"45	c #2E1912",
"55	c #180F09",
"65	c #412716",
"75	c #4F311E",
"85	c #4F321E",
"95	c #5A3621",
"05	c #6A3D25",
"a5	c #714026",
"b5	c #311F12",
"c5	c #341C14",
"d5	c #683B1F",
"e5	c #432517",
"f5	c #26160E",
"g5	c #1F100D",
"h5	c #7E5438",
"i5	c #9D663F",
"j5	c #99623A",
"k5	c #AD6F43",
"l5	c #AF7045",
"m5	c #9C643E",
"n5	c #6A3F29",
"o5	c #3B1A13",
"p5	c #3E1C16",
"q5	c #411414",
"r5	c #491C17",
"s5	c #44261A",
"t5	c #48251A",
"u5	c #431F16",
"v5	c #462419",
"w5	c #865A3B",
"x5	c #5B3622",
"y5	c #321612",
"z5	c #2B1713",
"A5	c #1D120E",
"B5	c #261813",
"C5	c #5F3927",
"D5	c #4D2C1B",
"E5	c #492B1A",
"F5	c #371D14",
"G5	c #391C11",
"H5	c #391C10",
"I5	c #371B13",
"J5	c #311712",
"K5	c #281410",
"L5	c #323E17",
"M5	c #50751F",
"N5	c #263F08",
"O5	c #59401B",
"P5	c #683C1F",
"Q5	c #673B20",
"R5	c #864D2A",
"S5	c #2D1911",
"T5	c #1B0D09",
"U5	c #2E1811",
"V5	c #391C12",
"W5	c #3C1D15",
"X5	c #3E1E16",
"Y5	c #3D1D15",
"Z5	c #361912",
"`5	c #341913",
" 6	c #351913",
".6	c #0F0A07",
"+6	c #3C2617",
"@6	c #7F4C2A",
"#6	c #8F532F",
"$6	c #864E2B",
"%6	c #5D3922",
"&6	c #8F5935",
"*6	c #160D08",
"=6	c #341B13",
"-6	c #361B12",
";6	c #351910",
">6	c #33170F",
",6	c #361A11",
"'6	c #29160F",
")6	c #150D08",
"!6	c #3F270E",
"~6	c #2D330A",
"{6	c #24260B",
"]6	c #181407",
"^6	c #1F180A",
"/6	c #231C0C",
"(6	c #26230B",
"_6	c #2A220C",
":6	c #2F1E0E",
"<6	c #301E0E",
"[6	c #2E1C0F",
"}6	c #483222",
"|6	c #965830",
"16	c #97542E",
"26	c #743F24",
"36	c #653822",
"46	c #321F13",
"56	c #19110B",
"66	c #2A1811",
"76	c #2C1811",
"86	c #301E11",
"96	c #311F11",
"06	c #130D08",
"a6	c #0C0A05",
"b6	c #301A11",
"c6	c #381D11",
"d6	c #62341B",
"e6	c #9B5629",
"f6	c #62371C",
"g6	c #382013",
"h6	c #26150D",
"i6	c #342218",
"j6	c #45291D",
"k6	c #371A14",
"l6	c #371913",
"m6	c #351712",
"n6	c #381914",
"o6	c #341712",
"p6	c #2C150F",
"q6	c #341B12",
"r6	c #401D16",
"s6	c #442117",
"t6	c #402719",
"u6	c #4A2F20",
"v6	c #0E0806",
"w6	c #0A0607",
"x6	c #090705",
"y6	c #0A0706",
"z6	c #080606",
"A6	c #070606",
"B6	c #130C08",
"C6	c #46281C",
"D6	c #744028",
"E6	c #492819",
"F6	c #422619",
"G6	c #341E14",
"H6	c #21130C",
"I6	c #1C0F09",
"J6	c #22130C",
"K6	c #24130D",
"L6	c #20180B",
"M6	c #1B2505",
"N6	c #23360B",
"O6	c #1D2D07",
"P6	c #131503",
"Q6	c #774C2D",
"R6	c #AC7040",
"S6	c #965E35",
"T6	c #8D5630",
"U6	c #9B663B",
"V6	c #7D5434",
"W6	c #22120B",
"X6	c #150C06",
"Y6	c #25130D",
"Z6	c #2C1810",
"`6	c #311912",
" 7	c #301912",
".7	c #1E110B",
"+7	c #100905",
"@7	c #3E291B",
"#7	c #B67747",
"$7	c #975B33",
"%7	c #884C29",
"&7	c #985D36",
"*7	c #9E673E",
"=7	c #6F4A30",
"-7	c #0F0B07",
";7	c #26140E",
">7	c #1E110A",
",7	c #2B1B11",
"'7	c #97643E",
")7	c #B47747",
"!7	c #97603A",
"~7	c #744124",
"{7	c #734124",
"]7	c #452914",
"^7	c #2D1E0F",
"/7	c #160F08",
"(7	c #160F0A",
"_7	c #19100A",
":7	c #1A1109",
"<7	c #1B120B",
"[7	c #160F09",
"}7	c #16100A",
"|7	c #543A28",
"17	c #BF7843",
"27	c #9C5D32",
"37	c #804526",
"47	c #804627",
"57	c #885332",
"67	c #915F3B",
"77	c #17100A",
"87	c #120D08",
"97	c #120C07",
"07	c #18100A",
"a7	c #1F150D",
"b7	c #1A130B",
"c7	c #161009",
"d7	c #251F10",
"e7	c #302814",
"f7	c #1A0E09",
"g7	c #A7693A",
"h7	c #A56231",
"i7	c #98572A",
"j7	c #8B502A",
"k7	c #764729",
"l7	c #95633F",
"m7	c #523020",
"n7	c #180E09",
"o7	c #1B0F0A",
"p7	c #1C0F0A",
"q7	c #20110B",
"r7	c #311C12",
"s7	c #331E12",
"t7	c #351E12",
"u7	c #29170E",
"v7	c #25140C",
"w7	c #19100B",
"x7	c #2A160F",
"y7	c #60311F",
"z7	c #562D1C",
"A7	c #4C2918",
"B7	c #582F1B",
"C7	c #64361F",
"D7	c #180E08",
"E7	c #23160B",
"F7	c #251E0B",
"G7	c #231B0A",
"H7	c #201609",
"I7	c #140C06",
"J7	c #442416",
"K7	c #9E683D",
"L7	c #A26B3E",
"M7	c #905D37",
"N7	c #5E301B",
"O7	c #27130C",
"P7	c #23160D",
"Q7	c #1C110A",
"R7	c #160E08",
"S7	c #120B06",
"T7	c #100A06",
"U7	c #0F0A06",
"V7	c #150E08",
"W7	c #1C100A",
"X7	c #22140C",
"Y7	c #20130B",
"Z7	c #80492C",
"`7	c #A76A3E",
" 8	c #9E6339",
".8	c #874D29",
"+8	c #936442",
"@8	c #110A06",
"#8	c #20130C",
"$8	c #21130B",
"%8	c #23140C",
"&8	c #844F2F",
"*8	c #AE683A",
"=8	c #935B37",
"-8	c #4C2A19",
";8	c #422415",
">8	c #361D11",
",8	c #21130A",
"'8	c #24150D",
")8	c #1F130B",
"!8	c #1D120B",
"~8	c #1F120C",
"{8	c #20140B",
"]8	c #442D22",
"^8	c #AC693B",
"/8	c #B77240",
"(8	c #AA6C3F",
"_8	c #A36A40",
":8	c #955F3A",
"<8	c #6E3D23",
"[8	c #24160E",
"}8	c #26160D",
"|8	c #4B2818",
"18	c #854F2C",
"28	c #B3723F",
"38	c #AB6C3B",
"48	c #965C33",
"58	c #784326",
"68	c #70361D",
"78	c #562B1A",
"88	c #26140D",
"98	c #2C1911",
"08	c #5D3725",
"a8	c #543121",
"b8	c #603523",
"c8	c #613622",
"d8	c #5E3321",
"e8	c #633722",
"f8	c #63361C",
"g8	c #58321C",
"h8	c #502F1D",
"i8	c #472517",
"j8	c #5A301E",
"k8	c #502A1A",
"l8	c #321A10",
"m8	c #4D2B1C",
"n8	c #492A1B",
"o8	c #55301D",
"p8	c #54301C",
"q8	c #4E2C1A",
"r8	c #4A2918",
"s8	c #401F13",
"t8	c #4D2717",
"u8	c #542A1A",
"v8	c #432114",
"w8	c #572E1A",
"x8	c #58331E",
"y8	c #482C1B",
"z8	c #482C1C",
"A8	c #4C2D1C",
"B8	c #492718",
"C8	c #663720",
"D8	c #784126",
"E8	c #753F25",
"F8	c #633620",
"G8	c #4D291B",
"H8	c #562F21",
"I8	c #582F21",
"J8	c #5E3121",
"K8	c #5C3120",
"L8	c #582E1E",
"M8	c #592E1D",
"N8	c #5A2F1D",
"O8	c #5C301F",
"P8	c #5E3220",
"Q8	c #5E3120",
"R8	c #5E311F",
"S8	c #462317",
"T8	c #613621",
"U8	c #7A4D32",
"V8	c #30180E",
"W8	c #2F1810",
"X8	c #5A2E1E",
"Y8	c #623322",
"Z8	c #633322",
"`8	c #633422",
" 9	c #633523",
".9	c #643423",
"+9	c #683524",
"@9	c #512A1C",
"#9	c #6F432B",
"$9	c #945937",
"%9	c #6C3B24",
"&9	c #5F301C",
"*9	c #5A2E1C",
"=9	c #4B271A",
"-9	c #4E291B",
";9	c #5B3020",
">9	c #5E3222",
",9	c #613422",
"'9	c #643523",
")9	c #623323",
"!9	c #643323",
"~9	c #673423",
"{9	c #623120",
"]9	c #3F1F14",
"^9	c #5F301D",
"/9	c #683621",
"(9	c #6B3621",
"_9	c #6B3521",
":9	c #592B1A",
"<9	c #381A11",
"[9	c #5A2F20",
"}9	c #603321",
"|9	c #623422",
"19	c #5F3322",
"29	c #6A3A24",
"39	c #6B3B23",
"49	c #633823",
"59	c #653C28",
"69	c #91532E",
"79	c #955731",
"89	c #A05B31",
"99	c #91522D",
"09	c #8E502B",
"a9	c #93542E",
"b9	c #8E4F29",
"c9	c #8B4E28",
"d9	c #884C27",
"e9	c #784220",
"f9	c #7B4422",
"g9	c #723E1F",
"h9	c #60351F",
"i9	c #603924",
"j9	c #503020",
"k9	c #44281B",
"l9	c #45281B",
"m9	c #49291A",
"n9	c #5D3420",
"o9	c #653720",
"p9	c #60341E",
"q9	c #92532C",
"r9	c #98562C",
"s9	c #9F5C2F",
"t9	c #A15C2F",
"u9	c #A76033",
"v9	c #9C5D36",
"w9	c #7A482A",
"x9	c #6E4028",
"y9	c #6E3D22",
"z9	c #804626",
"A9	c #814622",
"B9	c #7E4421",
"C9	c #76401F",
"D9	c #66381E",
"E9	c #5B331C",
"F9	c #532F1C",
"G9	c #5C331C",
"H9	c #62361D",
"I9	c #6A3A1E",
"J9	c #794221",
"K9	c #764024",
"L9	c #673923",
"M9	c #552F1E",
"N9	c #472618",
"O9	c #472719",
"P9	c #56311F",
"Q9	c #653924",
"R9	c #693822",
"S9	c #6D3622",
"T9	c #7F4529",
"U9	c #91522E",
"V9	c #9D5831",
"W9	c #A25C31",
"X9	c #A05B2F",
"Y9	c #A15C31",
"Z9	c #A45D32",
"`9	c #A35C32",
" 0	c #9F592F",
".0	c #9A562D",
"+0	c #9A5630",
"@0	c #945330",
"#0	c #85492B",
"$0	c #733D24",
"%0	c #6D3621",
"&0	c #723925",
"*0	c #743924",
"=0	c #733824",
"-0	c #713723",
";0	c #713823",
">0	c #703723",
",0	c #743824",
"'0	c #763924",
")0	c #7B3E25",
"!0	c #763C26",
"~0	c #653422",
"{0	c #592E1E",
"]0	c #542B1B",
"^0	c #613221",
"/0	c #753C27",
"(0	c #773B25",
"_0	c #703521",
":0	c #713620",
"<0	c #783F26",
"[0	c #7B4126",
"}0	c #86492A",
"|0	c #894A29",
"10	c #894A28",
"20	c #894929",
"30	c #8A4A2A",
"40	c #8D4B2A",
"50	c #834428",
"60	c #5E301F",
"70	c #391E14",
"80	c #412218",
"90	c #442016",
"00	c #602F1F",
"a0	c #6F3720",
"b0	c #7B4124",
"c0	c #8C4C28",
"d0	c #91512B",
"e0	c #8B4F2A",
"f0	c #8C4E2A",
"g0	c #8D4E2A",
"h0	c #92522C",
"i0	c #97562E",
"j0	c #995A32",
"k0	c #9C5930",
"l0	c #9A582F",
"m0	c #9E5A31",
"n0	c #985831",
"o0	c #965831",
"p0	c #94542F",
"q0	c #92532D",
"r0	c #935530",
"s0	c #93542F",
"t0	c #864B27",
"u0	c #7D4624",
"v0	c #7F4624",
"w0	c #6B3D22",
"x0	c #734427",
"y0	c #754628",
"z0	c #834D2C",
"A0	c #91552F",
"B0	c #9B5A32",
"C0	c #9B5A2F",
"D0	c #9A5A30",
"E0	c #9B5B30",
"F0	c #9D5C31",
"G0	c #9D5D32",
"H0	c #9D5C32",
"I0	c #9E5D32",
"J0	c #9D5C33",
"K0	c #9C5C32",
"L0	c #90542D",
"M0	c #91542E",
"N0	c #91552E",
"O0	c #8E532E",
"P0	c #884F2A",
"Q0	c #844C29",
"R0	c #7F4928",
"S0	c #6F3E20",
"T0	c #734022",
"U0	c #744121",
"V0	c #754122",
"W0	c #764222",
"X0	c #764223",
"Y0	c #754123",
"Z0	c #6C3D21",
"`0	c #63391F",
" a	c #663A1F",
".a	c #673A20",
"+a	c #6A3A20",
"@a	c #965833",
"#a	c #A16035",
"$a	c #9F5F35",
"%a	c #9A5A33",
"&a	c #925530",
"*a	c #905631",
"=a	c #8C532F",
"-a	c #88502D",
";a	c #874E2C",
">a	c #854D2B",
",a	c #824C2A",
"'a	c #814B29",
")a	c #854D2A",
"!a	c #854F2D",
"~a	c #895231",
"{a	c #8F5633",
"]a	c #8A502E",
"^a	c #844B2B",
"/a	c #834929",
"(a	c #854C2B",
"_a	c #8D5331",
":a	c #9B5D37",
"<a	c #9E5E35",
"[a	c #9F5F37",
"}a	c #975730",
"|a	c #975830",
"1a	c #955832",
"2a	c #905530",
"3a	c #905430",
"4a	c #945631",
"5a	c #9B5A33",
"6a	c #A56137",
"7a	c #A15F34",
"8a	c #A05F34",
"9a	c #A25F34",
"0a	c #A36035",
"aa	c #A35F35",
"ba	c #A25F35",
"ca	c #A35F34",
"da	c #8D512F",
"ea	c #844C2C",
"fa	c #81492B",
"ga	c #834B2D",
"ha	c #8A4E2D",
"ia	c #975936",
"ja	c #9A5B37",
"ka	c #9A5A32",
"la	c #9F5B30",
"ma	c #A46031",
"na	c #935A2A",
"oa	c #99602D",
"pa	c #97612E",
"qa	c #8D662B",
"ra	c #60531F",
"sa	c #744E25",
"ta	c #85552C",
"ua	c #9A582E",
"va	c #8F5531",
"wa	c #935933",
"xa	c #6C3D24",
"ya	c #6B4227",
"za	c #5C361F",
"Aa	c #5C3720",
"Ba	c #673E24",
"Ca	c #6F4327",
"Da	c #6D4126",
"Ea	c #744326",
"Fa	c #6E4023",
"Ga	c #673B1F",
"Ha	c #663C20",
"Ia	c #663D21",
"Ja	c #673E22",
"Ka	c #693F23",
"La	c #683E23",
"Ma	c #643B20",
"Na	c #61391E",
"Oa	c #60391F",
"Pa	c #613A20",
"Qa	c #633B21",
"Ra	c #623A20",
"Sa	c #5A341C",
"Ta	c #56321B",
"Ua	c #52301B",
"Va	c #51301C",
"Wa	c #56321D",
"Xa	c #57331F",
"Ya	c #502F1B",
"Za	c #4A2C1A",
"`a	c #4C2C19",
" b	c #593623",
".b	c #392418",
"+b	c #352014",
"@b	c #331F12",
"#b	c #392315",
"$b	c #583723",
"%b	c #593823",
"&b	c #593923",
"*b	c #5A3924",
"=b	c #573722",
"-b	c #543521",
";b	c #533320",
">b	c #4E2F1A",
",b	c #4F2F1B",
"'b	c #5C351E",
")b	c #693D23",
"!b	c #6A3E24",
"~b	c #693F26",
"{b	c #6B4027",
"]b	c #472616",
"^b	c #422314",
"/b	c #3F2215",
"(b	c #412415",
"_b	c #4A2A19",
":b	c #563320",
"<b	c #5E3924",
"[b	c #613B23",
"}b	c #57391C",
"|b	c #37340E",
"1b	c #52551C",
"2b	c #57551E",
"3b	c #534D1C",
"4b	c #4F471B",
"5b	c #493B1A",
"6b	c #412F17",
"7b	c #4E331C",
"8b	c #72442A",
"9b	c #553220",
"0b	c #512F20",
"ab	c #4A2C1D",
"bb	c #4C2E1E",
"cb	c #4B2E1D",
"db	c #4D2F1D",
"eb	c #4E2F1E",
"fb	c #6F4227",
"gb	c #653B24",
"hb	c #603922",
"ib	c #55331D",
"jb	c #52361C",
"kb	c #4E361C",
"lb	c #47331A",
"mb	c #43321A",
"nb	c #3A2F17",
"ob	c #3E421A",
"pb	c #45491C",
"qb	c #48461C",
"rb	c #504B21",
"sb	c #504420",
"tb	c #4D321F",
"ub	c #492D1C",
"vb	c #4A2E1C",
"wb	c #492D1B",
"xb	c #4F311F",
"yb	c #462A1B",
"zb	c #4A2D1D",
"Ab	c #4D301E",
"Bb	c #503120",
"Cb	c #4E301F",
"Db	c #462B1C",
"Eb	c #43291B",
"Fb	c #43291A",
"Gb	c #442A1B",
"Hb	c #442B1C",
"Ib	c #452C1C",
"Jb	c #452B1C",
"Kb	c #452B1A",
"Lb	c #5B3823",
"Mb	c #603A25",
"Nb	c #643D26",
"Ob	c #663E26",
"Pb	c #663D26",
"Qb	c #643B24",
"Rb	c #5F3923",
"Sb	c #59331F",
"Tb	c #52301F",
"Ub	c #502E1E",
"Vb	c #462A1C",
"Wb	c #44291B",
"Xb	c #51311D",
"Yb	c #51311E",
"Zb	c #422718",
"`b	c #402616",
" c	c #403714",
".c	c #384112",
"+c	c #2C3010",
"@c	c #272E10",
"#c	c #242D10",
"$c	c #253010",
"%c	c #2A390F",
"&c	c #2D3911",
"*c	c #2F3711",
"=c	c #353312",
"-c	c #3B2B14",
";c	c #482D1B",
">c	c #492D1D",
",c	c #452A1A",
"'c	c #40271A",
")c	c #40271B",
"!c	c #41291B",
"~c	c #432A1C",
"{c	c #422A1D",
"]c	c #412A1D",
"^c	c #402A1C",
"/c	c #41291C",
"(c	c #42291D",
"_c	c #432A1D",
":c	c #3E2519",
"<c	c #442A1C",
"[c	c #452A1C",
"}c	c #462B1D",
"|c	c #523220",
"1c	c #553421",
"2c	c #573521",
"3c	c #583522",
"4c	c #593622",
"5c	c #5A3622",
"6c	c #5A3521",
"7c	c #4E2F1F",
"8c	c #4B2D1E",
"9c	c #352317",
"0c	c #2D1D14",
"ac	c #2D1E14",
"bc	c #2E1F14",
"cc	c #2E1F15",
"dc	c #322118",
"ec	c #332219",
"fc	c #342318",
"gc	c #342319",
"hc	c #342419",
"ic	c #332319",
"jc	c #342219",
"kc	c #342418",
"lc	c #352419",
"mc	c #352418",
"nc	c #332318",
"oc	c #35241A",
"pc	c #35241B",
"qc	c #35251A",
"rc	c #35251B",
"sc	c #36251B",
"tc	c #36261B",
"uc	c #36251A",
"vc	c #37261B",
"wc	c #37251B",
"xc	c #37251A",
"yc	c #36241A",
"zc	c #362419",
"Ac	c #352319",
"Bc	c #34231A",
"Cc	c #2E1F16",
"Dc	c #2A1C15",
"Ec	c #2A1C14",
"Fc	c #2B1C13",
"Gc	c #2C1D13",
"Hc	c #2D1E13",
"Ic	c #2E1E13",
"Jc	c #101012",
"Kc	c #18110C",
"Lc	c #22170F",
"Mc	c #23170F",
"Nc	c #231810",
"Oc	c #23180F",
"Pc	c #241810",
"Qc	c #251810",
"Rc	c #1C1611",
"Sc	c #14100C",
"Tc	c #120E0A",
"Uc	c #130F0B",
"Vc	c #140F0B",
"Wc	c #13100B",
"Xc	c #130E0B",
"Yc	c #14100B",
"Zc	c #140F0C",
"`c	c #150F0C",
" d	c #15100D",
".d	c #15100C",
"+d	c #14110C",
"@d	c #15110C",
"#d	c #16110D",
"$d	c #15110E",
"%d	c #16110E",
"&d	c #16120E",
"*d	c #15100E",
"=d	c #18130F",
"-d	c #1A1410",
";d	c #1A1411",
">d	c #1B1411",
",d	c #191310",
"'d	c #181310",
")d	c #15120E",
"!d	c #13100C",
"~d	c #120F0B",
"{d	c #0F0E0A",
"]d	c #0B0B0B",
"^d	c #0F0D09",
"/d	c #15100B",
"(d	c #19110D",
"_d	c #14100E",
":d	c #1C130D",
"<d	c #301F15",
"[d	c #322015",
"}d	c #1F1614",
"|d	c #3E3022",
"1d	c #413121",
"2d	c #473725",
"3d	c #433423",
"4d	c #3C2D1E",
"5d	c #36281A",
"6d	c #382A1D",
"7d	c #3E2F20",
"8d	c #423323",
"9d	c #473625",
"0d	c #493828",
"ad	c #483827",
"bd	c #4A3928",
"cd	c #4A3829",
"dd	c #4C3B2B",
"ed	c #4C3A2C",
"fd	c #4B392B",
"gd	c #4E3C2C",
"hd	c #4F3D2D",
"id	c #463727",
"jd	c #4D3C2B",
"kd	c #4D3B2B",
"ld	c #4D3C2C",
"md	c #4D3B2C",
"nd	c #4C3B2C",
"od	c #4C3C2B",
"pd	c #4E3C2B",
"qd	c #4E3B28",
"rd	c #4E3C27",
"sd	c #4E3B27",
"td	c #4F3C28",
"ud	c #4F3C27",
"vd	c #4F3B28",
"wd	c #56402B",
"xd	c #503D28",
"yd	c #513D29",
"zd	c #513D2A",
"Ad	c #503D2A",
"Bd	c #533E2A",
"Cd	c #4E3822",
"Dd	c #533D27",
"Ed	c #553F29",
"Fd	c #59432D",
"Gd	c #55412C",
"Hd	c #543E2B",
"Id	c #4D3B27",
"Jd	c #483624",
"Kd	c #413120",
"Ld	c #423121",
"Md	c #40301F",
"Nd	c #2B2218",
"Od	c #0F0D0A",
"Pd	c #231811",
"Qd	c #1E1512",
"Rd	c #7A4E2D",
"Sd	c #573320",
"Td	c #1F1612",
"Ud	c #14100D",
"Vd	c #4E3B29",
"Wd	c #533F28",
"Xd	c #513C27",
"Yd	c #513D27",
"Zd	c #513C26",
"`d	c #543E27",
" e	c #523D28",
".e	c #5D452F",
"+e	c #5E4730",
"@e	c #654D36",
"#e	c #684F38",
"$e	c #674D37",
"%e	c #674D38",
"&e	c #664D36",
"*e	c #684E38",
"=e	c #6A5039",
"-e	c #6B513A",
";e	c #674E38",
">e	c #685038",
",e	c #6A5139",
"'e	c #684F37",
")e	c #694E38",
"!e	c #694F38",
"~e	c #694F39",
"{e	c #6A4E38",
"]e	c #694E37",
"^e	c #684E37",
"/e	c #6A4F39",
"(e	c #695038",
"_e	c #695039",
":e	c #6A5038",
"<e	c #6B5038",
"[e	c #6A5034",
"}e	c #6B5032",
"|e	c #6A5032",
"1e	c #6C4F32",
"2e	c #6B4F32",
"3e	c #6B4E32",
"4e	c #6A4F32",
"5e	c #6A5033",
"6e	c #6C5033",
"7e	c #6D4F33",
"8e	c #6D5033",
"9e	c #6B5035",
"0e	c #6B5034",
"ae	c #6F5134",
"be	c #6E5030",
"ce	c #6F5132",
"de	c #6F5234",
"ee	c #715537",
"fe	c #684E32",
"ge	c #654B31",
"he	c #695034",
"ie	c #634A30",
"je	c #5B452C",
"ke	c #513C25",
"le	c #4F3A23",
"me	c #503B24",
"ne	c #34281B",
"oe	c #120F0C",
"pe	c #332115",
"qe	c #2F1F14",
"re	c #231710",
"se	c #9A643C",
"te	c #5C3722",
"ue	c #573623",
"ve	c #6C3E25",
"we	c #6F4025",
"xe	c #573421",
"ye	c #1F1611",
"ze	c #523E2A",
"Ae	c #523D27",
"Be	c #4E3A25",
"Ce	c #674F35",
"De	c #775A3B",
"Ee	c #866744",
"Fe	c #816445",
"Ge	c #7C6144",
"He	c #795F43",
"Ie	c #7E6447",
"Je	c #816549",
"Ke	c #84684B",
"Le	c #84684C",
"Me	c #83674B",
"Ne	c #84684D",
"Oe	c #84694C",
"Pe	c #85694D",
"Qe	c #866A4E",
"Re	c #82664A",
"Se	c #826649",
"Te	c #84664A",
"Ue	c #86694D",
"Ve	c #87694D",
"We	c #876B4D",
"Xe	c #876A4D",
"Ye	c #886A4E",
"Ze	c #88694E",
"`e	c #876A4E",
" f	c #876B4E",
".f	c #866B4E",
"+f	c #886B4F",
"@f	c #886B4E",
"#f	c #886A4F",
"$f	c #896A4F",
"%f	c #896B4F",
"&f	c #896B4E",
"*f	c #886C4D",
"=f	c #886B4D",
"-f	c #896C4D",
";f	c #886B4C",
">f	c #866844",
",f	c #866741",
"'f	c #876742",
")f	c #876741",
"!f	c #866640",
"~f	c #876640",
"{f	c #86663F",
"]f	c #87673F",
"^f	c #87663F",
"/f	c #886540",
"(f	c #8A6540",
"_f	c #8B6640",
":f	c #87653F",
"<f	c #896741",
"[f	c #83633E",
"}f	c #8B6A42",
"|f	c #8A6841",
"1f	c #8C6940",
"2f	c #8C673E",
"3f	c #8B673E",
"4f	c #896641",
"5f	c #785939",
"6f	c #866541",
"7f	c #765939",
"8f	c #5D462D",
"9f	c #563F29",
"0f	c #5A432D",
"af	c #37291E",
"bf	c #100C0B",
"cf	c #2E1B12",
"df	c #2C2412",
"ef	c #2D2813",
"ff	c #2B2812",
"gf	c #292511",
"hf	c #24180E",
"if	c #302A13",
"jf	c #332614",
"kf	c #121112",
"lf	c #24170E",
"mf	c #2D1B10",
"nf	c #2F1C10",
"of	c #2F1C11",
"pf	c #331D12",
"qf	c #372014",
"rf	c #361F13",
"sf	c #1F1712",
"tf	c #100C09",
"uf	c #58432E",
"vf	c #58412A",
"wf	c #58422B",
"xf	c #6C5134",
"yf	c #765A3C",
"zf	c #8F714F",
"Af	c #8D6F4F",
"Bf	c #8A6C4D",
"Cf	c #836849",
"Df	c #85694A",
"Ef	c #86694B",
"Ff	c #8C6D4E",
"Gf	c #8C6D4F",
"Hf	c #8B6E4E",
"If	c #8C6E50",
"Jf	c #8C6F4F",
"Kf	c #8B6D4F",
"Lf	c #8B6E4F",
"Mf	c #8A6C4E",
"Nf	c #8B6C4D",
"Of	c #8A6C4C",
"Pf	c #8C6E4F",
"Qf	c #8D6F50",
"Rf	c #8E704E",
"Sf	c #8F704F",
"Tf	c #8F724F",
"Uf	c #8F7150",
"Vf	c #907051",
"Wf	c #907050",
"Xf	c #8F7151",
"Yf	c #8F7251",
"Zf	c #8F7250",
"`f	c #907151",
" g	c #8F7051",
".g	c #907250",
"+g	c #907251",
"@g	c #907150",
"#g	c #90724F",
"$g	c #90714F",
"%g	c #917151",
"&g	c #8F6F49",
"*g	c #8E6D46",
"=g	c #8E6D44",
"-g	c #8F6F48",
";g	c #8D6C41",
">g	c #8D6C40",
",g	c #8D6B40",
"'g	c #8E6C40",
")g	c #8E6B40",
"!g	c #8F6A40",
"~g	c #906A41",
"{g	c #8E6941",
"]g	c #8D6941",
"^g	c #8D6940",
"/g	c #8C6941",
"(g	c #8F6B42",
"_g	c #8E6B42",
":g	c #8D6B42",
"<g	c #8D6A41",
"[g	c #8F6C42",
"}g	c #906E45",
"|g	c #8E6C43",
"1g	c #926F45",
"2g	c #8E6B43",
"3g	c #83633F",
"4g	c #5D442A",
"5g	c #584028",
"6g	c #5A4129",
"7g	c #312519",
"8g	c #20150D",
"9g	c #1C140B",
"0g	c #201A0E",
"ag	c #211D0F",
"bg	c #1F1C0F",
"cg	c #1E190C",
"dg	c #1F170C",
"eg	c #201A0D",
"fg	c #1F150C",
"gg	c #1D130C",
"hg	c #130F0D",
"ig	c #111012",
"jg	c #25180E",
"kg	c #1B220C",
"lg	c #131D09",
"mg	c #1B1E0C",
"ng	c #271D0F",
"og	c #231B0D",
"pg	c #201D0C",
"qg	c #2B2110",
"rg	c #2D2012",
"sg	c #1D150E",
"tg	c #1E1611",
"ug	c #634D37",
"vg	c #6B5239",
"wg	c #72573E",
"xg	c #8B6D4C",
"yg	c #846747",
"zg	c #826546",
"Ag	c #B89469",
"Bg	c #B99567",
"Cg	c #B79466",
"Dg	c #BA9667",
"Eg	c #BA9666",
"Fg	c #BA9567",
"Gg	c #BC976A",
"Hg	c #BE9A6C",
"Ig	c #BD996B",
"Jg	c #BB986A",
"Kg	c #BA9769",
"Lg	c #BC9869",
"Mg	c #BB9769",
"Ng	c #B89467",
"Og	c #BB976B",
"Pg	c #B28E63",
"Qg	c #BD986B",
"Rg	c #BC986A",
"Sg	c #BC996A",
"Tg	c #BD996A",
"Ug	c #BE9969",
"Vg	c #BF9969",
"Wg	c #BD9969",
"Xg	c #BE996A",
"Yg	c #BF996A",
"Zg	c #BE9A6A",
"`g	c #BF9A6A",
" h	c #BF9A69",
".h	c #C09969",
"+h	c #BD9A6B",
"@h	c #BE9A69",
"#h	c #BE986A",
"$h	c #BB9667",
"%h	c #B78E5D",
"&h	c #B68A57",
"*h	c #B68A56",
"=h	c #B48853",
"-h	c #B38753",
";h	c #B58B58",
">h	c #B48A55",
",h	c #B58954",
"'h	c #B58852",
")h	c #B58953",
"!h	c #B48854",
"~h	c #B28753",
"{h	c #B38653",
"]h	c #B38551",
"^h	c #B28550",
"/h	c #B2844F",
"(h	c #B4844F",
"_h	c #B4844E",
":h	c #B4844D",
"<h	c #B3844D",
"[h	c #B1824E",
"}h	c #B0814C",
"|h	c #B3834C",
"1h	c #B1814B",
"2h	c #B3844C",
"3h	c #B1834C",
"4h	c #AD7F49",
"5h	c #A97C49",
"6h	c #8B643C",
"7h	c #7A5937",
"8h	c #835F3A",
"9h	c #473525",
"0h	c #261810",
"ah	c #3B2215",
"bh	c #684831",
"ch	c #3E2416",
"dh	c #1C130F",
"eh	c #6D442B",
"fh	c #66361D",
"gh	c #272712",
"hh	c #1E3010",
"ih	c #322D15",
"jh	c #352114",
"kh	c #2A1910",
"lh	c #372416",
"mh	c #1E160F",
"nh	c #16100C",
"oh	c #120D0A",
"ph	c #604B37",
"qh	c #6E553D",
"rh	c #715940",
"sh	c #826748",
"th	c #8A6D4E",
"uh	c #896C4C",
"vh	c #B89465",
"wh	c #C59F6F",
"xh	c #BE9B6D",
"yh	c #BC9868",
"zh	c #BF9968",
"Ah	c #C09A69",
"Bh	c #C39F6F",
"Ch	c #C29E6C",
"Dh	c #C39D6B",
"Eh	c #C29B6B",
"Fh	c #C39D6D",
"Gh	c #C39E6E",
"Hh	c #B79366",
"Ih	c #BF9A6C",
"Jh	c #C49E6E",
"Kh	c #C29D6A",
"Lh	c #C29D6C",
"Mh	c #C39E6C",
"Nh	c #B28D60",
"Oh	c #C29D6B",
"Ph	c #C39D6C",
"Qh	c #C59E6C",
"Rh	c #C49E6D",
"Sh	c #C49E6C",
"Th	c #C69D6C",
"Uh	c #C59E6B",
"Vh	c #C49E6F",
"Wh	c #BF9764",
"Xh	c #BE945F",
"Yh	c #BB8E59",
"Zh	c #BA8D56",
"`h	c #BA8D55",
" i	c #BA8F58",
".i	c #BC915D",
"+i	c #BB8E58",
"@i	c #BB8F5A",
"#i	c #BA8D59",
"$i	c #B78B56",
"%i	c #B88B57",
"&i	c #B88A54",
"*i	c #B88A53",
"=i	c #B98A51",
"-i	c #BA8950",
";i	c #BA8A50",
">i	c #BB8951",
",i	c #B98950",
"'i	c #B6864E",
")i	c #B78750",
"!i	c #B6854D",
"~i	c #B6844B",
"{i	c #B48249",
"]i	c #B7854B",
"^i	c #AA7B46",
"/i	c #A77A47",
"(i	c #986F42",
"_i	c #89653D",
":i	c #926C42",
"<i	c #4C3827",
"[i	c #160D0B",
"}i	c #371F13",
"|i	c #3D2314",
"1i	c #7F5435",
"2i	c #362014",
"3i	c #4A2B19",
"4i	c #1D130F",
"5i	c #8A5A37",
"6i	c #794527",
"7i	c #5D341E",
"8i	c #2B2811",
"9i	c #355716",
"0i	c #3F3A18",
"ai	c #4C2C1C",
"bi	c #2B180F",
"ci	c #5E3A23",
"di	c #3B2A1E",
"ei	c #160E0B",
"fi	c #5D4835",
"gi	c #6A513A",
"hi	c #7A6047",
"ii	c #8C6F50",
"ji	c #927454",
"ki	c #8E7251",
"li	c #AE8C60",
"mi	c #B59367",
"ni	c #B18E61",
"oi	c #C29C6A",
"pi	c #C09B69",
"qi	c #C19D6D",
"ri	c #C09D6D",
"si	c #BC9666",
"ti	c #C19A68",
"ui	c #C09A67",
"vi	c #C19B6B",
"wi	c #BE9968",
"xi	c #C39C6B",
"yi	c #BE9869",
"zi	c #C29C6B",
"Ai	c #C59F6B",
"Bi	c #C69E6B",
"Ci	c #C39E6D",
"Di	c #C49E70",
"Ei	c #C39E6F",
"Fi	c #C09866",
"Gi	c #BD935F",
"Hi	c #BF955F",
"Ii	c #BF935B",
"Ji	c #BD9059",
"Ki	c #BD925C",
"Li	c #BC8F57",
"Mi	c #BB8C54",
"Ni	c #BB8B52",
"Oi	c #BB8A51",
"Pi	c #BB8A52",
"Qi	c #BB8A50",
"Ri	c #BB8950",
"Si	c #B5844E",
"Ti	c #BA884F",
"Ui	c #B4854C",
"Vi	c #B7864D",
"Wi	c #B8874F",
"Xi	c #B68750",
"Yi	c #AE804D",
"Zi	c #A97D4D",
"`i	c #987348",
" j	c #8C6A44",
".j	c #51402E",
"+j	c #180F0C",
"@j	c #512D18",
"#j	c #905E39",
"$j	c #724321",
"%j	c #77492D",
"&j	c #703E22",
"*j	c #784426",
"=j	c #1E1310",
"-j	c #100F11",
";j	c #92623C",
">j	c #814D2D",
",j	c #643821",
"'j	c #352312",
")j	c #43681A",
"!j	c #4C321A",
"~j	c #4D2D1B",
"{j	c #543B1B",
"]j	c #754327",
"^j	c #9F6437",
"/j	c #563D2A",
"(j	c #150E0B",
"_j	c #614C39",
":j	c #6C523C",
"<j	c #775D43",
"[j	c #937655",
"}j	c #917453",
"|j	c #907554",
"1j	c #AF8D62",
"2j	c #BD9A6C",
"3j	c #C09C6B",
"4j	c #B99462",
"5j	c #C19F6F",
"6j	c #BE9B6B",
"7j	c #BC9665",
"8j	c #C09B6A",
"9j	c #C19D6B",
"0j	c #C19E6B",
"aj	c #C49D6D",
"bj	c #C59F6C",
"cj	c #C49F6E",
"dj	c #C39E69",
"ej	c #C29C68",
"fj	c #C39D6A",
"gj	c #C29E6E",
"hj	c #C29E6F",
"ij	c #C09F6E",
"jj	c #BF9A68",
"kj	c #C09967",
"lj	c #BE9562",
"mj	c #BD915C",
"nj	c #BC8E57",
"oj	c #BC8C54",
"pj	c #BC8C53",
"qj	c #BB8B51",
"rj	c #BA8C54",
"sj	c #BA8B54",
"tj	c #BB8D56",
"uj	c #BB8C56",
"vj	c #BE8D54",
"wj	c #BC8A50",
"xj	c #BC8951",
"yj	c #BB8850",
"zj	c #B9894E",
"Aj	c #B78950",
"Bj	c #B68851",
"Cj	c #B0834E",
"Dj	c #B4864F",
"Ej	c #B38550",
"Fj	c #AB7E4E",
"Gj	c #AA7F4F",
"Hj	c #A47E51",
"Ij	c #94724A",
"Jj	c #544332",
"Kj	c #52392A",
"Lj	c #885331",
"Mj	c #7A4424",
"Nj	c #814E2C",
"Oj	c #784A1F",
"Pj	c #7D4523",
"Qj	c #0F0F11",
"Rj	c #101011",
"Sj	c #7F5638",
"Tj	c #834F30",
"Uj	c #724227",
"Vj	c #322212",
"Wj	c #3B4116",
"Xj	c #693C22",
"Yj	c #764A27",
"Zj	c #563720",
"`j	c #804624",
" k	c #A16538",
".k	c #5B3E28",
"+k	c #160E0C",
"@k	c #604C39",
"#k	c #6A5239",
"$k	c #6D543A",
"%k	c #8F7351",
"&k	c #947856",
"*k	c #937756",
"=k	c #B59264",
"-k	c #BD9766",
";k	c #B79263",
">k	c #B99566",
",k	c #BF9C6B",
"'k	c #C29C6C",
")k	c #C19B6A",
"!k	c #C29E6D",
"~k	c #C19C6A",
"{k	c #C49D6A",
"]k	c #C69F6B",
"^k	c #C59F6E",
"/k	c #C09762",
"(k	c #C09358",
"_k	c #C0945B",
":k	c #BE935C",
"<k	c #BE9661",
"[k	c #BF9864",
"}k	c #BF9B68",
"|k	c #BF9B69",
"1k	c #C09D6B",
"2k	c #C09E6D",
"3k	c #BF9D6D",
"4k	c #BD9462",
"5k	c #BC9260",
"6k	c #BC8F5C",
"7k	c #BA8F5C",
"8k	c #BA8D57",
"9k	c #B48752",
"0k	c #BA8B55",
"ak	c #B98E5A",
"bk	c #B98954",
"ck	c #BA8953",
"dk	c #BC8950",
"ek	c #BB894F",
"fk	c #BA894F",
"gk	c #B8884F",
"hk	c #AD804D",
"ik	c #B08451",
"jk	c #B18653",
"kk	c #A77F50",
"lk	c #99774E",
"mk	c #93724B",
"nk	c #4C3D2D",
"ok	c #170F0C",
"pk	c #553D2E",
"qk	c #8C5936",
"rk	c #7A4323",
"sk	c #673E1F",
"tk	c #764420",
"uk	c #794422",
"vk	c #784322",
"wk	c #63371D",
"xk	c #58321D",
"yk	c #996138",
"zk	c #794729",
"Ak	c #4D331C",
"Bk	c #435E19",
"Ck	c #754424",
"Dk	c #7C4726",
"Ek	c #7A4626",
"Fk	c #814623",
"Gk	c #9F6337",
"Hk	c #6F492F",
"Ik	c #634D3A",
"Jk	c #6D553D",
"Kk	c #785E44",
"Lk	c #927552",
"Mk	c #B79465",
"Nk	c #AE8857",
"Ok	c #BC9766",
"Pk	c #BC9867",
"Qk	c #B79464",
"Rk	c #C09C6C",
"Sk	c #BF996B",
"Tk	c #BF9A6B",
"Uk	c #BD976A",
"Vk	c #C39F6E",
"Wk	c #BD9A69",
"Xk	c #C09A65",
"Yk	c #C29B69",
"Zk	c #C69E6C",
"`k	c #C49F6C",
" l	c #BE9058",
".l	c #C09054",
"+l	c #C09155",
"@l	c #BF945C",
"#l	c #BD925B",
"$l	c #BC9058",
"%l	c #BC9059",
"&l	c #BE925C",
"*l	c #BE935E",
"=l	c #BD9460",
"-l	c #BC9362",
";l	c #BB905D",
">l	c #BA8E5C",
",l	c #B98E5C",
"'l	c #BA8B53",
")l	c #B98A53",
"!l	c #B88955",
"~l	c #B88954",
"{l	c #B98951",
"]l	c #BA894E",
"^l	c #B88950",
"/l	c #B88952",
"(l	c #B5864F",
"_l	c #B78850",
":l	c #AF824D",
"<l	c #B68854",
"[l	c #A97F4F",
"}l	c #B08858",
"|l	c #A38155",
"1l	c #95754F",
"2l	c #48392A",
"3l	c #4B3529",
"4l	c #854B29",
"5l	c #5D361A",
"6l	c #724120",
"7l	c #784424",
"8l	c #6E3D24",
"9l	c #784224",
"0l	c #1F1311",
"al	c #100E11",
"bl	c #28190F",
"cl	c #B17442",
"dl	c #693F27",
"el	c #4D6317",
"fl	c #683D20",
"gl	c #6D3E22",
"hl	c #7F4524",
"il	c #9D6035",
"jl	c #744E33",
"kl	c #66503C",
"ll	c #6A5138",
"ml	c #755C41",
"nl	c #8E7150",
"ol	c #927555",
"pl	c #8F7353",
"ql	c #AF8959",
"rl	c #AF8753",
"sl	c #B8905D",
"tl	c #C39B68",
"ul	c #C09A6A",
"vl	c #C49D6E",
"wl	c #C39B69",
"xl	c #B99262",
"yl	c #C29A6A",
"zl	c #C59E6D",
"Al	c #BC8C50",
"Bl	c #C3955A",
"Cl	c #C09157",
"Dl	c #BE8D53",
"El	c #BD9058",
"Fl	c #BB8D58",
"Gl	c #BC905B",
"Hl	c #BE9057",
"Il	c #BD8F54",
"Jl	c #BC8E56",
"Kl	c #BC8F5A",
"Ll	c #BB8E5A",
"Ml	c #BA8C56",
"Nl	c #BA8A55",
"Ol	c #9E7447",
"Pl	c #B1834D",
"Ql	c #B8864D",
"Rl	c #B8844D",
"Sl	c #B9874D",
"Tl	c #BA884E",
"Ul	c #BA874E",
"Vl	c #BA874D",
"Wl	c #B8874C",
"Xl	c #BA8A52",
"Yl	c #B08350",
"Zl	c #A9804F",
"`l	c #A57F52",
" m	c #A07D53",
".m	c #92714D",
"+m	c #463025",
"@m	c #AB7549",
"#m	c #8B512E",
"$m	c #522C18",
"%m	c #673920",
"&m	c #5E351F",
"*m	c #472818",
"=m	c #5C321C",
"-m	c #774022",
";m	c #3A2116",
">m	c #251712",
",m	c #AA6D3C",
"'m	c #583A20",
")m	c #3E2516",
"!m	c #6E3B20",
"~m	c #804422",
"{m	c #A16439",
"]m	c #624028",
"^m	c #634F3C",
"/m	c #765D43",
"(m	c #866A4D",
"_m	c #8D7151",
":m	c #B38C5C",
"<m	c #BF9662",
"[m	c #C19967",
"}m	c #C29A68",
"|m	c #C39A6A",
"1m	c #C59E6E",
"2m	c #BD9768",
"3m	c #C6A071",
"4m	c #C5A171",
"5m	c #C5A070",
"6m	c #BF9D6C",
"7m	c #BF9B6A",
"8m	c #C29D6D",
"9m	c #C19A69",
"0m	c #C29964",
"am	c #BE8E55",
"bm	c #BE8C51",
"cm	c #C08F54",
"dm	c #C09056",
"em	c #BA8B52",
"fm	c #B98953",
"gm	c #BC8C52",
"hm	c #BD8C52",
"im	c #BF8E56",
"jm	c #BD8C54",
"km	c #BC8D54",
"lm	c #BC8D57",
"mm	c #BD8D55",
"nm	c #BC8B52",
"om	c #AD7F4C",
"pm	c #B2814B",
"qm	c #B4824A",
"rm	c #B8844B",
"sm	c #B9874C",
"tm	c #B5834B",
"um	c #AE7D46",
"vm	c #BB874B",
"wm	c #B8864C",
"xm	c #B5864E",
"ym	c #B2844E",
"zm	c #AB804D",
"Am	c #89673F",
"Bm	c #936F47",
"Cm	c #A88257",
"Dm	c #665440",
"Em	c #452F25",
"Fm	c #89502C",
"Gm	c #6D3D22",
"Hm	c #65371E",
"Im	c #67381E",
"Jm	c #542F1C",
"Km	c #5A311B",
"Lm	c #764021",
"Mm	c #472A1D",
"Nm	c #A76B3B",
"Om	c #442718",
"Pm	c #3F2418",
"Qm	c #4C2B1A",
"Rm	c #9F643A",
"Sm	c #573B27",
"Tm	c #5B4734",
"Um	c #6D543C",
"Vm	c #7B6249",
"Wm	c #927553",
"Xm	c #907353",
"Ym	c #886A49",
"Zm	c #B7884E",
"`m	c #B88C55",
" n	c #BB925D",
".n	c #BB935F",
"+n	c #C29A69",
"@n	c #C19C6C",
"#n	c #C49F6F",
"$n	c #C59D6F",
"%n	c #C59E70",
"&n	c #C4A073",
"*n	c #9F7D51",
"=n	c #C5A073",
"-n	c #C59F70",
";n	c #C49B68",
">n	c #C59C6A",
",n	c #C39A69",
"'n	c #C49C69",
")n	c #C49F6D",
"!n	c #C49D6C",
"~n	c #C59D6C",
"{n	c #C19660",
"]n	c #BF8B50",
"^n	c #BF8D52",
"/n	c #BD894C",
"(n	c #BD8E56",
"_n	c #BA8850",
":n	c #B9874F",
"<n	c #B8874D",
"[n	c #BF9058",
"}n	c #BC8C56",
"|n	c #BB8952",
"1n	c #BD8B54",
"2n	c #BD8A50",
"3n	c #BE8B51",
"4n	c #BB894E",
"5n	c #BB884E",
"6n	c #B6854F",
"7n	c #BA874F",
"8n	c #BB874E",
"9n	c #BD8950",
"0n	c #BC884E",
"an	c #B9864D",
"bn	c #B17D44",
"cn	c #B3824A",
"dn	c #B4854E",
"en	c #AE834F",
"fn	c #9C794D",
"gn	c #886744",
"hn	c #8F6C45",
"in	c #977148",
"jn	c #604C37",
"kn	c #170E0B",
"ln	c #3F2920",
"mn	c #AB7649",
"nn	c #89512E",
"on	c #462714",
"pn	c #4E2A17",
"qn	c #6A3B20",
"rn	c #59321E",
"sn	c #5C311C",
"tn	c #5C331E",
"un	c #391F14",
"vn	c #0F0E10",
"wn	c #332116",
"xn	c #A66B3C",
"yn	c #46291B",
"zn	c #4A2A1A",
"An	c #6F3A1F",
"Bn	c #814322",
"Cn	c #9D633A",
"Dn	c #473124",
"En	c #57422F",
"Fn	c #755A41",
"Gn	c #91734F",
"Hn	c #8C6E4A",
"In	c #876844",
"Jn	c #B2844D",
"Kn	c #BB8A4E",
"Ln	c #B07E43",
"Mn	c #B3854B",
"Nn	c #B88E59",
"On	c #C6A070",
"Pn	c #C2996C",
"Qn	c #C39C6E",
"Rn	c #C7A272",
"Sn	c #BD9868",
"Tn	c #C8A373",
"Un	c #C8A171",
"Vn	c #C69E6D",
"Wn	c #C49B69",
"Xn	c #C49D6B",
"Yn	c #C39967",
"Zn	c #C29A66",
"`n	c #BE8E52",
" o	c #BF8A4C",
".o	c #BE8C50",
"+o	c #BF8C50",
"@o	c #BF8E53",
"#o	c #BD8B50",
"$o	c #BE8C53",
"%o	c #A97B48",
"&o	c #BD8B52",
"*o	c #BB8346",
"=o	c #BC8850",
"-o	c #BD884E",
";o	c #A57744",
">o	c #AF804B",
",o	c #BD894F",
"'o	c #B8864E",
")o	c #B4834B",
"!o	c #BB884F",
"~o	c #BE8A51",
"{o	c #BD8A51",
"]o	c #A77847",
"^o	c #AC7C49",
"/o	c #AC7E4A",
"(o	c #AF804C",
"_o	c #B18550",
":o	c #A0784B",
"<o	c #A88153",
"[o	c #82623F",
"}o	c #7F5E3A",
"|o	c #946F48",
"1o	c #614E39",
"2o	c #170D0B",
"3o	c #3B261C",
"4o	c #87512E",
"5o	c #412315",
"6o	c #59311D",
"7o	c #542F1D",
"8o	c #56301C",
"9o	c #60341D",
"0o	c #773F22",
"ao	c #5A321E",
"bo	c #241611",
"co	c #120F11",
"do	c #A56B3C",
"eo	c #522E1D",
"fo	c #452719",
"go	c #834423",
"ho	c #814422",
"io	c #9F673F",
"jo	c #1F100A",
"ko	c #5F4934",
"lo	c #684D34",
"mo	c #765A3F",
"no	c #8D6A44",
"oo	c #7D5B36",
"po	c #7E5931",
"qo	c #A77740",
"ro	c #B18045",
"so	c #B18147",
"to	c #AC804A",
"uo	c #BD935E",
"vo	c #C39A68",
"wo	c #C7A070",
"xo	c #C8A374",
"yo	c #C7A371",
"zo	c #C09765",
"Ao	c #C29A67",
"Bo	c #C39A67",
"Co	c #C69E6A",
"Do	c #C08D50",
"Eo	c #C28C4E",
"Fo	c #BE8A4E",
"Go	c #BE8B4F",
"Ho	c #BD8A4F",
"Io	c #BE8950",
"Jo	c #B8854D",
"Ko	c #B48149",
"Lo	c #BA8347",
"Mo	c #BA864D",
"No	c #BB874F",
"Oo	c #BC874E",
"Po	c #B6834C",
"Qo	c #B9864E",
"Ro	c #B68451",
"So	c #B58551",
"To	c #B78854",
"Uo	c #B48552",
"Vo	c #AC7F4C",
"Wo	c #B48651",
"Xo	c #B7864E",
"Yo	c #B88751",
"Zo	c #A57643",
"`o	c #A57845",
" p	c #A67C4A",
".p	c #A17B4E",
"+p	c #9C7950",
"@p	c #866743",
"#p	c #896846",
"$p	c #7F6041",
"%p	c #554636",
"&p	c #38241B",
"*p	c #86502C",
"=p	c #704328",
"-p	c #552F1D",
";p	c #62351D",
">p	c #231611",
",p	c #140F11",
"'p	c #0F0F10",
")p	c #A4693B",
"!p	c #48291A",
"~p	c #6F3B1F",
"{p	c #844521",
"]p	c #A26B45",
"^p	c #170C08",
"/p	c #5F4732",
"(p	c #664A31",
"_p	c #906839",
":p	c #8B6335",
"<p	c #896033",
"[p	c #B07E44",
"}p	c #AE7A3E",
"|p	c #A87339",
"1p	c #AB773D",
"2p	c #9E703C",
"3p	c #AF8451",
"4p	c #C19765",
"5p	c #BD9665",
"6p	c #BF9966",
"7p	c #C49E6B",
"8p	c #C79E6D",
"9p	c #C19A6A",
"0p	c #C39C6A",
"ap	c #C59C69",
"bp	c #C5A06C",
"cp	c #C5A06D",
"dp	c #C59F6D",
"ep	c #C49A63",
"fp	c #C08C4D",
"gp	c #C18D4E",
"hp	c #C18E51",
"ip	c #BF8B4E",
"jp	c #BE8B4D",
"kp	c #C08C4F",
"lp	c #BD874C",
"mp	c #BA854C",
"np	c #B37B42",
"op	c #B98448",
"pp	c #BB864D",
"qp	c #A07342",
"rp	c #B2824C",
"sp	c #BC894E",
"tp	c #BD884F",
"up	c #BC874F",
"vp	c #BB874D",
"wp	c #B7834B",
"xp	c #B4814B",
"yp	c #BC8D5C",
"zp	c #AF8252",
"Ap	c #9B7145",
"Bp	c #AE8253",
"Cp	c #956A3D",
"Dp	c #AD7E48",
"Ep	c #AD7F4A",
"Fp	c #9F703E",
"Gp	c #B07F47",
"Hp	c #926A3D",
"Ip	c #9B7546",
"Jp	c #88643B",
"Kp	c #85633C",
"Lp	c #8E6D49",
"Mp	c #846544",
"Np	c #6C4F33",
"Op	c #423427",
"Pp	c #39251B",
"Qp	c #A97549",
"Rp	c #89502B",
"Sp	c #3E2115",
"Tp	c #58311C",
"Up	c #542F1B",
"Vp	c #67371D",
"Wp	c #54301B",
"Xp	c #3B2115",
"Yp	c #0F1010",
"Zp	c #0F0F0F",
"`p	c #A26739",
" q	c #703C20",
".q	c #7D4426",
"+q	c #854622",
"@q	c #9A643F",
"#q	c #160D09",
"$q	c #5E442E",
"%q	c #5D4126",
"&q	c #81592D",
"*q	c #7B532A",
"=q	c #885F30",
"-q	c #A9753A",
";q	c #A56D34",
">q	c #A56F39",
",q	c #9E6A34",
"'q	c #9F6F3A",
")q	c #B58955",
"!q	c #AE8654",
"~q	c #B78F5C",
"{q	c #C6A06C",
"]q	c #BE9763",
"^q	c #B68C58",
"/q	c #BD915D",
"(q	c #BA9563",
"_q	c #BE9868",
":q	c #C29B67",
"<q	c #C39D69",
"[q	c #C59D6A",
"}q	c #C79E69",
"|q	c #C49A64",
"1q	c #C09055",
"2q	c #BF8B4C",
"3q	c #BE8C4E",
"4q	c #BD8A4E",
"5q	c #BE894E",
"6q	c #C08A4E",
"7q	c #BD894E",
"8q	c #BA884C",
"9q	c #B9854A",
"0q	c #B8854A",
"aq	c #B9864C",
"bq	c #AC7D45",
"cq	c #AE7F4B",
"dq	c #B7854D",
"eq	c #B5834A",
"fq	c #B5824A",
"gq	c #B7844B",
"hq	c #B5844F",
"iq	c #A77B4A",
"jq	c #AF824F",
"kq	c #A77B4B",
"lq	c #9E723E",
"mq	c #9F7241",
"nq	c #B8864B",
"oq	c #B28148",
"pq	c #B6854C",
"qq	c #A17541",
"rq	c #967246",
"sq	c #876743",
"tq	c #7B5C39",
"uq	c #755534",
"vq	c #6D4C2B",
"wq	c #694A2C",
"xq	c #7A593A",
"yq	c #493B2C",
"zq	c #A9754A",
"Aq	c #794023",
"Bq	c #462617",
"Cq	c #502C19",
"Dq	c #6E3C21",
"Eq	c #7A4123",
"Fq	c #381F15",
"Gq	c #2B1A14",
"Hq	c #492919",
"Iq	c #502F1E",
"Jq	c #6F3D21",
"Kq	c #864722",
"Lq	c #493522",
"Mq	c #563D24",
"Nq	c #5E4122",
"Oq	c #784F25",
"Pq	c #8B6231",
"Qq	c #875F2F",
"Rq	c #AA773D",
"Sq	c #9D6732",
"Tq	c #946534",
"Uq	c #A2733F",
"Vq	c #A3723D",
"Wq	c #AD8250",
"Xq	c #AF8652",
"Yq	c #B38851",
"Zq	c #B48951",
"`q	c #B88B56",
" r	c #B48753",
".r	c #B78952",
"+r	c #B98C56",
"@r	c #BB935E",
"#r	c #C29965",
"$r	c #B78F5D",
"%r	c #C39B67",
"&r	c #C59E6A",
"*r	c #C69F6A",
"=r	c #C69F6C",
"-r	c #C59F6A",
";r	c #C69D69",
">r	c #C39963",
",r	c #C2965D",
"'r	c #C29156",
")r	c #C18A4C",
"!r	c #C0894B",
"~r	c #BF8C4D",
"{r	c #BF8C4E",
"]r	c #BD8B4E",
"^r	c #BF8B4D",
"/r	c #C0894D",
"(r	c #BF894E",
"_r	c #BD8C53",
":r	c #B8874E",
"<r	c #AB7C46",
"[r	c #AC804C",
"}r	c #A97D4B",
"|r	c #9D7648",
"1r	c #A17A4C",
"2r	c #A1794C",
"3r	c #A3794A",
"4r	c #A87B49",
"5r	c #A67945",
"6r	c #AB804C",
"7r	c #AD814D",
"8r	c #B0824C",
"9r	c #AD824F",
"0r	c #A57B4B",
"ar	c #A37B4A",
"br	c #A0784A",
"cr	c #946F42",
"dr	c #A0794B",
"er	c #967043",
"fr	c #A17C4F",
"gr	c #937249",
"hr	c #8F6E48",
"ir	c #876845",
"jr	c #735635",
"kr	c #614628",
"lr	c #674725",
"mr	c #73512D",
"nr	c #8E6E4A",
"or	c #4B3E2F",
"pr	c #A77448",
"qr	c #874F2C",
"rr	c #763E20",
"sr	c #2B150B",
"tr	c #723D22",
"ur	c #7B4323",
"vr	c #542E1A",
"wr	c #9C6135",
"xr	c #4D2C1D",
"yr	c #703D21",
"zr	c #713E22",
"Ar	c #854621",
"Br	c #935E37",
"Cr	c #4F3927",
"Dr	c #593F24",
"Er	c #5D4122",
"Fr	c #68461F",
"Gr	c #64421E",
"Hr	c #835C2E",
"Ir	c #A3713A",
"Jr	c #9D6935",
"Kr	c #9C6B3A",
"Lr	c #9F703D",
"Mr	c #A27440",
"Nr	c #A07240",
"Or	c #906637",
"Pr	c #8F6839",
"Qr	c #8F6838",
"Rr	c #9E7443",
"Sr	c #A07645",
"Tr	c #A27947",
"Ur	c #A27948",
"Vr	c #A47B4A",
"Wr	c #A17949",
"Xr	c #AB8252",
"Yr	c #AF8758",
"Zr	c #AE8656",
"`r	c #B38D5F",
" s	c #B48F5E",
".s	c #B58F5F",
"+s	c #B68F5F",
"@s	c #B38E5D",
"#s	c #BD9663",
"$s	c #BE9664",
"%s	c #BC9462",
"&s	c #BC9563",
"*s	c #BB9663",
"=s	c #BC9663",
"-s	c #BB9462",
";s	c #B99261",
">s	c #B7905F",
",s	c #B48E5E",
"'s	c #B18A5C",
")s	c #B18859",
"!s	c #B18654",
"~s	c #B28552",
"{s	c #B28451",
"]s	c #B28450",
"^s	c #B1824D",
"/s	c #AD824E",
"(s	c #AB804E",
"_s	c #A87D4D",
":s	c #A67A4D",
"<s	c #A0784C",
"[s	c #9F7A4E",
"}s	c #A0794E",
"|s	c #A07A4F",
"1s	c #9F7A4F",
"2s	c #9D784D",
"3s	c #A17A4F",
"4s	c #9F784C",
"5s	c #9E774C",
"6s	c #9E764B",
"7s	c #967146",
"8s	c #9F794D",
"9s	c #99744B",
"0s	c #906E46",
"as	c #98764F",
"bs	c #95744E",
"cs	c #866642",
"ds	c #94734D",
"es	c #8F6E49",
"fs	c #816341",
"gs	c #81613E",
"hs	c #82623E",
"is	c #7A5B39",
"js	c #694D2F",
"ks	c #5B4124",
"ls	c #5D401F",
"ms	c #74522B",
"ns	c #8E6F49",
"os	c #4E4131",
"ps	c #A87549",
"qs	c #874F2D",
"rs	c #753E21",
"ss	c #512E1C",
"ts	c #2B160D",
"us	c #733C1F",
"vs	c #7B4223",
"ws	c #4D2B18",
"xs	c #171111",
"ys	c #100E10",
"zs	c #9D6034",
"As	c #412619",
"Bs	c #713D20",
"Cs	c #6D3B20",
"Ds	c #884722",
"Es	c #935F38",
"Fs	c #150C09",
"Gs	c #4F3A25",
"Hs	c #5E4326",
"Is	c #634626",
"Js	c #6C4924",
"Ks	c #704D28",
"Ls	c #77532A",
"Ms	c #9E6D3B",
"Ns	c #A5713C",
"Os	c #A5723E",
"Ps	c #A67642",
"Qs	c #A07140",
"Rs	c #92683A",
"Ss	c #A27543",
"Ts	c #966C3E",
"Us	c #926A3A",
"Vs	c #99703F",
"Ws	c #9E7544",
"Xs	c #9D7444",
"Ys	c #956C3D",
"Zs	c #946B3E",
"`s	c #A07649",
" t	c #A1784B",
".t	c #A2784B",
"+t	c #A2794C",
"@t	c #A2794D",
"#t	c #9F774B",
"$t	c #9F784A",
"%t	c #A1794B",
"&t	c #A27A4B",
"*t	c #A27B4B",
"=t	c #A27A4C",
"-t	c #A17A4B",
";t	c #A47B4D",
">t	c #A37A4D",
",t	c #A37A4C",
"'t	c #A1794D",
")t	c #9F784B",
"!t	c #9E794B",
"~t	c #9E784B",
"{t	c #9F764B",
"]t	c #9E784A",
"^t	c #9F794C",
"/t	c #A1784D",
"(t	c #A0784E",
"_t	c #A07B4E",
":t	c #A27C50",
"<t	c #A47C51",
"[t	c #A37B4F",
"}t	c #A27A50",
"|t	c #987347",
"1t	c #9F7A4D",
"2t	c #9B764B",
"3t	c #9E794F",
"4t	c #97734A",
"5t	c #987248",
"6t	c #9D794F",
"7t	c #9C7B56",
"8t	c #91714C",
"9t	c #957551",
"0t	c #8A6B47",
"at	c #866847",
"bt	c #7E6042",
"ct	c #6C4C2D",
"dt	c #7E5E3D",
"et	c #735332",
"ft	c #785A39",
"gt	c #684B2A",
"ht	c #6E4E2A",
"it	c #795A34",
"jt	c #483C2D",
"kt	c #2B1810",
"lt	c #874E2D",
"mt	c #743E21",
"nt	c #552F1C",
"ot	c #422416",
"pt	c #743D1F",
"qt	c #7D4323",
"rt	c #502D1A",
"st	c #5B321B",
"tt	c #A16133",
"ut	c #53301D",
"vt	c #532E1A",
"wt	c #4B2918",
"xt	c #723D20",
"yt	c #8A4922",
"zt	c #955E38",
"At	c #150B09",
"Bt	c #302418",
"Ct	c #3A2A1B",
"Dt	c #3B2B1C",
"Et	c #45311E",
"Ft	c #432F1C",
"Gt	c #4C3722",
"Ht	c #5B4128",
"It	c #66482C",
"Jt	c #664C30",
"Kt	c #664C32",
"Lt	c #5C452D",
"Mt	c #56422A",
"Nt	c #5B442D",
"Ot	c #5E442C",
"Pt	c #674F36",
"Qt	c #60472F",
"Rt	c #604931",
"St	c #5D462E",
"Tt	c #5C462F",
"Ut	c #5E4832",
"Vt	c #5C4832",
"Wt	c #5D4732",
"Xt	c #5E4933",
"Yt	c #5E4831",
"Zt	c #5E4931",
"`t	c #5E4932",
" u	c #5E4732",
".u	c #5C4630",
"+u	c #5D4731",
"@u	c #5F4933",
"#u	c #604A34",
"$u	c #624C35",
"%u	c #624C36",
"&u	c #604933",
"*u	c #5F4932",
"=u	c #604A33",
"-u	c #5F4832",
";u	c #634D36",
">u	c #644D37",
",u	c #644E37",
"'u	c #644E38",
")u	c #614C37",
"!u	c #624C38",
"~u	c #5F4A35",
"{u	c #604A36",
"]u	c #614C38",
"^u	c #604A35",
"/u	c #624B37",
"(u	c #634C38",
"_u	c #644C38",
":u	c #664D39",
"<u	c #654D3A",
"[u	c #664E3A",
"}u	c #67503B",
"|u	c #69513C",
"1u	c #6A523D",
"2u	c #6B533E",
"3u	c #6E543E",
"4u	c #70563F",
"5u	c #715740",
"6u	c #71563F",
"7u	c #71553D",
"8u	c #74573F",
"9u	c #745A42",
"0u	c #6F543D",
"au	c #69503B",
"bu	c #5A4531",
"cu	c #604D3A",
"du	c #5E4C38",
"eu	c #5D4A36",
"fu	c #584533",
"gu	c #564433",
"hu	c #503F2F",
"iu	c #4D3C2D",
"ju	c #524030",
"ku	c #554130",
"lu	c #533C2A",
"mu	c #59422E",
"nu	c #4B3622",
"ou	c #4D3B29",
"pu	c #4B3B2A",
"qu	c #32261C",
"ru	c #2A1810",
"su	c #AA774A",
"tu	c #824725",
"uu	c #542E1B",
"vu	c #7C4221",
"wu	c #522E1B",
"xu	c #764020",
"yu	c #7F4321",
"zu	c #5C321B",
"Au	c #100F10",
"Bu	c #412C21",
"Cu	c #A26132",
"Du	c #5B331E",
"Eu	c #673820",
"Fu	c #5F341D",
"Gu	c #6D3B21",
"Hu	c #5C331D",
"Iu	c #8E4A22",
"Ju	c #A46A42",
"Ku	c #170B08",
"Lu	c #462D1B",
"Mu	c #452C1B",
"Nu	c #442D1C",
"Ou	c #452C19",
"Pu	c #714C2D",
"Qu	c #8A5D37",
"Ru	c #906239",
"Su	c #8D6137",
"Tu	c #875C33",
"Uu	c #885C33",
"Vu	c #90623B",
"Wu	c #93643C",
"Xu	c #94643A",
"Yu	c #93643A",
"Zu	c #90633A",
"`u	c #8E643B",
" v	c #95683E",
".v	c #986B41",
"+v	c #96693F",
"@v	c #95673E",
"#v	c #94663D",
"$v	c #976A41",
"%v	c #976A40",
"&v	c #97683F",
"*v	c #96673D",
"=v	c #95683D",
"-v	c #96693E",
";v	c #986A3F",
">v	c #93663C",
",v	c #845A35",
"'v	c #845C37",
")v	c #865E38",
"!v	c #875F37",
"~v	c #8B6139",
"{v	c #875E38",
"]v	c #885F37",
"^v	c #91653D",
"/v	c #976940",
"(v	c #94673B",
"_v	c #986A3E",
":v	c #A06F44",
"<v	c #9E6B42",
"[v	c #96653D",
"}v	c #97663E",
"|v	c #9E6C45",
"1v	c #A47148",
"2v	c #AA754A",
"3v	c #AE784B",
"4v	c #AF784B",
"5v	c #AB7443",
"6v	c #AC7545",
"7v	c #AB7645",
"8v	c #AB7544",
"9v	c #AD7443",
"0v	c #AD7645",
"av	c #AC7547",
"bv	c #AA7547",
"cv	c #AA7344",
"dv	c #AB7343",
"ev	c #AD7644",
"fv	c #AE7745",
"gv	c #AD7747",
"hv	c #AB7444",
"iv	c #AD7343",
"jv	c #AE7444",
"kv	c #AE7545",
"lv	c #AF7545",
"mv	c #AF7748",
"nv	c #AF794B",
"ov	c #AE794C",
"pv	c #AD794B",
"qv	c #AD7849",
"rv	c #AE7849",
"sv	c #AD7648",
"tv	c #AF784A",
"uv	c #A87348",
"vv	c #9F6D45",
"wv	c #9C6A42",
"xv	c #A06C43",
"yv	c #B17849",
"zv	c #82532E",
"Av	c #55341D",
"Bv	c #5A3821",
"Cv	c #5D3B25",
"Dv	c #AB774A",
"Ev	c #7C4120",
"Fv	c #723B1D",
"Gv	c #5A311C",
"Hv	c #6F3B1E",
"Iv	c #432314",
"Jv	c #7B4224",
"Kv	c #793F1F",
"Lv	c #56301B",
"Mv	c #66371D",
"Nv	c #763E1E",
"Ov	c #493225",
"Pv	c #9F5E30",
"Qv	c #683A21",
"Rv	c #5D331D",
"Sv	c #5C321E",
"Tv	c #391C0E",
"Uv	c #8D4A22",
"Vv	c #A3683D",
"Wv	c #21110B",
"Xv	c #855534",
"Yv	c #95613A",
"Zv	c #9A6337",
"`v	c #986135",
" w	c #996135",
".w	c #986034",
"+w	c #976033",
"@w	c #965F33",
"#w	c #975F33",
"$w	c #975D34",
"%w	c #985F34",
"&w	c #986035",
"*w	c #986136",
"=w	c #966137",
"-w	c #8F5C33",
";w	c #8B5730",
">w	c #87532D",
",w	c #88532D",
"'w	c #8E5731",
")w	c #925C33",
"!w	c #9A6236",
"~w	c #9D6438",
"{w	c #A0683A",
"]w	c #9F6739",
"^w	c #A1693A",
"/w	c #A1683A",
"(w	c #A2683B",
"_w	c #A06839",
":w	c #A06739",
"<w	c #9E6637",
"[w	c #955E32",
"}w	c #935E35",
"|w	c #A66F41",
"1w	c #B47F4B",
"2w	c #A57142",
"3w	c #8D5E36",
"4w	c #8D5D34",
"5w	c #905D34",
"6w	c #956036",
"7w	c #945F34",
"8w	c #966035",
"9w	c #996235",
"0w	c #9C6437",
"aw	c #A0673B",
"bw	c #A2693E",
"cw	c #9F663C",
"dw	c #99643A",
"ew	c #945F36",
"fw	c #986337",
"gw	c #9C6538",
"hw	c #996035",
"iw	c #965F35",
"jw	c #976036",
"kw	c #9A6137",
"lw	c #986036",
"mw	c #966136",
"nw	c #956136",
"ow	c #935F35",
"pw	c #915B33",
"qw	c #905A33",
"rw	c #8B5831",
"sw	c #86532E",
"tw	c #82502C",
"uw	c #814E2B",
"vw	c #7E4C29",
"ww	c #7D4927",
"xw	c #7A4726",
"yw	c #7B4726",
"zw	c #7B4827",
"Aw	c #7C4927",
"Bw	c #7C4C2B",
"Cw	c #7D4D2C",
"Dw	c #7C4E2C",
"Ew	c #7D4C2A",
"Fw	c #764423",
"Gw	c #714021",
"Hw	c #6F4022",
"Iw	c #87552E",
"Jw	c #5C351C",
"Kw	c #AB764B",
"Lw	c #7C401F",
"Mw	c #6F391D",
"Nw	c #65361E",
"Ow	c #5E331C",
"Pw	c #371E11",
"Qw	c #68361B",
"Rw	c #552F1A",
"Sw	c #784123",
"Tw	c #743C1D",
"Uw	c #291913",
"Vw	c #9D5C30",
"Ww	c #683A22",
"Xw	c #6C3A20",
"Yw	c #4E2916",
"Zw	c #8C4921",
"`w	c #3A251A",
" x	c #744223",
".x	c #754222",
"+x	c #774323",
"@x	c #784223",
"#x	c #744322",
"$x	c #764325",
"%x	c #744122",
"&x	c #754426",
"*x	c #7D5030",
"=x	c #7E5B38",
"-x	c #A97C52",
";x	c #835A3B",
">x	c #734323",
",x	c #764424",
"'x	c #6D3F21",
")x	c #724121",
"!x	c #754223",
"~x	c #764324",
"{x	c #774426",
"]x	c #764426",
"^x	c #764425",
"/x	c #754225",
"(x	c #744427",
"_x	c #734429",
":x	c #673D23",
"<x	c #5B351E",
"[x	c #5B341D",
"}x	c #59341D",
"|x	c #5A351E",
"1x	c #59341E",
"2x	c #5A341D",
"3x	c #512E1A",
"4x	c #4B2A18",
"5x	c #442717",
"6x	c #27160E",
"7x	c #A97448",
"8x	c #7C4020",
"9x	c #6F3A1E",
"0x	c #532E1C",
"ax	c #6E3A1F",
"bx	c #391F12",
"cx	c #7C4223",
"dx	c #5F341C",
"ex	c #442515",
"fx	c #502D19",
"gx	c #66371E",
"hx	c #532D19",
"ix	c #6B391E",
"jx	c #7E4222",
"kx	c #884721",
"lx	c #9F6439",
"mx	c #493324",
"nx	c #573520",
"ox	c #5D361F",
"px	c #623821",
"qx	c #5F371F",
"rx	c #633921",
"sx	c #683B21",
"tx	c #6F3F24",
"ux	c #734325",
"vx	c #744425",
"wx	c #774425",
"xx	c #58321B",
"yx	c #693C21",
"zx	c #764321",
"Ax	c #724325",
"Bx	c #714223",
"Cx	c #60381F",
"Dx	c #482B1C",
"Ex	c #452919",
"Fx	c #593721",
"Gx	c #67432B",
"Hx	c #704B30",
"Ix	c #7E5332",
"Jx	c #905F38",
"Kx	c #8F5F37",
"Lx	c #8E603B",
"Mx	c #8C5D38",
"Nx	c #845633",
"Ox	c #7E5031",
"Px	c #835435",
"Qx	c #653C23",
"Rx	c #5D371F",
"Sx	c #633C24",
"Tx	c #613C25",
"Ux	c #A36E43",
"Vx	c #7E411F",
"Wx	c #713B1F",
"Xx	c #552E1C",
"Yx	c #3C2114",
"Zx	c #7B4120",
"`x	c #5E341E",
" y	c #492918",
".y	c #69381D",
"+y	c #51321E",
"@y	c #9F5F32",
"#y	c #47281A",
"$y	c #683921",
"%y	c #502B18",
"&y	c #69381E",
"*y	c #874622",
"=y	c #894822",
"-y	c #9E6438",
";y	c #4B3322",
">y	c #5B361E",
",y	c #6A4022",
"'y	c #673E21",
")y	c #60381E",
"!y	c #5C371E",
"~y	c #4D2F1B",
"{y	c #3D2515",
"]y	c #332014",
"^y	c #322013",
"/y	c #653B21",
"(y	c #704224",
"_y	c #724326",
":y	c #744225",
"<y	c #754427",
"[y	c #754428",
"}y	c #724327",
"|y	c #6C4024",
"1y	c #693E22",
"2y	c #673C22",
"3y	c #663B21",
"4y	c #643920",
"5y	c #62381E",
"6y	c #64391E",
"7y	c #60381D",
"8y	c #57351E",
"9y	c #673C20",
"0y	c #6C3F22",
"ay	c #764323",
"by	c #784425",
"cy	c #774424",
"dy	c #784524",
"ey	c #774423",
"fy	c #734425",
"gy	c #724425",
"hy	c #6B3F23",
"iy	c #683D23",
"jy	c #693E23",
"ky	c #754627",
"ly	c #7E4D2C",
"my	c #83502D",
"ny	c #85522C",
"oy	c #8C552F",
"py	c #8D572F",
"qy	c #88542C",
"ry	c #86532C",
"sy	c #85532C",
"ty	c #824E29",
"uy	c #824A25",
"vy	c #6B3C1D",
"wy	c #5D341B",
"xy	c #4B2B17",
"yy	c #3E2313",
"zy	c #412616",
"Ay	c #392214",
"By	c #2C1A0E",
"Cy	c #7F4220",
"Dy	c #723B1F",
"Ey	c #562F1B",
"Fy	c #562E1A",
"Gy	c #7A3F1E",
"Hy	c #633720",
"Iy	c #4A2917",
"Jy	c #4A2C19",
"Ky	c #64351B",
"Ly	c #281913",
"My	c #9F5F31",
"Ny	c #482818",
"Oy	c #64361E",
"Py	c #62361E",
"Qy	c #512D1A",
"Ry	c #9F6339",
"Sy	c #412918",
"Ty	c #52321C",
"Uy	c #5C381F",
"Vy	c #784726",
"Wy	c #704325",
"Xy	c #683F24",
"Yy	c #432818",
"Zy	c #3B2416",
"`y	c #3B2415",
" z	c #3F2716",
".z	c #432817",
"+z	c #4E311F",
"@z	c #4E311E",
"#z	c #482C1A",
"$z	c #53331D",
"%z	c #57341F",
"&z	c #5D3823",
"*z	c #623C25",
"=z	c #633B24",
"-z	c #744424",
";z	c #734324",
">z	c #693D21",
",z	c #52331F",
"'z	c #4D2F1C",
")z	c #4B2E1C",
"!z	c #4C2F1C",
"~z	c #4F301D",
"{z	c #5B3720",
"]z	c #603B23",
"^z	c #623C23",
"/z	c #643D24",
"(z	c #6D4125",
"_z	c #5B3924",
":z	c #5A3A24",
"<z	c #533421",
"[z	c #A36D44",
"}z	c #552D1A",
"|z	c #3B2013",
"1z	c #7A3F1F",
"2z	c #63351D",
"3z	c #4E2A18",
"4z	c #4B2B19",
"5z	c #63351C",
"6z	c #63371F",
"7z	c #5F351D",
"8z	c #56301A",
"9z	c #63361D",
"0z	c #814421",
"az	c #864622",
"bz	c #9D6037",
"cz	c #3B2010",
"dz	c #462C1B",
"ez	c #422818",
"fz	c #50321D",
"gz	c #563620",
"hz	c #5E3B23",
"iz	c #623D24",
"jz	c #663F25",
"kz	c #674124",
"lz	c #684124",
"mz	c #694225",
"nz	c #6C4226",
"oz	c #6E4327",
"pz	c #704427",
"qz	c #714428",
"rz	c #704528",
"sz	c #6A4125",
"tz	c #623B21",
"uz	c #4B2E1A",
"vz	c #492C19",
"wz	c #492C1A",
"xz	c #4A2D1A",
"yz	c #4C2D1A",
"zz	c #52311C",
"Az	c #4E2F1B",
"Bz	c #472D1D",
"Cz	c #482E1D",
"Dz	c #472E1D",
"Ez	c #472F1E",
"Fz	c #492F1E",
"Gz	c #4C301E",
"Hz	c #4A2E1B",
"Iz	c #482D1A",
"Jz	c #482E1A",
"Kz	c #482F1B",
"Lz	c #4B2F1D",
"Mz	c #4C301D",
"Nz	c #4D301D",
"Oz	c #4C311F",
"Pz	c #492F1D",
"Qz	c #492B19",
"Rz	c #472B19",
"Sz	c #482C19",
"Tz	c #4A2F1C",
"Uz	c #26150E",
"Vz	c #A06941",
"Wz	c #824421",
"Xz	c #713C1F",
"Yz	c #542C18",
"Zz	c #7A4222",
"`z	c #4A2A17",
" A	c #3A1F11",
".A	c #66351A",
"+A	c #61341C",
"@A	c #653F26",
"#A	c #9E5F31",
"$A	c #4D2B19",
"%A	c #58311B",
"&A	c #3B1F10",
"*A	c #201915",
"=A	c #050609",
"-A	c #050508",
";A	c #040506",
">A	c #090604",
",A	c #0C0804",
"'A	c #100B06",
")A	c #110C06",
"!A	c #100906",
"~A	c #150E07",
"{A	c #160E07",
"]A	c #170F08",
"^A	c #171009",
"/A	c #180F08",
"(A	c #191008",
"_A	c #1C120B",
":A	c #1A1009",
"<A	c #181008",
"[A	c #19110A",
"}A	c #181009",
"|A	c #1D0E09",
"1A	c #9B653E",
"2A	c #733D1F",
"3A	c #723C20",
"4A	c #492A17",
"5A	c #3B2012",
"6A	c #7E4120",
"7A	c #6E371B",
"8A	c #562F1A",
"9A	c #60331A",
"0A	c #664026",
"aA	c #9E5E31",
"bA	c #5E331D",
"cA	c #5D341D",
"dA	c #4E2B19",
"eA	c #874621",
"fA	c #84441F",
"gA	c #97572D",
"hA	c #3D2010",
"iA	c #030507",
"jA	c #020508",
"kA	c #050608",
"lA	c #05060A",
"mA	c #06060A",
"nA	c #040608",
"oA	c #030607",
"pA	c #120B08",
"qA	c #130B08",
"rA	c #110B08",
"sA	c #110B07",
"tA	c #100C07",
"uA	c #100C08",
"vA	c #120B07",
"wA	c #120A07",
"xA	c #110A07",
"yA	c #210F0A",
"zA	c #975D38",
"AA	c #834421",
"BA	c #753D1E",
"CA	c #472917",
"DA	c #3E2213",
"EA	c #854522",
"FA	c #7B3D1D",
"GA	c #572E18",
"HA	c #5F3219",
"IA	c #663F26",
"JA	c #9D5E30",
"KA	c #603A24",
"LA	c #5E321D",
"MA	c #63361F",
"NA	c #68381E",
"OA	c #874722",
"PA	c #81421E",
"QA	c #95542C",
"RA	c #3D1F10",
"SA	c #140E0B",
"TA	c #140F0A",
"UA	c #18120C",
"VA	c #1A120C",
"WA	c #0E0906",
"XA	c #1A120B",
"YA	c #1C130B",
"ZA	c #1D130B",
"`A	c #1D140C",
" B	c #150E09",
".B	c #1A110A",
"+B	c #1A120A",
"@B	c #1B120A",
"#B	c #1B130A",
"$B	c #1B130B",
"%B	c #0C0806",
"&B	c #1B130C",
"*B	c #130B06",
"=B	c #21100A",
"-B	c #8B4E2C",
";B	c #824320",
">B	c #6E3B1E",
",B	c #703A1D",
"'B	c #3E2214",
")B	c #7D4020",
"!B	c #7F411E",
"~B	c #5A2F19",
"{B	c #5D3118",
"]B	c #9C5C2F",
"^B	c #5F331D",
"/B	c #6B381E",
"(B	c #814320",
"_B	c #904F29",
":B	c #3D1E10",
"<B	c #1D130D",
"[B	c #1F140E",
"}B	c #1B130F",
"|B	c #21150E",
"1B	c #312016",
"2B	c #21150F",
"3B	c #21150D",
"4B	c #0D0807",
"5B	c #1F140D",
"6B	c #22100A",
"7B	c #884A27",
"8B	c #834520",
"9B	c #6C3A1E",
"0B	c #7E4221",
"aB	c #6E3A1D",
"bB	c #482819",
"cB	c #763C1E",
"dB	c #80411E",
"eB	c #5D321C",
"fB	c #4B2A19",
"gB	c #653E25",
"hB	c #9C5C2E",
"iB	c #633B23",
"jB	c #60331D",
"kB	c #64371F",
"lB	c #512B18",
"mB	c #6A371C",
"nB	c #7D411E",
"oB	c #8A4A24",
"pB	c #3C1F11",
"qB	c #160F0D",
"rB	c #040407",
"sB	c #3F2F23",
"tB	c #2D1C15",
"uB	c #2D1C14",
"vB	c #563C2C",
"wB	c #291A11",
"xB	c #291B12",
"yB	c #26180F",
"zB	c #090709",
"AB	c #2A1B12",
"BB	c #382619",
"CB	c #302016",
"DB	c #231A14",
"EB	c #2B1B14",
"FB	c #150D0B",
"GB	c #1A0D09",
"HB	c #885236",
"IB	c #69371B",
"JB	c #804421",
"KB	c #6E3A1E",
"LB	c #733B1D",
"MB	c #80421F",
"NB	c #5A301A",
"OB	c #643E25",
"PB	c #643620",
"QB	c #4D2816",
"RB	c #6E381C",
"SB	c #82441F",
"TB	c #7C411F",
"UB	c #8C4C25",
"VB	c #391E11",
"WB	c #352318",
"XB	c #140D0B",
"YB	c #030407",
"ZB	c #553E2D",
"`B	c #331F16",
" C	c #332019",
".C	c #312017",
"+C	c #2E1D16",
"@C	c #170D09",
"#C	c #634431",
"$C	c #332118",
"%C	c #332117",
"&C	c #342117",
"*C	c #342118",
"=C	c #3E281C",
"-C	c #312015",
";C	c #040507",
">C	c #483124",
",C	c #342017",
"'C	c #2B1B12",
")C	c #49392D",
"!C	c #32211A",
"~C	c #7F4C34",
"{C	c #69361B",
"]C	c #834523",
"^C	c #6B381C",
"/C	c #492917",
"(C	c #5F311A",
"_C	c #804320",
":C	c #562D18",
"<C	c #60331E",
"[C	c #663822",
"}C	c #482513",
"|C	c #703A1C",
"1C	c #824420",
"2C	c #773F1D",
"3C	c #8E4E26",
"4C	c #32190D",
"5C	c #1D140F",
"6C	c #160F0B",
"7C	c #513B2A",
"8C	c #301F16",
"9C	c #63422E",
"0C	c #311F14",
"aC	c #2F1E16",
"bC	c #140E09",
"cC	c #39261A",
"dC	c #422A1E",
"eC	c #2C1C14",
"fC	c #030609",
"gC	c #432F23",
"hC	c #24150E",
"iC	c #1A0F0A",
"jC	c #49372B",
"kC	c #472F21",
"lC	c #1F0F0A",
"mC	c #7D4322",
"nC	c #67351A",
"oC	c #68361C",
"pC	c #59301A",
"qC	c #582F19",
"rC	c #4B2B1A",
"sC	c #633D24",
"tC	c #9E5D2D",
"uC	c #693820",
"vC	c #643721",
"wC	c #542D19",
"xC	c #6F3A1C",
"yC	c #814420",
"zC	c #733D1E",
"AC	c #8F5028",
"BC	c #2D170A",
"CC	c #301F14",
"DC	c #40291A",
"EC	c #3F2719",
"FC	c #3B2517",
"GC	c #432A1B",
"HC	c #4A2E1D",
"IC	c #302014",
"JC	c #66432D",
"KC	c #472C1D",
"LC	c #412A1B",
"MC	c #3A2616",
"NC	c #3C271A",
"OC	c #2C190D",
"PC	c #492D1E",
"QC	c #482E1F",
"RC	c #3E281A",
"SC	c #482E1C",
"TC	c #492E1C",
"UC	c #4B2E1E",
"VC	c #472D1C",
"WC	c #472D1F",
"XC	c #26170E",
"YC	c #1B130D",
"ZC	c #4E3422",
"`C	c #2A1B11",
" D	c #472D1E",
".D	c #3E2616",
"+D	c #4C2F1B",
"@D	c #492E1E",
"#D	c #190F0A",
"$D	c #402F23",
"%D	c #4E3423",
"&D	c #372317",
"*D	c #22160D",
"=D	c #814523",
"-D	c #854722",
";D	c #67361C",
">D	c #763D20",
",D	c #592F1A",
"'D	c #59301B",
")D	c #4D2A18",
"!D	c #5E321C",
"~D	c #9F5D2E",
"{D	c #63381F",
"]D	c #6A3820",
"^D	c #61321C",
"/D	c #78401F",
"(D	c #925329",
"_D	c #2B160B",
":D	c #1E150F",
"<D	c #2E1D12",
"[D	c #4D2E1B",
"}D	c #322014",
"|D	c #030506",
"1D	c #513825",
"2D	c #3E271A",
"3D	c #50311E",
"4D	c #322213",
"5D	c #4E2E1B",
"6D	c #52311D",
"7D	c #462F20",
"8D	c #2C190E",
"9D	c #3D2719",
"0D	c #593722",
"aD	c #3A2213",
"bD	c #342013",
"cD	c #4D2F1F",
"dD	c #1C140D",
"eD	c #040607",
"fD	c #4F3625",
"gD	c #5C3823",
"hD	c #422919",
"iD	c #4C2E1F",
"jD	c #33281E",
"kD	c #533C28",
"lD	c #41291A",
"mD	c #50311F",
"nD	c #352217",
"oD	c #37241A",
"pD	c #20160E",
"qD	c #1B0E09",
"rD	c #824624",
"sD	c #67371E",
"tD	c #5F321A",
"uD	c #6B3921",
"vD	c #62331C",
"wD	c #67371F",
"xD	c #6B391F",
"yD	c #6A371B",
"zD	c #94552C",
"AD	c #2B150A",
"BD	c #4F2E1B",
"CD	c #3B2519",
"DD	c #3A2113",
"ED	c #51311F",
"FD	c #342214",
"GD	c #70462C",
"HD	c #502E1B",
"ID	c #50311D",
"JD	c #2B180E",
"KD	c #392519",
"LD	c #5D3B24",
"MD	c #452818",
"ND	c #4F3120",
"OD	c #3B2314",
"PD	c #311E12",
"QD	c #533828",
"RD	c #221A13",
"SD	c #5A412C",
"TD	c #412819",
"UD	c #37241B",
"VD	c #190C08",
"WD	c #844724",
"XD	c #68381F",
"YD	c #57301A",
"ZD	c #713B1D",
"`D	c #7F4423",
" E	c #4C2817",
".E	c #592E18",
"+E	c #4E2816",
"@E	c #66361E",
"#E	c #91542D",
"$E	c #1E1410",
"%E	c #522F1C",
"&E	c #1F140F",
"*E	c #020407",
"=E	c #523827",
"-E	c #3C261A",
";E	c #362216",
">E	c #0D0A08",
",E	c #352214",
"'E	c #72462C",
")E	c #2C1C12",
"!E	c #4A301F",
"~E	c #2A170D",
"{E	c #613E28",
"]E	c #472918",
"^E	c #593B28",
"/E	c #5E3620",
"(E	c #392417",
"_E	c #0E0B09",
":E	c #5E422E",
"<E	c #362318",
"[E	c #3A231B",
"}E	c #39241A",
"|E	c #844726",
"1E	c #884822",
"2E	c #412314",
"3E	c #4F2B19",
"4E	c #522C19",
"5E	c #542B17",
"6E	c #5E3820",
"7E	c #A05D2E",
"8E	c #482515",
"9E	c #693920",
"0E	c #6B3920",
"aE	c #6C3A21",
"bE	c #6C391E",
"cE	c #90542E",
"dE	c #2A160A",
"eE	c #4F2E1E",
"fE	c #372315",
"gE	c #010408",
"hE	c #4F3626",
"iE	c #603B24",
"jE	c #3B2619",
"kE	c #0A0908",
"lE	c #512F1D",
"mE	c #4D2E1D",
"nE	c #4F3222",
"oE	c #29190F",
"pE	c #64412A",
"qE	c #372215",
"rE	c #1F150F",
"sE	c #040405",
"tE	c #5B3B28",
"uE	c #5F3621",
"vE	c #050607",
"wE	c #5D402D",
"xE	c #38231A",
"yE	c #372419",
"zE	c #844828",
"AE	c #693A1F",
"BE	c #4F2B1B",
"CE	c #4D2A19",
"DE	c #4D2918",
"EE	c #4D2919",
"FE	c #522B18",
"GE	c #A15D2D",
"HE	c #472718",
"IE	c #6A3921",
"JE	c #6D3A21",
"KE	c #8E542E",
"LE	c #29150B",
"ME	c #2E1C11",
"NE	c #4E3425",
"OE	c #633E27",
"PE	c #4C2E1D",
"QE	c #51301F",
"RE	c #4E2E1F",
"SE	c #090708",
"TE	c #75492D",
"UE	c #4D2D1A",
"VE	c #4F3221",
"WE	c #503021",
"XE	c #201510",
"YE	c #050305",
"ZE	c #5D3D29",
"`E	c #231711",
" F	c #030406",
".F	c #66442F",
"+F	c #814627",
"@F	c #683820",
"#F	c #3D2114",
"$F	c #4F2B1A",
"%F	c #502B1A",
"&F	c #502B19",
"*F	c #141011",
"=F	c #643C23",
"-F	c #A25D2E",
";F	c #402315",
">F	c #633520",
",F	c #8E532F",
"'F	c #2A160C",
")F	c #1D1410",
"!F	c #020306",
"~F	c #5D3E2C",
"{F	c #653E27",
"]F	c #3D2617",
"^F	c #261A13",
"/F	c #60402A",
"(F	c #54321D",
"_F	c #4F3021",
":F	c #654229",
"<F	c #4E2C18",
"[F	c #3E2617",
"}F	c #080405",
"|F	c #5E3E29",
"1F	c #4F2E1D",
"2F	c #030405",
"3F	c #704930",
"4F	c #513625",
"5F	c #37231A",
"6F	c #67381F",
"7F	c #3C2115",
"8F	c #4B2917",
"9F	c #42291E",
"0F	c #151012",
"aF	c #653D25",
"bF	c #A25E2E",
"cF	c #5C351F",
"dF	c #3D2012",
"eF	c #683922",
"fF	c #6A3A21",
"gF	c #915630",
"hF	c #352018",
"iF	c #010305",
"jF	c #5E3E28",
"kF	c #673F26",
"lF	c #0B0808",
"mF	c #241913",
"nF	c #73492D",
"oF	c #65442D",
"pF	c #664229",
"qF	c #4F2D1B",
"rF	c #422716",
"sF	c #3C2213",
"tF	c #150C0A",
"uF	c #5B3B27",
"vF	c #533422",
"wF	c #231812",
"xF	c #010407",
"yF	c #2A1A10",
"zF	c #72482E",
"AF	c #382214",
"BF	c #583A26",
"CF	c #503421",
"DF	c #7C4222",
"EF	c #4C2B13",
"FF	c #604A16",
"GF	c #3B241A",
"HF	c #1A1312",
"IF	c #A35F30",
"JF	c #552E19",
"KF	c #693A20",
"LF	c #6B3A21",
"MF	c #915731",
"NF	c #2A160B",
"OF	c #372219",
"PF	c #5D3C26",
"QF	c #231A13",
"RF	c #744A2C",
"SF	c #55331E",
"TF	c #52311F",
"UF	c #69422A",
"VF	c #331E11",
"WF	c #221811",
"XF	c #261912",
"YF	c #5F3C25",
"ZF	c #5D3921",
"`F	c #523120",
" G	c #010406",
".G	c #362215",
"+G	c #72472B",
"@G	c #362119",
"#G	c #533826",
"$G	c #4D3221",
"%G	c #844420",
"&G	c #68391F",
"*G	c #4D2A16",
"=G	c #543617",
"-G	c #4E2B1A",
";G	c #4C2919",
">G	c #522D1A",
",G	c #392016",
"'G	c #171112",
")G	c #A35F31",
"!G	c #442617",
"~G	c #663922",
"{G	c #693A21",
"]G	c #6B3B21",
"^G	c #6C3C20",
"/G	c #6E3C20",
"(G	c #925933",
"_G	c #29150A",
":G	c #1E1510",
"<G	c #5F3F29",
"[G	c #3F291D",
"}G	c #512F1B",
"|G	c #4F2F1F",
"1G	c #41281A",
"2G	c #0F0908",
"3G	c #281D16",
"4G	c #764B2E",
"5G	c #3E261A",
"6G	c #352218",
"7G	c #694329",
"8G	c #53321D",
"9G	c #26170C",
"0G	c #3F2617",
"aG	c #221711",
"bG	c #2C1D16",
"cG	c #613D26",
"dG	c #573822",
"eG	c #513220",
"fG	c #1F160E",
"gG	c #452B1B",
"hG	c #221611",
"iG	c #3C2516",
"jG	c #73472A",
"kG	c #7C4324",
"lG	c #7F4222",
"mG	c #442414",
"nG	c #1B1312",
"oG	c #A46032",
"pG	c #6A3B21",
"qG	c #6D3C20",
"rG	c #935B35",
"sG	c #29170B",
"tG	c #1F1510",
"uG	c #1E140C",
"vG	c #080708",
"wG	c #5E3E2A",
"xG	c #6A4328",
"yG	c #382218",
"zG	c #442A1A",
"AG	c #312319",
"BG	c #754B2E",
"CG	c #4F2C1B",
"DG	c #21140B",
"EG	c #6C462C",
"FG	c #482D1E",
"GG	c #533321",
"HG	c #221810",
"IG	c #613C26",
"JG	c #593723",
"KG	c #281B11",
"LG	c #2F1F15",
"MG	c #4B2C1D",
"NG	c #3F2816",
"OG	c #72482A",
"PG	c #392319",
"QG	c #37251D",
"RG	c #7B4426",
"SG	c #7D4223",
"TG	c #381E11",
"UG	c #4C2B18",
"VG	c #381F12",
"WG	c #3D2113",
"XG	c #191212",
"YG	c #A35F32",
"ZG	c #643820",
"`G	c #6B3C20",
" H	c #6D3C21",
".H	c #8D5530",
"+H	c #2A170C",
"@H	c #5C3B2A",
"#H	c #6A402A",
"$H	c #442A19",
"%H	c #140C08",
"&H	c #754A2F",
"*H	c #593724",
"=H	c #362219",
"-H	c #352219",
";H	c #67432A",
">H	c #241711",
",H	c #613D25",
"'H	c #533420",
")H	c #492C1D",
"!H	c #422A18",
"~H	c #72462B",
"{H	c #45291A",
"]H	c #3A2519",
"^H	c #7B4527",
"/H	c #361D10",
"(H	c #4C2A18",
"_H	c #492716",
":H	c #331C11",
"<H	c #0F0E0F",
"[H	c #9E5B2F",
"}H	c #65381F",
"|H	c #532E18",
"1H	c #8A532E",
"2H	c #29160C",
"3H	c #5A3928",
"4H	c #6A402B",
"5H	c #442919",
"6H	c #39271B",
"7H	c #75492F",
"8H	c #4A2B1C",
"9H	c #3C2314",
"0H	c #543626",
"aH	c #1F140C",
"bH	c #25160D",
"cH	c #68442B",
"dH	c #332016",
"eH	c #583823",
"fH	c #442C1E",
"gH	c #422A1A",
"hH	c #71442D",
"iH	c #38261C",
"jH	c #7B4528",
"kH	c #7F4223",
"lH	c #3B1F11",
"mH	c #4C2917",
"nH	c #482716",
"oH	c #2F1A0F",
"pH	c #100E0F",
"qH	c #181212",
"rH	c #9D5A2E",
"sH	c #592F19",
"tH	c #462413",
"uH	c #6C3C21",
"vH	c #89532F",
"wH	c #2B170C",
"xH	c #553321",
"yH	c #020406",
"zH	c #573A26",
"AH	c #6D432A",
"BH	c #3C291C",
"CH	c #73482B",
"DH	c #26180E",
"EH	c #613B25",
"FH	c #5C3926",
"GH	c #70452C",
"HH	c #3A241A",
"IH	c #7C462A",
"JH	c #61351F",
"KH	c #4D2917",
"LH	c #4A2817",
"MH	c #2E170B",
"NH	c #321B10",
"OH	c #161112",
"PH	c #5A3823",
"QH	c #9D5C2F",
"RH	c #502D1B",
"SH	c #482615",
"TH	c #6F3E21",
"UH	c #8B5633",
"VH	c #2E190F",
"WH	c #3A2319",
"XH	c #010306",
"YH	c #452D1C",
"ZH	c #6F452B",
"`H	c #4E2D1D",
" I	c #180D09",
".I	c #3D281B",
"+I	c #734628",
"@I	c #53301C",
"#I	c #321D12",
"$I	c #503628",
"%I	c #291B11",
"&I	c #69452C",
"*I	c #513222",
"=I	c #312018",
"-I	c #613C24",
";I	c #71452D",
">I	c #7C472B",
",I	c #894925",
"'I	c #32190E",
")I	c #4B2817",
"!I	c #3C1E11",
"~I	c #331C0F",
"{I	c #442417",
"]I	c #6C391D",
"^I	c #6D391C",
"/I	c #885532",
"(I	c #1C110D",
"_I	c #392516",
":I	c #140A07",
"<I	c #1D120A",
"[I	c #392619",
"}I	c #462F21",
"|I	c #68442C",
"1I	c #4E3120",
"2I	c #623C24",
"3I	c #4C2D1E",
"4I	c #3F261A",
"5I	c #55311F",
"6I	c #070607",
"7I	c #71462C",
"8I	c #7C482B",
"9I	c #8A4B27",
"0I	c #351D12",
"aI	c #371D11",
"bI	c #482717",
"cI	c #7F4A2A",
"dI	c #7F4E2C",
"eI	c #2F1B11",
"fI	c #221713",
"gI	c #A26135",
"hI	c #442518",
"iI	c #522C1A",
"jI	c #743E1D",
"kI	c #763F1D",
"lI	c #85512F",
"mI	c #70482E",
"nI	c #190D07",
"oI	c #1E130A",
"pI	c #2C1C10",
"qI	c #7A4C2F",
"rI	c #3A2318",
"sI	c #4D301F",
"tI	c #5A3824",
"uI	c #653E24",
"vI	c #553520",
"wI	c #0A0708",
"xI	c #7A4629",
"yI	c #894B27",
"zI	c #2D180C",
"AI	c #432414",
"BI	c #4F2916",
"CI	c #844E2C",
"DI	c #915932",
"EI	c #5C3B26",
"FI	c #4C3120",
"GI	c #A36337",
"HI	c #4A2A1B",
"II	c #452519",
"JI	c #452618",
"KI	c #8A5835",
"LI	c #623820",
"MI	c #79401D",
"NI	c #7D4827",
"OI	c #201611",
"PI	c #372418",
"QI	c #130C0A",
"RI	c #040508",
"SI	c #6B462D",
"TI	c #533220",
"UI	c #492A1D",
"VI	c #1B0E06",
"WI	c #774A2C",
"XI	c #3A271B",
"YI	c #2A1D12",
"ZI	c #3F2517",
"`I	c #5A3A27",
" J	c #513120",
".J	c #56321F",
"+J	c #412B1C",
"@J	c #74482D",
"#J	c #784427",
"$J	c #894C28",
"%J	c #5D3520",
"&J	c #2B170D",
"*J	c #3C2012",
"=J	c #412113",
"-J	c #814D2A",
";J	c #74492D",
">J	c #161012",
",J	c #452C1D",
"'J	c #A26439",
")J	c #47261A",
"!J	c #754B2D",
"~J	c #482918",
"{J	c #7A421E",
"]J	c #361F12",
"^J	c #382517",
"/J	c #392518",
"(J	c #120C0A",
"_J	c #040509",
":J	c #64422B",
"<J	c #462C1E",
"[J	c #392218",
"}J	c #180D06",
"|J	c #71472B",
"1J	c #452E21",
"2J	c #311F13",
"3J	c #3B271A",
"4J	c #23150C",
"5J	c #4E2E1A",
"6J	c #513221",
"7J	c #563925",
"8J	c #673F27",
"9J	c #3E2A1B",
"0J	c #442A1D",
"aJ	c #764327",
"bJ	c #8A4C28",
"cJ	c #402314",
"dJ	c #3C1F12",
"eJ	c #5A2E18",
"fJ	c #9D6239",
"gJ	c #3F2416",
"hJ	c #4B2B1B",
"iJ	c #47271A",
"jJ	c #754B2F",
"kJ	c #523423",
"lJ	c #7A411E",
"mJ	c #271910",
"nJ	c #140D06",
"oJ	c #67442C",
"pJ	c #4D3222",
"qJ	c #39231A",
"rJ	c #402A1D",
"sJ	c #190F08",
"tJ	c #67442D",
"uJ	c #50301B",
"vJ	c #573926",
"wJ	c #0C0909",
"xJ	c #392719",
"yJ	c #71472C",
"zJ	c #4F3020",
"AJ	c #2C1D14",
"BJ	c #8A4C29",
"CJ	c #2A180E",
"DJ	c #532E1B",
"EJ	c #442516",
"FJ	c #452414",
"GJ	c #391E12",
"HJ	c #5A2F1A",
"IJ	c #130F11",
"JJ	c #372113",
"KJ	c #9B6139",
"LJ	c #3F2415",
"MJ	c #4B2B1C",
"NJ	c #7A4B2C",
"OJ	c #7B411F",
"PJ	c #361E12",
"QJ	c #17110D",
"RJ	c #65402A",
"SJ	c #321E13",
"TJ	c #62412A",
"UJ	c #442D1E",
"VJ	c #1B100B",
"WJ	c #3D2718",
"XJ	c #543322",
"YJ	c #251912",
"ZJ	c #633D26",
"`J	c #442B1B",
" K	c #0E0908",
".K	c #342317",
"+K	c #6E462B",
"@K	c #281A13",
"#K	c #734023",
"$K	c #8B4E2A",
"%K	c #613E2C",
"&K	c #462616",
"*K	c #351B10",
"=K	c #592E1A",
"-K	c #99623B",
";K	c #3E2316",
">K	c #462719",
",K	c #8A522B",
"'K	c #341D12",
")K	c #110D09",
"!K	c #251911",
"~K	c #271B11",
"{K	c #2E1D11",
"]K	c #1A120D",
"^K	c #24140C",
"/K	c #56331E",
"(K	c #5A3B25",
"_K	c #412B1D",
":K	c #1A0F09",
"<K	c #5E3F2A",
"[K	c #331E15",
"}K	c #3C271B",
"|K	c #261A12",
"1K	c #553824",
"2K	c #100A0A",
"3K	c #2F2016",
"4K	c #744023",
"5K	c #8C4D29",
"6K	c #2C180D",
"7K	c #432415",
"8K	c #452514",
"9K	c #4F2B18",
"0K	c #572D19",
"aK	c #915F3C",
"bK	c #412317",
"cK	c #65381E",
"dK	c #341C12",
"eK	c #674029",
"fK	c #2B1910",
"gK	c #5B3923",
"hK	c #43281B",
"iK	c #22150C",
"jK	c #1B0F07",
"kK	c #5F3F2B",
"lK	c #371F16",
"mK	c #492D1F",
"nK	c #0B0807",
"oK	c #533623",
"pK	c #623E26",
"qK	c #24160D",
"rK	c #120A0A",
"sK	c #25180F",
"tK	c #704830",
"uK	c #2A1B14",
"vK	c #8A4B26",
"wK	c #683C21",
"xK	c #2F190E",
"yK	c #4A4819",
"zK	c #56411A",
"AK	c #4A2816",
"BK	c #311A10",
"CK	c #582D18",
"DK	c #4B2A1A",
"EK	c #543120",
"FK	c #48281B",
"GK	c #271913",
"HK	c #020205",
"IK	c #613D27",
"JK	c #603C25",
"KK	c #5D3D28",
"LK	c #3E271C",
"MK	c #211711",
"NK	c #5F3A24",
"OK	c #39231B",
"PK	c #392217",
"QK	c #110B09",
"RK	c #6A432D",
"SK	c #3C2319",
"TK	c #6D4226",
"UK	c #2E190E",
"VK	c #382012",
"WK	c #4F2C19",
"XK	c #502C1A",
"YK	c #2A170E",
"ZK	c #5B301A",
"`K	c #5A3523",
" L	c #432618",
".L	c #090605",
"+L	c #65412A",
"@L	c #3B251A",
"#L	c #281A10",
"$L	c #382219",
"%L	c #090608",
"&L	c #4C301F",
"*L	c #29180E",
"=L	c #66402B",
"-L	c #31190C",
";L	c #5B2F1B",
">L	c #422517",
",L	c #371E12",
"'L	c #593522",
")L	c #49281A",
"!L	c #49291B",
"~L	c #351D10",
"{L	c #21150C",
"]L	c #6A482E",
"^L	c #452E20",
"/L	c #160C07",
"(L	c #603E28",
"_L	c #2A1D14",
":L	c #523724",
"<L	c #201710",
"[L	c #080607",
"}L	c #472E1E",
"|L	c #1B110C",
"1L	c #66422C",
"2L	c #322217",
"3L	c #271A13",
"4L	c #864B28",
"5L	c #301B10",
"6L	c #4E2B1B",
"7L	c #30180B",
"8L	c #542C17",
"9L	c #392116",
"0L	c #6C4129",
"aL	c #361B10",
"bL	c #553423",
"cL	c #422417",
"dL	c #452718",
"eL	c #1C120A",
"fL	c #382417",
"gL	c #24180F",
"hL	c #221710",
"iL	c #180F07",
"jL	c #0F0B06",
"kL	c #261910",
"lL	c #251910",
"mL	c #25190E",
"nL	c #27190F",
"oL	c #26190F",
"pL	c #372417",
"qL	c #824625",
"rL	c #65391F",
"sL	c #301A0F",
"tL	c #311B10",
"uL	c #4E2C1B",
"vL	c #33180C",
"wL	c #2C180F",
"xL	c #6F3D22",
"yL	c #381C10",
"zL	c #442616",
"AL	c #140B07",
"BL	c #0D0805",
"CL	c #130D09",
"DL	c #160E0A",
"EL	c #150D07",
"FL	c #140D08",
"GL	c #120D07",
"HL	c #774226",
"IL	c #311B0F",
"JL	c #341D10",
"KL	c #402414",
"LL	c #4C2C1A",
"ML	c #34190E",
"NL	c #2E1910",
"OL	c #3D2013",
"PL	c #703F24",
"QL	c #492B1C",
"RL	c #452717",
"SL	c #0C0908",
"TL	c #271A0F",
"UL	c #63412B",
"VL	c #68452D",
"WL	c #6C472D",
"XL	c #6D482D",
"YL	c #6E482E",
"ZL	c #69472D",
"`L	c #5D3E29",
" M	c #543825",
".M	c #4C3220",
"+M	c #4B3221",
"@M	c #4C3423",
"#M	c #4F3623",
"$M	c #503623",
"%M	c #503520",
"&M	c #523622",
"*M	c #553724",
"=M	c #573825",
"-M	c #573824",
";M	c #563823",
">M	c #543623",
",M	c #513320",
"'M	c #4D311E",
")M	c #4D3220",
"!M	c #402817",
"~M	c #472E1C",
"{M	c #503422",
"]M	c #543723",
"^M	c #593A24",
"/M	c #5A3B26",
"(M	c #5C3C26",
"_M	c #5C3B25",
":M	c #5B3A24",
"<M	c #583A25",
"[M	c #573924",
"}M	c #553723",
"|M	c #543622",
"1M	c #4A301D",
"2M	c #4F3521",
"3M	c #553823",
"4M	c #583924",
"5M	c #5B3B24",
"6M	c #5C3C25",
"7M	c #5E3C26",
"8M	c #5F3E28",
"9M	c #5D3D27",
"0M	c #5F3D27",
"aM	c #603E27",
"bM	c #603F27",
"cM	c #614029",
"dM	c #644029",
"eM	c #634028",
"fM	c #68432C",
"gM	c #68432B",
"hM	c #69432C",
"iM	c #67432C",
"jM	c #65422B",
"kM	c #62412B",
"lM	c #5F3E29",
"mM	c #563724",
"nM	c #190F07",
"oM	c #271A10",
"pM	c #734428",
"qM	c #6F3E23",
"rM	c #321A0E",
"sM	c #4F2D1A",
"tM	c #351B0F",
"uM	c #3C2014",
"vM	c #371D12",
"wM	c #3A1F14",
"xM	c #5A3721",
"yM	c #5C3923",
"zM	c #5C3A23",
"AM	c #5D3A23",
"BM	c #5E3A24",
"CM	c #663F24",
"DM	c #673E25",
"EM	c #653F25",
"FM	c #663E28",
"GM	c #653F27",
"HM	c #674027",
"IM	c #684128",
"JM	c #684127",
"KM	c #6A4329",
"LM	c #6C452A",
"MM	c #6E462C",
"NM	c #6F462B",
"OM	c #70462A",
"PM	c #6C432A",
"QM	c #6C4429",
"RM	c #6D4529",
"SM	c #6B4328",
"TM	c #694127",
"UM	c #6A4128",
"VM	c #734327",
"WM	c #64361D",
"XM	c #381D12",
"YM	c #3B1F12",
"ZM	c #472717",
"`M	c #321B11",
" N	c #693921",
".N	c #3D2014",
"+N	c #482B1D",
"@N	c #3B1F14",
"#N	c #3B2014",
"$N	c #301B0F",
"%N	c #4D3020",
"&N	c #57331D",
"*N	c #57321D",
"=N	c #56311E",
"-N	c #55311C",
";N	c #56311D",
">N	c #442A18",
",N	c #5F3822",
"'N	c #7F4726",
")N	c #331A0E",
"!N	c #361C10",
"~N	c #502D1C",
"{N	c #351C12",
"]N	c #391F13",
"^N	c #321C10",
"/N	c #3E2216",
"(N	c #432417",
"_N	c #130B09",
":N	c #2C1D12",
"<N	c #533120",
"[N	c #3C2416",
"}N	c #351F12",
"|N	c #3F281A",
"1N	c #76492F",
"2N	c #723F21",
"3N	c #834822",
"4N	c #351C11",
"5N	c #603621",
"6N	c #321B12",
"7N	c #3F2116",
"8N	c #332013",
"9N	c #3A261A",
"0N	c #3B271B",
"aN	c #3C281C",
"bN	c #432A1A",
"cN	c #3B2518",
"dN	c #3B2618",
"eN	c #3E281B",
"fN	c #312117",
"gN	c #6D432B",
"hN	c #391B0F",
"iN	c #502B17",
"jN	c #2E180F",
"kN	c #2E180E",
"lN	c #371F15",
"mN	c #341C11",
"nN	c #100A08",
"oN	c #573727",
"pN	c #342216",
"qN	c #3B261A",
"rN	c #3B1E12",
"sN	c #3A1E12",
"tN	c #371C10",
"uN	c #1A110E",
"vN	c #3D2115",
"wN	c #402317",
"xN	c #0E0808",
"yN	c #2A1C13",
"zN	c #301910",
"AN	c #3B1F13",
"BN	c #331A0F",
"CN	c #2A170F",
"DN	c #2F1910",
"EN	c #140F0E",
"FN	c #0F0C0C",
"GN	c #0C0C0C",
"HN	c #16100E",
"IN	c #1F130F",
"JN	c #251612",
"KN	c #20130F",
"LN	c #1D120F",
"MN	c #1D1411",
"NN	c #1F1411",
"ON	c #0E0D0C",
"PN	c #1A1511",
"QN	c #1A1510",
"RN	c #1A140F",
"SN	c #191411",
"TN	c #191410",
"UN	c #1B1410",
"VN	c #1B1511",
"WN	c #1C1511",
"XN	c #1D1512",
"YN	c #130E0D",
"ZN	c #130E0C",
"`N	c #1F1410",
" O	c #18100F",
".O	c #110F10",
"+O	c #0E0E10",
"@O	c #0E0F11",
"#O	c #0E0F10",
"$O	c #0E0E11",
"%O	c #0F1011",
"&O	c #0E1011",
"*O	c #0E0F12",
"                                                                                                                                                                                                                                                                ",
"                                                                                                                                                                                                                                                                ",
"                                                                                                                                                                                                                                                                ",
"                                                                                                                                                                                                                                                                ",
"                      . + @                                                                                                                                                                                                       # $ % & *                     ",
"                    = - ; > , '                                                                                                                                                                                                 ) ! ~ { ] ^ /                   ",
"                  ( _ : < [ } |                                                                                                                                                                                               1 2 3 4 5 6 7 8                   ",
"                  9 0 a b c d e f                             g h i                                   g j k                                         l m n                                 o p q                         r s t u v w x y z A B C                 ",
"                E F G H I J K L M N O P Q R S   T U V W     X Y Z `  .                              ..+.@.#.$.                                    %.&.*.=.-.                            ;.>.,.'.).        !.~.{.].^./.(._.:.<.[.}.$.|.1.2.3.4./                 ",
"                5.6.7.8.9.;.0.a.b.c.d.e.f.g.h.i.j.k.l.m.n.o.p.q.r.s.t.u.v.w.x.y.z.z.A.B.z.z.C.D.E.F.G.H.I.J.K.L.M.N.O.P.O.O.Q.R.S.T.U.V.W.X.Y.Z.`. +.+++@+#+$+y.%+%+&+z.%+z.*+*+C.=+-+;+>+,+'+)+!+~+{+]+^+/+(+_+:+<+[+}+|+1+2+3+4+0.5+6+7+8+9+0+                ",
"                a+b+6.c+d+e+f+g+h+i+j+k+l+m+n+o+p+q+r+s+t+w u+v+w+x+o y+z+A+B+C+D+E+F+G+C+C+H+6 I+J+K+L+M+N+O+P+Q+R+S+T+U+V+W+X+Y+Z+`+ @.@+@@@#@$@%@&@*@=@-@;@>@,@'@)@!@~@{@]@^@/@(@_@:@<@[@}@|@1@2@3@4@5@6@7@8@9@0@a@b@c@d@e@f@g@0.h@i@j@k@l@m@                ",
"              n@o@p@q@r@s@t@t@u@v@w@x@y@z@A@B@C@D@E@F@G@H@I@J@K@L@M@e+N@O@P@Q@R@S@S@T@U@V@W@X@Y@Z@`@ #.#+#<@@###$#%#%#T@&#*#=#-#*#;#>#,#'#)#!#~#{#]# +^#/#(#_#:#<#[#}#|#1#2#3#4#5#6#7#8#9#0#L@a#b#c#d#e#f#g#h#i#j#k#l#m#n#o#p#q#r#s#t#M@u#v#w#x#                ",
"              y#z#A#B#C#D#E#F#G#H#I#J#K#L#M#N#O#P#W@Q#R#S#p@T#U#V#W#X#Y#[@z@Z#`# $ $.$+$`#Z@@$#$$$%$&$*$=$-$;$>$,$ $R#'$)$!$~${$]$i#^$/$($_$:$<$[$}$|$0 1$2$3$4$5$+$5$6$7$6$8$9$0$a$b$c$d$e$f$g$h$i$j$k$l$l$m$n$o$p$q$r$s$t$u$v$w$x$E#y$z$A$m#B$C$              ",
"              D$E$F$G$H$).F#I$F#H$2 J$K$L$M$N$O$P$Q$$#T@R$S$T#V@T$U$F#V$W$X$Y$Z$`$V# %.%+%@%#%$%%%&%*%<#{$=%-%;%>%[ [ ,%'%,%)%!%>%~%{%]%^%/%(%_%:%<%[%L@}%|%1%2%3%y+y+4%5%6%7%X$8%9%0%/$a%b%W$a#c%d%e%f%V#g%K$g%h%h%i%[ j%k%l%m%n%o%p%q%r%s%l#t%u%              ",
"              v%w%x%3 y%z%F#F#E#p%F#A%B%y+C%C%C%;%;%D%'%`@+%E%F%G%H%F#F#I%J%K%d#L%L%i%M%L#V#N%V#F$O%F$P%Q%=%R%S%T%U%V%V%V%V#V%l#U%U%U%l#F$W%X%Y%y+D#|$Z%`% &=%t..&+&@&#&$&%&&&$&*&*&=&B%-&;&>&L@,&9#'&)&!&~&C%{&]&A%^&t@t@t@/&x$(&p%F#_&]&:&<&[&}&              ",
"                |&1&2&3&4&5&6&G#7&F#F#-%G#F#F#8&0.9&G#p%0&).a&e%b&v%F#F#F#-%F#F#F#G#G#F#F#F#7&^&c&o d&e&f&g&h&F#]#]#i&i&i&i&j&k&l&j&m&n&c&^&^&^&F#F#o&l$p&q&r&s&7&G#G#G#G#G#G#G#G#G#F#-%I$t&u&v&w&x&y&I$G#-%G#G#G#G#G#-%G#t@t@z&A&B&C&D&3&:&E&F&                ",
"                G&H&I&J&K&L&M&N&O&P&F#h&e+Q&;.R&S&$%T&U&V&W&X&Y&Z&`&G#F#F#F# *.*+*@*#*#*C&$*0.%*G#[%&*I#**W&G#F#t@r&=*d$-*;*>*,*+*G#F#F#F#F#F#F#F#F#=%'*<@)*!*~*{*]*^*/*F#G#G#G#G#P&F#F#%*(*_*:*<*[*4&}*C&9&G#F#F#G#t@/*/*e+|*1*2*3*4*5*6*7*>*8*                ",
"              9*0*a*-*b*c*d*e*f*g*1*0.G&h*i*j*k*l*l*m*n*o*p*Y&q*r*s*G#t*u*v*w*x*y*z*A*B*C*D*E*F*9*G*H*I*&*J*<%u.K*L*M*%# $ $ $N*O*P*9&F#F#F#F#F#F#0.Q*R*Q@S*T*U*V*W*X*Y*Z*/*G#F#G#F#F#`* =.=+=@=#=$=%=&=*===}*-=t#0.A&+*C&O&;=>=,='=)=!=~={=]=^=/=              ",
"              (=_=e$:=<=d*[=}=|=1=2=3=| R&4=h%5=5=5=m*6=7=K*8=9=0=a=9*b=c=d=e=f=g=h=i=j=k=l=m=l=n&n=o=p=q=8=r=s=t=u=v=w=w=w=w=x=y=z=A=B=C=D=4&9=9=8=E=F=G=U*U*U*H=I=J=K=L=M=N=O=Q&#*P=Q=R=S=T=U=V=#=W=X=Y=Z=`= -p=.-+-3&+*@-#-$-#-%-&-*-=---;->-,-              ",
"              '-)-!-~-{-]-[=}=^-/-(-_-:-<-Y#[-}-5=5=|-1-2-V&G#G#G#G#+-3-4-5-5-6-7-7-8-9-0-a-b-c-d-e- -^*^*9&f-j&g-h-Z#i-i-i-i-j-j-k-l-t@t@t@<%/*m-n-o-p-q-U*U*U*U*r-s-J=t-u-X#9&0.6&9&_&X#v-w-x-w-y-X=z-A-B-C-D-[%/*/*/*E-F-G-H-I-J-&-*-K-L-M-N-O-P-            ",
"            R-e$l$S-T-T-U-V-W-X-1=N=s#t.Y-n$Z-w=m*`- ;.;+;1%G#G#G#G##*@;d=#;$;%;7-8-7-&;*;=;-;;;>;,;1 ^&';f+);!;~;{;y=i-i-];y=^;/;];(;t@t@t@<%<%e+e+_;:;<;U*U*U*U*[;};|;1;2;3;D#(&D#E-4;`*5;X=6;7;8;z-9;0;a;b;c;d;/*/*E-';Z*e;f;g;J-&-*-*-h;i;j;k;,-            ",
"            l;R&m;n;o;p;q;r;s;t;u;v;w;x;-*y;l*$#O@z;A;B;5-6&G#G#G#F#d;C;D;E;F;G;H;7-I;J;K;L;M;N;O;,;P;Q;D#R;S;T;U;V;y=i-i-i-^;V;i-w=W;t@<%t@t@R;$.$.X;Y;Z;H=U*r-U*[;`; >.>+>J }$@>R;R;#>$>%>&>X=8;*>=>#=X=->;>>>9*/*}$,>,>8&'>)>!>J-K-*-*-k;O-~>{>]>^>          ",
"            (>_>:><>r;[>}>o;|>1>2> =3>4>5>6>$#7>O@`#8>9>0>/*-%G#F#F#a>b>c>d>e>f>g>h>e#i>j>k>l>m>;;n>o>t@}$)-p>q>r>P%w=i-i-i-w=s>t>`#u>%*D#t@t@t@.*v>w>x>y>r-U*U*U*[;H=z>A>B>C>y$D#@>^&D>E>F>*>G>8;8;X==>H>I>J>K>P;/*d$L>x;d&s#M>N>K-O>*-*-P>k;Q>J-R>0>          ",
"          S>T>U>V>W>X>Y>Z>`>H- ,.,o*8#+,@,#,$,%,&,*,9>=,-,t@-%;,>,/*,,',),!,~,{,],{$L;L;^,/,(,_,:,q c#a*!-<,[,},|,w=w=w=i-w=1,2,3,4,5,6,;,t@<%<%7,8,9,0,a,r-q-r-U*U*b,c,d,e,c#f,t@R;%./*g,h,8;i,W=G>X=X=7;j,k,l,m,Z*d$+%n,!-3&o,p,q,r,*-s,J-k;t,u,v,w,          ",
"          x,y,z,A,B,C,D,E,F,G,H,I,J,K,L,z;S@Q#M,N,^-t;O,u*t@t@P,Q,R,S,T,U,V,W,F$X,Y,^,Z,y;`, '.'+'@'Y#!-!-z$#'$'%'&'*'y=y=='-';'>','Z*Z*;,^&}$@>0.P-'')'!'~'U*U*U*U*{']'^'/'('_'t@D#<%%*:'<'['}'#=&>z-8;|'1'2'3'4'I&D#t.5'6'7'8'9'0'a'b'c'd'K-e')=f'g'          ",
"          h'i'j'V-k'l'm'n'o'p'q'r's't'u'v'w'x'y'5*Y*z'A'B'C'D'Q,E'F'G'H'I'J'K'L'M'N'O'P'Q'R'S'T'D=D'U'V'W'X'Y'O&Z'`' ).)+)@)#)$)%)&)C=5+f,l$2%d$(=*)=)-);)>),)')))!)~){){)V&])^)/)t@;,%*()g&_):)<)X=[)})|)1)2)3)4)7,Q;5)6)7),>o 1*8)9)0)a)b)c)d)e);=f)          ",
"          g)h)i)j)k)l)m)n)o)p)q)r)s)(-t)u)v)w)x)y)z)A)B)C)D)E)F)G)H)I)J)K)L)M)N)O)O)P){=Q)R)S)T)U)V)S$W)X)Y)Z)`) !x*.!+!@!#!$!U;s=*)j&%!&!*!=!-!J ;!_&$.>!,!7)'!)!j#!!D>~!G*{!]!^!n,{)(=/!(!_!$.:!<![!}!|!1!2!3!4!(*D#3;5!6!@%9#7!8!9!0!a!b!c!d!e!w,f!          ",
"          g!v;h!i!j!k!l!m!n!o!p!<,q!`)r!s!t!u!v!w!x!y!z!A!B!C!D!E!F!G!H!I!J!z)K!L!M!N!N!O!P!v;Q!R!S!T!U!V!W!X!Y!Z!U;Z!`!7, ~B'=*.~+~@~9*#~$~%~&~*~=~-~.=;~>~,~h@+-3&[%' v*'~)~!~~~{~]~'$^~/~(~_~:~r=4'<~[~}~|~1~2~+-3~4~5~6~7~8~9~0~a~b~c~d~e~f!f~g~h~          ",
"        i~j~k~l~m~n~o~p~L*q~r~s~t~U'u~v~w~x~y~z~A~B~Z'C~D~^#E~F~ )G~H~I~J~K~L~M~N~I,O~P~Q~R~S~T~u*g%U~V~W~X~w~%@Y~Z~`~ {.{m'+{@{#{;;${%{w+&{*{W)%%@>3!={-{;{>{,{'{){!{~{{{]{@>^{/{({_{:{<{[{}{|{1{2{3{3{4{1{5{6{7{8{9{0{a{b{c{d{e{f{g{h{i{d!d!j{k{l{m{n{        ",
"        o{p{q{r{s{t{u{v{v~w{z%x{y{e>z{A{B{C{D{E{F{G{H{I{ =J{K{L{M{N{P-c-J~O{P{Q{R{R{S{T{U{V{W{X{Y{y~Z{`{ ]c;P,y).]+]@]#]$]%]&]*]=]-]M;;]>],]'])]`*Q& =!]~]{]]]^]/](]_]:]<][]}]|]1]2]3]4]5]6]7]8]9]0]a]b]c]d]e]f]g]h]i]j]k]R*l][@m]n]o]p]q]r]s]t]u]v]w]W'        ",
"      x]y]z]A]G=B]C]D]E]F]G]H][%I]-$I&C>%$J]~)~)K]L]M]9>N]O]K.[%Z*g&P]Q]R]S]T]U]V]W]X]Y]Z]`] ^O-.^u*+^@^P-#^$^%^&^$]*^=^-^;^;^>^,^'^)^x~`*!^!^!^V&4;[,~^{^]^^^/^(^_^:^<^[^}^|^1^r&('n-#>7,2^3^4^4^4^5^6^7^8^9^0^0^a^b^c^d^e^e^P-f^g^h^i^j^k^l^m^n^o^p^q^+*      ",
"      s^t^u^v^w^x^T@H=y^z^A^B^p>f^C^D^E^F^S*S*G^H^I^J^K^L^K.M^(=Q;%@N^O^P^Q^R^S^T^U^V^W^X^Y^Y^Z^#{`^ /(*./+/@/#/$/%/&/*/=/-/;/>/,/'/)/!/!^!^`*!^!^u.5,~/{/]/^///(/_/:/</[/}/|/1/!^`*!^t@t@2/3/4/5/4^5/6/7/8/9/0/a/b/c/!-+%R&R&d/e/f/g/h/j^i/l^l^l^j/k/l/I)      ",
"    m/n/o/p/q/r/s/t/u/v/w/z;x/y/z/A/B/t{H^H^S*H^C/D/E/F/..G/s)H/Q;I/J/K/L/M/N/T^S^O/P/Q/R/S/S/T/U/V/;.(=./W/%!X/Y/Z/;/-/-/`/ (.(+(@(#($(!^!^!^!^!^[,%(&(*(=(^/-(-(;(>(,('()(!(~(`*f+M^D%C#C={(](^(/(((_(9^:(<([(4/}(|(r%_'c^m;1({)2(3(4(4(i/l^5(6(7(8(9(r)3&    ",
"  0(a(b(c(d(e(f(g(h(i(j(%#k(4&l(m(A]n(o(S*S*S*p(q(r($-2^s(;$t(u(n$7!y,v(w(x(y(z(A(B(C(Q/D(D(T/E(F(G(('d$H(';=%Y)I(J(-/-/-/K(L(M(N(O(P(m~C'%*%*j&z&V&Q(R(S(T(U(V(W(;(X(Y(Z(`(]=3$ _S%!!._D%o +_@_^(#_$_6/%_<(<(&_*_}(=_-_X'J{Y';_>_,_z~'_)_k^)_5(6(!_~_{_]_t@    ",
"  ^_ )/_(___:_<_1$[_}_|_1_Z!2_-.*@3_4_5_6_n(7_8_9_0_a_b_r!c^c_d_e_a=O%f_g_h_i_j_k_l_m_Y^n_o_p_O>q_r_D#J ';d$J s_t_u_v_w_x_y_z_A_B_C_Y{+^Y#R,D#D_`*M^|*;_E_F_G_H_I_I_J_K_L_M_-%;.N_O_!&P_Q_/!R_S_T_U_v-V_W_X_Y_Z_`_ :.:O%_'+:@:>%#:$:%:&:*:=:-:;:>:,:'$B*':t*    ",
"  ):!:~:{:]:^:/:(:_:::<:A&[:}:|:1:2:3:4:5:6:7:8:T{9:0:-.3$J x;a:U)b:c:d:e:f:g:h:i:j:k:l:m:%-%-n:o:p:./';q:C'r:s:t:C~u:v:w:x:y:z:h{A:B:-.H(;!c#/!s(C:2^D:E:F:G:H:I:J:K:L:M:N:5&O:+%P:P_Q:R:S:T: .U:V:W:X:Y:Z:`: <.<+<@<W'_'d/u>B^#<-*$<6,S-%<&<*<5:=<-<;<><,<    ",
"'<)<!<~<^*{<]<^<<:K)/<(<_<:<9_<<[<}<|<1<2<3<4<z)5<N~6<7<8<8<8<9<9<9<0<a<@;b<c<d<e<f<g<h<i<j<k<l<m<)+n<o<p<q<r<s<7<t<O,u<M:v<w<e!x<y<z<A<y/9<B<B<9<C<S;D<E<^<F<U{6&.* *-%y)G<H<I<J<K<L<5+M<N<O<P<O:Q<R<7,q:#'S<T<U<V<}*W<X<r!+:Y<Z<`<@^ [0:S,/*/*/*8&>*.[+[@['<#[",
"'<$[%['<&[l!l(*[=[-[;[>[,['[)[w,L^![9=()|*2^[< .!&~[{[][1 1 $^B=o ^[/[([_[@<:[.~<[[[}[|[1[2[.{3[4[5[6[7[8[9[0[ +=%$&$&a[O]b[p)E-Q%c[J*m,,*d[e[f[D-g[h[i[j[L#`)k[l[m[n[o[p[q[r[s[t[m,9=u[v[ .O+w[x[}&u[y[z[G*A[B[_&C[0=*)s(G&#^e[D[E[F[G[)[H[I[/[}[<<l)J[K['<L['<",
"Y{/-M[N['<O[P[%*Q[R[S[T[U[V[@{;=W[H%X[@>Y[Z[Z#`[ }.}+}@}%: ~`*%*Q;%@#}$}%}&}:=*}=}5]f,-};}>}_,,}'}(*$')}!}~}O%{}$:]}^}/}S##,(}_}6_^}:}<}L*>]>])][}}}|}1}2}3}4}5}6}7}5~8}9}0}a}b}C'!^`*D>G&c}d}e}f}g}h}i}j}k}l}m}n}{*e+o}f+>]3;R<p}q}q(r}s}t}u}v}w}x}y}s}z}A}B}C}",
"D}E}F}G}H}I}#';$J}r;K}L}T[M}R'5*N}O}!%/!v=P}Q}R}o(z{S}T}U}6,!^t@Q;I&V}W}X}Y}Z}`} |.|+|@|@|#|$|%|Y~&|a<K*<@G&q'*|=|A/-|6_;|>|,|'|)|!|~|<}>]>]>]>]{|]|^|/|(|_|:|<|[|[|}|||1|2|3|4|s)o}/*/*g&5|6|7|8|7|9|7|0|a|b|c|d|e|A&J f,-!W#I&f|g|h|r}i|i|i|j|k|l|m|n|o|p|q|r|",
"s|t|u|v|l(('D<w|T-o;x|y|z|A|B|C|4'D|E|F|G|H|I|J|K]K|L|M|N|;!s=C'Q;e[O|P|Q|R|S|T|U|V|V|@|W|X|Y|Z|`| 1.1l~q&s@+1@16:6_6_6_6_;|6}#1)|o($1]<>]>]>]./%1&1*1=1-1_|;1}|}|;1;1>1,12|'1)1#'!^/*/*c#!1~1{1]1^1/1(10|0|_1:1<1[1e+C'}1|1112131415161r}7181r}9101a1b1c1v|d1e1",
"f1g1h1i1$.j1k1l1m1X>n1o1p1q1r1N}o>s1t1u1v1/}w1x1y1z1A1B1C1;!n:=)M^,*D1E1F1G1H1I1U|@|@|J1K1L1M1N1O1P15,Q1R1V'S1T1U1V16_6_6_W1X1Y1)|Z1`1 2>]>].2+2@2#2$2%2&2*2=2-2}|}|_|;2>2,2e~'2=)!^/*t@.1)2!2~2{2]2^2/20|d_(2_2:2<2^*C'[2|1}2|212223242r}52r}62j|72829202s|a2b2",
"c2d2e2f2g2h2i2j2k2l2m2n2o2F[p2[<q2r2s2t2u2v2w2x2y2z2A2B2C2>* 2D2 <E2F2G2H2G1I2J2K2L2M2N2O2P2Q2R2/[b=&!@#>_&!k<S2T2U2V2>|]~W2X2Y2Z2`2 3])>]<}.3+3@3#3$3%3&3*3=3-3;3>3,3'3)3!3~3{3]3o}/*t@#*^3/3(3_3:3<3[3}3|3 %1323U&33(=4353|16373839303a3b3c3m|42d3e3f3K[g3h3i3",
"j3k3l3=)V$m3n3m1o3p3q3r3s3t3u3,_v3w3x3y3z3A3B3o|C3D3M|E3F3C>W<G3E)H3I3J3K3L3M3N3O3P3Q3R3S3T3U3V3W3X3U'>_>_@%I&G'Y3Z3`3 4.4+4@4#4$4%4&4o>*4=4-4;4>4,4'4)4!4~4{4]4^4/4(4_4:4<4[4k~{! 2z& *k<}4o$|4142434d_G@4454@^64748'C'84t~94*404<<a4b4c4d4e4f4g4h4i4j4k4l4m4n4",
"c;o4o4p4q4r4s4t4u4v4&}w4L!x4y4$'T&z4A4B4C4D4E4F4G4H4I4J4K4L4J#M4N4O4P4V3Q4R4S4T4U4O3V4W4X4Y4Z4`4 5.5+5D)@5>_#5b=r'$5%5&5*5=5m*-5;5v!>5P;@#H/,5'5)5!5~5{5]5^5/5(5_5:5<5[5}5%:|5152535456,Z*55b%6575859505a5f#b5$^e[%{7*c5F|d5e5j1f5g5h5i5j5k5l5m5n5o5p5K[q5r5n4s5",
"t5u5,-v5%@w5x5o5y5Z4j<z5A5B5C5D5E55,u!F5G5H5I5J5K5L5M5N5O5P5Q5G^R5W)S5T5U5I5V5W5X5Y5Z5`5 6f~R_.6+6@6#6$67%%6&6*6B=q_=6-6;6>6,6-6'6t[w;)6q$0 :#W|!6~6{6]6^6/6(6_6:6<6[6C>G&9<}6|6162636f{m]4656@^R<6676e/8696K 06a6a~b6c6d6e6f65>g6h6i6j6k6l6m6n6n6o6p6q6r6u5s6u5",
"t6u6D<;%43*6v6w6x6y6z6A6B6C6D6E6c;F6G6H6I6J6K6L6M6N6O6P6Q6R6S6T6U6V6W6@/X6Y6Z6`6E: 7f~2(.7+7)* .@7#7$7%7&7*7=7-7/~+-k[w!;7K6>755)*,7,706'7)7!7~7{7]7^7/7);W[(7_7P;:7<756[7}7|7172737475767+:5677879707(!a7b7c7d7e7f7P]g7h7i7j7k7l7m7n7o7R_R_s_p7q7v3r!r7C)s7Z't7",
"u7u7v7 5v721r7z%w7Q=q'u.X<x7y7z7k~A7B7C7:=D7H6E7F7G7H7I7J71#K7L7M7N7O7f[P7Q7R7S7T7U7[<V7W7X7d[Y7{*Z7B4`7 8.8+8@8#8Q<d[J6Y7Y7Q*$8X7%8%8P;&8*8=8-8;8>8,8#8'8Q*)8!8!8~8{8)*)*t[]8^8/8(8_8:8<8Y)k[Q*Q<z%;.;.Q*)*[8P-}8%{|818283848586878p>[8'8Q<'8'8,_,_{*88}<|2D~98",
"08a8b8c8d8e8f8g8]%+&d#h8n*94u!i8j813s]k8l8m8n8x/o8p8q8r8W$s8t8l{u8v8w8x8 %y8z8._._._[ A! % %A8x/m8B8C8D8E8F8G%G8H8I8J8K8L8M8N8O8P8Q8Q8R8S8T8U8V8~*W8X8i2Y8Y8Z8`8`8z,`8 9.9+9@9#9$9%9&9*9=9-9;9n;>9,9'9'9Z8Y8)9!9~9{9]9^9/9/9(9_9:9<9[9;9}9|9,9|9`8|919293949d859",
"697989699909a9b9c9d9e9f9g9h9i9j9k9l9m9n9o9Q3p9<|q9r9s9t9u9v9w9x9y9z9A9B9C9D9E9p8F9F9w]G9H9I9U2J9K9L9M9N9O9P9Q9R9S9T9U9V9W989X9Y9Z9`9 0.0+0@0#0$0%0&0*0=0a1-0-0-0;0>0-0=0,0'0)0!0~0{0]0^0/0(0_0:0<0[0}0|0|010|02030405060/:70809000>0a0b0c0d009e0e0f0g0h0i0j0k0l0",
"m0n0o0p0q0r0s009t0u0A]v0[|P}/}w0x0%<y0z0A0B0C0D0E0F0G0H0I0G0J0K0L0M0N0O0P0Q0R0{~S0T0U0V0W0X0v^v^v^Y0Z06~`0 a.a+a@a#a$a%a&a*a=a-a;a>a,a'a)az]!a~a{a]a^a/a(a_av_:a<a[a}a|an0B0J0K01a2a#63a4a5a6a6a7a8a9a0a0aaa9aba7acaaadaeafagahaiajakalamanaoapaqarasataua89vawa",
"P%t>xa`[ya^$zaI;I;}3|3}3]$}3AaBaCak*Da];EaS*FaGaHaIaJaKaLaMaNaNaOaPaQaRaSaTa7~E=UaE=Va4 4 u(Waz=XaX$YaR*ZaF'`a]%E$ b %e^./././q:./J >+;*r#4=Y-.b.b2%b%+bU:@b+b#bZ<j}#5$b%b&b*b&b=b-b;b:%W%[&e&h%>b,bO*'b)$)bA^!b=$~b{by;]b^b/b(b_b:b<b[b}b|b1b2b3b4b5b6b7b`[E%8b",
"g%9b0bn*)&abbbbbcbbbbbbbp&B#p&dbdbdbeb%%z;l*fbDa6>gbhbi#z=ibjbkblbmbnbobpbqbrbsbtb2 0#ubP:vbvb,%._wby80#._cbB#3 Q%G$xbp&._ybO_zbg!cbB#p&AbxbBbBb&&CbCbB#ubDbDbEbEbFbEbEbGbHbIbJbJbGbFbFb,!FbGbKbW%LbMbNbObPbQbO@c[RbZ$Sb`$#%z$>&._Q%eb3 Q%Q%dbdbQ%dbQ%L%TbUb1]s>",
"Vbc Dbabn$%&f&WbEbk9WbGbWbWbEbEbWbGb>&,%Xb<&<&YbL%54A!Zb`b c.c+c@c#c$c%c&c*c=c-c;cubA!A!._._>cO_Db,c.%t6t6'c)c!c~c{c]c^c/c(c_c_c_cP]M@m$d+d+d+d+d+v>:c!-V'b&Jb<c[c[cGbGbGbGb>&JbJbDbDb}cDbDbx[2 |cw%1cx%2c3c4c5c95956c95|%~&FbGbt$N_N_DbN_ybybVbVbN_ybyb0#._7c8c",
"x&9cx&x&x&W/x&0cacac/~bccc):cc[{dcecfcgchchcicgcgcgcjcfcfckckckclcgchchcfcmcmchcncecncjcncicicgcgchcocpcococqcrcsctcucscscq*vcwcxcvcxcxcucucocycycycuczczcycucoclclcAclclcococycycycycyczcyclczcocycAcgclcycucucucycBcCcDcEcFcGcHcHcHc/~'*x&s#IcIcIcIcIcx&x&x&-~",
"JcJcKcLcMcNcNcOc_&PcQci W&4'RcScTcUcUcUcVcUc4!m<m<m<UcUcWcWcUcVcVcVcXcVcVcYcYcWcZcVcVcVcVcVcUcUcVcZcVcVcVcVcYcYcYcYcScScZc`c d.d+dSc.d.d.dZcZcZcZcSc+d@dScVcVcScSc.dZcScSc.d.dZc d d#d#d#d#d$d$d%d&d$d*d=d-d-d;d>d;d,d'd)d!d~d{d]d^dZc.dVcVcVcn[/dm[m[Kcr=(d_dJc",
"JcJc:dJ*(*'*J*/~<d[d}&r#v&>!}dSc|d1d2d3d4d5d6d7d8d9d0dad0dbdcdddedfdgdhdidjdgdjdkdkdldldgdldldmdmdldjdldldldkdndmdkdmdmdkdkdodldldldldldldgdpdgdgdgdldgdpdpdpdqdrdsdsdtdudtdvdsdsdvdududwdxdydzdAdzdBdCdDdEdFdGdHdIdJdKdLdLdMdNdOdn=3)o&<~McPcPd<~ .).).G&>!QdJc",
"JcJc^[Rd+%,>s@j%t.H/z8#&SdDbTdUdVdWdXdYdZd`d e.e+e@e#e#e$e%e$e&e*e=e-e;e>e,e'e)e)e)e)e!e!e~e{e)e)e)e)e)e)e!e)e)e]e^e^e^e^e*e!e!e!e~e)e)e~e/e(e_e=e_e_e=e:e:e<e[e}e}e|e}e}e1e2e3e2e3e4e5e1e6e7e8e9e0eaebecedeeefegeheiejekelemeneoeK..!#%V$+/pepeqef[}&}&.1#%reJc",
"JcJcGcseteuex%h#`$3,veA^wexeyeZczeAeBeCeDeEeFeGeHeIeJeKeLeMeLeLeNeOePeQeReSeTeMePePeUeVeWeWeXeYeZeXeXe`eWe f.f`e`e f f+f@f fWeWeWe+f#f#f$f$f%f&f*f@f=f@f-f=f=f;f>f,f'f)f!f~f{f{f{f{f]f^f/f(f_f:f<f'f[f}f|f1f2f3f4f5f6f7f8f9f0fafbfcfF'F'+6dfefffgfhfifjf=%~&r=Jc",
"kfJcr=@^D-lfmfnfofpf]3qfrf-$sftfufvfwfxfyfzfAfBfCfDfEf-fFfGfFfHfIfJfKfLfMfNfOfPfQfQfRfSfTfUfVfVfWfUfXfYfYfZfXfXfXfUfUfXfYfUfXf`fVfVf g`f`f.g+g`f`fVf@g`f#g$g`f%g&g*g=g-g;g>g;g>g,g'g)g!g~g{g]g^g/g(g_g:g<g[g}g|g1g2g:f3g4g5g6g7gl( =m,8g9g0gagbgcgdgegfggg_7hgJc",
"Jcig@^5>jgkglgmgngogpgqgrgsgtg7<ugvgwgxgygzgAgBgCgDgEgFgGgHgIgJgKgHgLgMgNgOgPgQgLgRgSgLgTgTgTgTgUgVgWgWgXgYgVgZg`gZg hYg`g`g`gYg.h.hYgTgTg+h@hZgIgTg#hTgXgIg$h%h&h*h=h-h;h>h,h'h)h!h~h{h]h^h^h/h(h_h:h<h[h}h|h1h2h3h4h5h6h7h8h9hg20hd/ahmfbhchn,y+e^&%>&e/r&dhJc",
"JcJcehfh(2ghhhih<-jhkhlhlhmhnhohphqhrhshthuhvhwhxhyhvhzhAh`gBhBhChDhEhFhGhHhIhJhKhLhMhDhVgNhOhPhPhPhPhPhMhQhRhRhRhRhRhRhShRhShQhThUhQhShRhRhQhRhJhVhFhFhRhRhGhOhWhXhYhZh`h i.i+i@i#i$i%i&i*i=i-i;i>i,i,i'i)i!i~i{i]i^i/i(i_i:i<i[i}ig8p8|i1i &]%J%2i3i];43F*4iJc",
"igJc5i6i7i8i9i0iai~&biU:cidieig2figihiiijikilimini$hzhoipiqiri$hsitiuiWgviLhLhLhwixiDhyiPhziPhRhRhAiBiShRhRhRhRhRhRhRhRhRhRhRhRhRhRhRhRhRhRhRhRhRhRhRhCiJhJhDiDiEiPhFiGiHiIiJiKiLiMiNiOiPiOiQiQi;iQiRiOiSiTiUi'iViWiXiYiZi`i j.j+jj*U*v^@j#j$jZ2|#%j&j*j%$S,=jJc",
"Jc-j;j>j,j'j)j!j~j{j#b]j^j/jei(j_j:j<j[j}j|j1j2jTgEi3j4jPh5j6jKgzh7j8jLhLh9j0jLhOhLhziajJhFhRhRhRhbjShRhRhRhRhRhRhcjRhRhRhRhRhRhRhRhRhRhRhRhRhRhRhRhRhdjejfjGhGhGhgjhjijjjkjljmjnjojpjqjrjsjtjujqjvjwjxjyjzjAjBjCjDjEjFjGjHjIjJj+jKjLjMjW|NjOj}|3}]'z3PjB@S,=jQj",
"JcRjSjTjUjVjWj!$XjYjZj`j k.k+k[i@k#k$k%k&k*k=k-k;k`g@h>k,kEgCigj'k)kLhwi!kpi~kLhLh`gXgSh h{k]kBiQhQhRhRhRhRhRhRhcj^k^kRhRhRhRhRhRhRhRhRhRhRhRhRhRhRhcj/k(k_k:k<k[k}k|k1k2k3kwi4k5k6k7k8k9k0kakbkck>iRidkekekfkgkDjhkikjkkklkmknkokpkqkrksktkukukvkwkf9u0xkS,=jQj",
"JcJc'*ykzkAkBkCkDkEkE&FkGkHk+k+kIkJkKkLk}j}jMkNkOkPkziMkQkRkSkTkUkzh`gVkWkjjXkYkFh'kCiaj]kBiBiZk]kBiRh^k^k^kRh^k^k^k^k^kRhRhRhRhCiRhRhRhRhRhRhRhRh`kcj l.l+l@l#l$l%l`h#l&l*l=l-l;l>l,l%i'l)l&i!l~l{l{l]l]l^l/l(l_l:l<l[l}l|l1l2ll!3l!14l5l6lf9uk7l8l>19lK%660lal",
"JcJcblcldlp&elflglA/J1hliljl+k+kklllmlnlolplqlrlsltloi)kPhFhulvl.hwlGhOk@h!kxlyl'kPhRhzl]kBiQhRhRhRh^k^k^kRhRhRh^k^k^k^k^k^kRhRhRhRh^k^kRhRhRhAi]kBitlAlBlClDlElFlGlHlIlJlJltjKlLlMlNlOlPlPiQlRlSlTlUlVlWlTiXlBj/lEjYlZl`l m.mjdok+m@m#m$m%m!_&m*m=m-mU|U';m>mal",
"JcJc%@,m4%U''m)mq8!m~m~m{m]m+k+k^mqh/mii(m_m:m<k<mkj[m}m|m1m2m3m4mPk5m6m7m8m.h9mtiPhRhRhShQhRhRhRh^k^k^k^k^kRhRh^k^k^k^k^kRhRhRhRhRhRhRhRhRhzlBiBiBi0mambmcmdmIlemfmgmhmimjm lkmlmmmnmompmqmSlrmsmWlVltmumvmwmxmymBjzmZlAmBmCmDml!Em@mFmGmHmImJmSbKmLmu1Mm.2r&al",
"JcJc+/Nm:>Oms>PmQm!m~m~mRmSm+keiTmUmVmWmXmYm;hZm`m n.n+n@n#n$n%n&n*n=n-nTh;n>n,n'n{kRhRh)nRhRhRhRh^k^k^k^k^kJhRhJh^k^k^kRhRhRhRhRhRhRhRhRhRhRhQh!n~n{n]n^n/npj(n_n:n<n[nQl}n|n1n2n3n4n5n6n|h7n8n9n7n0nTlanbncndnBjenZlfngnhninjnknlnmnnnonpnqn-<rnsn_|tnVbunF*vn",
"JcJcwnxnynk(Y[U'znAnBn~mCnDn+keiEn-eFnGnHnInJnKnLnMnNn{kOnwhPnQnRnSnTnUnVnWnXnYnZntl`k^k^k^kRhzl^k^k^k^k^k^k^k^k^k^k^k^kRhRhRhRhRhRhRhRhShShRhQhBiUh`n o.o+o@o#o$o%o&o*oekwj=o8n-o;o>o,o'o)o!o7n~o{o_nck]o^o/o(o_o:o<oIj[o}o|o1o2o3o++4o0%5o6o7o8o9o0oaoVb7*boco",
"RjRjfcdo*!*!eo_'foAngohoiojo+keikolomonooopoqoWlrosotouovo!nwoxoyoOkzoDh3m-nziYkAoBoDhQhBiShQhBiBiZk^k^k^kRhRh^k^k^k^kRhRhRhRhRhRhRhShQhQhBiBiBizlCoDoEoFoGoHo,oIoJoKoLoMoNowjHoOoPoQoVlMoanRoSoToUoVoWoSiXoYoZo`o p.p+p@p#p$p%p2o&p++*p=p.5-pJmE{;p-mw]n$/b>p,p",
"'pRj%.)p!p!%,'_'fo~p37{p]p^p+kei/p(p6e_p:p<p[p}p|p1p2p3p4pQh5p6pTn7p8pXn9p1m)k0pUhapKhQhBiQhBiBiBibpcp^kdpdp^k^k^k^k^k^kRhRhRhRhRhRhRhBiBiBiBiQhdpepfpgphpipjpkplpmpnpopppqprpsptpupvpMowpxpypzpApBpCp/oDpEpFpGpHpIpJpKpLpMpNpOpl!PpQpRp|@Spo8TpUpVp;1WpybXp0.al",
"YpZpH6`p!pr:Ub_'4% q.q+q@q#ql![iHd$q%q&q*q=q-q;q>q,q'q)q!q~q{q]qsl^q/qNn(q_qzi5p:qAo<qbjBiBiBiBi]kbpbpbpcpbjQhdp^k^k^k^k^kRhShShQhQhQhUhXn[q[q}q|q1q2q3q4q5q6q7qTl8q9q0qaqbqcqTldqeqfqgqWihqiqjqkqlqmqGpnqoqpqqqrqsqtquqvqwqxqyqok&*zqFmAqBqo825CqDqEqp80#FqGqal",
"Rj'pa>^jm9HqIq#%}2Jqz>Kqv:#q+keiLqMqNqOqPqQqRqSqTqUqVq:lWqXqYqZq`q r.r+r@rAo#r$r%r'n<qAiAi]k&r*r]kbp=r=rbpbjBiAicpcp^kdpdpdpbjbjAiAi-r;r>r,r'rkp)r!r~r{r]r^r/r(r_r:r<r[r}r|r1r2r2r3r4r5r6r7r8r9r0rarbrcrdrerfrgrhrirjrkrlrmrnrorl!d$prqrrrJmo8o8srtruru(5%vrM^,p",
"-jQjW7wr!% &xr#%}2yrzrArBrv;l!l!CrDrErFrGrHrIrJrKrLrZoMrNrOrPrQrRrSrTrUrVrWrXrYrZrql`r s.s+s@s.s.sxl#s$s%s-l&s*s=s-s-s-s;s>s.s,s's)s!s~s~s{s]s]hEjym/h^s/s(s_s:s2r<s[s}s|s1s2s3s4s5s6s7s8s~f9s1s0sasbscsdsesfsgshsisjskslsmsnsos+k6,psqsrs7oo8sstsusvs3>5%ws-=xs",
"-jysH6zs[ ~%w~As}2BsCsDsEsFsl!knGsHsIsJsKsLsMsNsOsPsQsRsSsTsUsVsRrWsWsXsYsZs`s t.tbr2r2r+t@t#t#t$t:o%t&t*t=t&t-t;t>t=t,t't)t)t!t~t~t:o{t{t)t]t4s^t~t<s/t<s<s(t}s}s.p[s_t:t<t[t}t|t1t1t2t3t4t5t6tds7t8t9t0tatbtctdtetftgthtitirjt+kktpsltmt7ont8(otptqtrt_bstM^al",
"'pys%@tt!&utL{vtwtxt{7ytztAt+k[iBtCtDtEtFtGtHtItJtKtLtMtNtOtPtQtRtStNtTtUtVtWtUtXtYtZt`tYt u.u+u@u#u$u%u&u*u+uYt&u=u-u@u%u;u>u,u'u%u)u!u~u{u]u)u^u/u!u(u_u:u<u[u}u|u1u2u3u4u5u6u7u8uFn9u0uauIkbucudueufuguhuiuiujukulumunuoupuqu+krusutuus7ouuvuwuxuyuCqr8zuGqal",
"AualBuCuI%Du%mEuFuGuHuIuJuKuei[iLuMuNuw OuPuQuRuRuSuTuUuVuWuXuYuZu`u v.v+v@v#v@v$v%v&v*v=v-v%v%v;v;v>v,v'v)v!v~v{v]v^v/v(v_v:v<v[v}v|v1v2v3v4v{ 5v6v7v8v9v0vavbvcvdv9vevfvgv7vhvivjvkvkvlvmvnvovpvqvrvsvtvrvuvvvwvwvxvyvzvAvBvCvl!cfDvEvFv7oGvHvIvJvKvLvMvNv8'al",
"-jvnOvPv#<u1QvQvRvSvTvUvVvWveiv;c_^%f}XvYvZv`v w.w+w@w#w$w%w&w*w=w-w;w>w,w'w)w!w~w{w]w^w/w(w/w^w_w:w<w[w}w|w1w2w3w4w5w6w7w8w9w0wawbwcwdwew6wfwgwhwiwjwkw&w&wlwmwnwowpwqwrwswtwuwvwwwxwywzwAwBwh$7#CwDwh$EwFwGwV1HwHwG^Iw%,Jw44L;eiK6KwLwMw7oNwOwPwqtQwRwSwTwUwal",
"alyswbVw#<]!QvWwGvXwYwZw8[`weieig%utL; x.x+xX0.xV0X0v^@x@xX0X0V0 x#xQ}7lI|};$xP}.x#xG^5}%x%x4}^}G^n(W1U0&x*x=x-x;x>x5} xW1 x{~-|X0D!%xU0,x.x4}W1 x+,x=Q#'x)x6_)xD!{~4}!xA/u2~x{x]x^x/xA/Ea(x_x5=|-:xf#e#<x[x}x|x|x1xe#Pa2x3x4x5xei6x7x8x9x0xax=mbxcxdxexfxHvUwal",
"alale&I0k(gxWwWwhxixjxkxlxmxei[i)-&!Fbnxy;oxL;44z@!$z@pxe{Z$|xqxrxsxw0tx-|!xK]P}&x='W@W@S*ux~)~)~)G^vx='wxH|o-xxyxzxAx-)Bx5}5}5}A/n(W@W@*#wx,x~x{~Z}CxCxJ]GwL,o(@$L@te@,L#`@*&p&$'y8DxEx6'ZaFxGxHxt'Ix]@JxKxLxMxA+NxOxPxQxRxSxTxei'*UxVxWxXxrs25YxZx`x yzn.yUwal",
"alal+y@y#y'3$yWw%y&y*y=y-y;yei[iz8E=>yG^,y'yHaNa)y!y~y{y]y^y&@h}/y(y_yBx6_:yF^&x&#&x<y[y}yl* $|y'$1yLa2y3y4y5y6yQ57yF@8y>yCx9y0y5}ay^x^xwxbycy~x[|W0dyeyW0.x-|^}G^Eafygy_y$#y=hy1yLaiy:xjy^;kylymynyoypyqyrysytyuyvywyxyyyzyAyByei>!xvCyDyEy-:FyYxGyHyIyJyKyLyal",
"-jal]$MyNyOyPy=mQy'3+q*yRySykneiubTyUyVyWygyCkFwFwaygyXyYyZyt&`y z.z+z@zE@;c#zA!q$ %{%F'F'{%b+$z%zd}@,`$0%5c&zZ%I;AaJ;j>*z=zN$k-jy/;Ck-z;zH|gl>zLa/y*~P@h>Z%i#%z[&,z75'z'zQ:Q_)z)z)zG$!z)zq$Q:~zl#{z{$[b]z^z/zy@(z[-g+#._z=b:z<zei3$[zCyWx}zvupn|z1z2z3z4z5zLyys",
"-jal[bMyHq6z7z8zQy9z0zazbzczeiv;D<vbdzez3%ez)%R:o$o$i%~y'zfz[&gz8~hzizjzkzlzmznzozpzpzqzCapzrzsztzF@p$uzvzwzQ:Q:xzyz,bVaW$^%VaVazzXbAzJy{% %wze_dzN_dzN_x[dz2 BzCzDzEzFzGzAbG$HzHzIz;cIzJzKzLzMzNz3 @z+zOzPzCzMuKbr$QzRz!%SzNzTzeiUzVzWzXzYzZz`z A1z.Auu3i+ALyys",
"-jal@A#A$Ah97z%Aws;pWzAr|a&A(j(j*AUd2_2_=A-A-A-A-A-A;A$[>A,A97R!U7U7'A'A'A'A'A'AT7R!'AR!)AR!T7T7T7T7T7T7@8R!T7'AT7T7T7!AT7T7T7T7'A'A'AT7T7!AT7T7H<T7T7T7T7T7T7T7T7T7'A'AS7~A{AR7]A]AS;^A^A/A/A(A>5_A>5:A/A<A[A}A07070707^Ac7/7/7ei|A1A{p2A3Apt4A5A6A7A8A3i9ALyys",
"alal0AaAXabA`}cAdAKyeAfAgAhA)<m<iAjAkAkAlAlAmAmAlAlAnAoA$[U)pAqArAH<sAH<tAH<H<H<H<H<H<uAW[tAH<H<sAsAH<H<tAH<H<H<H<H<H<H<H<H<H<H<H<H<H<H<H<H<H<tAH<H<H<H<H<H<H<H<H<H<pAsAvAsAH<H<H<sAwAsAxAT7T7xAH<H<-7H<H<H<H<H<sAH<rApAqAW[rAsA[iyAzAAABA1z2ACADAEAFAGA_bHAUwys",
"alalIAJAKALAMA7z#1NAOAPAQARAm<N]G*);SAN](jTA(j(7:~77UA[AVAWA[AG*G*XA[A[AXA<7[*<7_A<7YAZA`A97 B>5.B.BXA+B+BXA<7<7+B+B<7<7@B_A<7<7y/Q=56G*+B+B+B+BXA<7<7+BXAXA<7#B$B#B(7%B56.BG*XAXA+BXA+BG*XAXA<7$B<7$BV7);gg&BYA<7$B<7<7VA<7<7*Bei=B-B;B>BZx,BNy'B)B!B~B4z{BUwys",
"alalIA]Bh#^BC7`}%y/BOA(B_B:B(j(j9=9=<B(!<B(!R-u[R-u[[B[B}B*[[Bp=p=}*_-|Be[Q<Q<o o 4;[8[8 .n79*1BB=t[;.7!|B|Bp=_-|B|B|B|B_-|B2B7!U7R-9=[B[BB=|B3B3Bz%*)|B|B|B|B|B2B2BN]4B0=[B[B[B_-_-;.B=B=[B}*_-p=Q&4;G*..)*_-p=_-_-|B|BB=[B5BR7[i6B7B8B9B0BaBbBG3cBdBeBfBzum-ys",
"-jalgBhBiBjBkBMAlBmBArnBoBpBSA(jR-[BC:=%o&i i  .@/_-B=$^qBrBsB#>).J*0cs#X#![E#p%s#$.tBuBFc{}P;vB#>#>c#@^B=[B[%wBxB#>#>-~).).#>t[b_@/yB0hPcZA_&|B3B7!0h0ho&|$Qc_&|$7!`czBic$.AB^[|B8g).~!$.0hg&H*ABBBCBG*DBK.~!~!EBg&M<ABEBEBm-9*FBGBHBazIBJBKB yBqLBMBOwQmNBGqys",
"alalOBhBg#jBC8PBQBRBSBTBUBVBm<)<;~_-5+E-%*E-E-<%f5%.<%WBXBYBZB`BE#s&P[`B&*y& C C.CJ*E#E#+C@C#8#CG#<%![A=_-[B%.$C%C%C&C$C-&*C%C[8871B=Cs&+C7!R;R;R;-C(&s&&*%CI*J*![=%.d;C>C`&,C'CD-^[-&]#-&M^8&&C%CR;W&())Cr#&*y&y&E-+-s&&*o%!CR-(jGB~C+q{C]C^Cr8/C(C_Czu2@:CGqal",
"alalOBhB*~<CC8[C}C|C1C2C3C4Cm<m<5C3!' E-/*/*uB(* .D>E-[d6CiA7Cd$8&/*(*<%E#E#s&%.8Cc#s&(&9&+^T<9CE-/*`*Z*p*<B![&*0C0C0C';s&%.aCs(bCcCdC(*eC,~/*/*<%<%<%G#s&&*R;3&V&z%o:fCgC7'R;|$z% .![s&@>F-'*[dE-/*hCiCjCkC8CX#<%H(0h/*G#G#E#!8SAlCmCaznCMBoCr84xpC_CqCrC8A0.al",
"alalsCtC*~LAuCvCwCxCyCzCACBCm<)<e-5+reE-E-CCDCg@'*>cEC@>VA;C$ wze_z8FCD%>cg@g@g@GCD'HCcb:c#qICJCKCLzj%$%LCH%IbHCg@MCNCOCzbPCQCI/R7RC<zz85'i*2 2 z8g@SCTCzbUCVC7'WCXCYCkAZC,zO_Z*`C}& Dx+x+_=.D+D@Dd$Q<#D$D%D_=G%cbKbwB>+I*>+&D*DSA&4=D-D;D>Dfh4zfB,D;B'D)D!Dr%al",
"alalf#~D{D,D]D^DQ3^C/DaB(D_Dm<m<:D4're%*E-CCPCCb<D[DGb}DR-|D1Du(M%i%2DEx*&i%*&*&zbW#3Dq<x;2^4Du:5D6Dt6[@$&w[HC3Dbb&D7D8Di%i%@z%@R79D0D54ubaD3Di%h8i%Iqh8*&IqAbbDcDC>dDeDfDgDAb%:@>0*~zh8J$s$hDXbiDC''855jDkDlDW$mDx[QcnDoDY&H%pDm<qDrDazVpsDtD4zO4$m{plB]b~Bl9ys",
"alal[3~D{Dw8uDvDwDxD/ByDzDADm<m<e-4're/*';i$!&3 J{BDub46B=;C%D@,`@L%CDw[*&J$Iq*&3 DDmDED,>rAFDGDHDh8x;[@Iqy+cbIDcDR;S>JD*&mDxbC>07KDLDJ%P:MD3D3D*&*&*&*&%&mDNDOD7cPD8=;CQD)!cDI&a%O}h8IqmDE'3%3>8c/!'8a=RDSDTDX$3DlD3);*Y&UDq*8gm<VDWDOAXD)DYD4zO4ZD`D ED{.Eynvn",
"alale{~Drx+EuD@Eu]8(t]xD#E_Dm<m<$E4'' ';/*i$ %K#2i%E$'H(&E*E=Eg(h8~z-Ee$~zIqIqIq=&&!mD3D;E>E,E'EL%#&z8L%Iqy+s:75&&)E!E~EmD+yxb,7VAR;{E~j>c._mDmDmDmDmDmDmDmD3 ]E$&]yr=YB^E/E7c]*X&(EJ$Iq%&,cx;3>M*(=3B_Eo=:E&@M%&&v>Ec<E[E}EH%3Bm<^p|E1EU12E3E4zr8rs4EA7B85E':ys",
"alal6E7EV;8Eu]9E9E0EaEbEcEdEm<m<$E4'3!';/*'; %eEfEVadb46_-gEhEiEL%[@jEV$L%h8IqIqebH/%&xb(&kE^y!}lE#&mEL%Iqy+bbmD$&S<nEOCmDq@NDF->~oEpED5)zExmD3DmDmDmDmDmDmDmDVa%&qErEsEtEuE&&g&<Es@p$h8mD>&hD%E~jPD3!vE$^wE,>i%%&| s#H%'&xEyEa7m<v;zE1EAEDABEBECEDEEE3zCqFEt)ys",
"alalP@GEQbHE9EIEwD8(JECsKELEm<m<5C4'0=9#ME9#!&J$(EM%dbP,a<*ENEOEh8~zCD;*PEQE*&$&RE=~&&mD';SE[{TEA#x/UE5Dh8y+UCmDp@+bVEOCmDmDWE'Ce-D-]mk]N_YymDmDmDmDmDmDmDmDJ$Q%mD0*XEYEZEg(`@ +nDy$p@[@lEH/z8~}A!+/`E F9=.Fe$i%%&t.%.'&*C`&X&|*m<..+F=y@F#F)D$F%F3E3E$F&F&FM@*F",
"alal=F-FQb;F$y0E>FaECs!m,F'Fm<m<)F4'0=c#@>(=A8`@0*lEJ$]&Q&!F~F{FIqIq0*r# %*&*&$&Q%]FIqmD(=#[^F^:c_[@/F(F%&y+I%M%lEZa2 s7EDmD_FABp=$8:F<F,%D)mDmDmDmDmDmDmDmD3 zy|c[F4'}F|Fg(;bA=;*y$Ubh8%&Eb1Fp@q$/!h@2F;.3Ft6[@*&qE*CC#4FLC5F|*m<q -:1E6F7FA78F3EBEBEBECqCq9F0F",
"alalaFbFcFdFeFfFMAaECs!mgF_Dm<m<)F4'A5+-hFH#L%Yb=~utEDt6r_iFjFkFi%h8V$a[z8IqL%Q%#&&@L%[@3;lFmFnFl#VaoFU%Q%t6bb`@*&`@zb}1~z~z&&<@:*$8pFqF54rFJ$mDmDmDmDmDmDmD)zsFA#+%4'tFuF7|vFW/;*y$$&`@ED:-lE[@)&/!wFxFyFzFmEM%IqAF&CH%BFCFyEu[m<)<DFDs6FbxEFFF#1$FBE$F3E`2GF,p",
"alHFQxIFJF(bWwKFfFLFXwCsMFNFm<m<$E4'gg@^OF;*N_A#Fb-<TbFbre2FPF1@Iq~zs@d&A![@n$p@K#t6o$M%d&L[QFRFSFp$+_W$Q%N@mEA#QE`@TFM%mEExPC<@p=Y7UF^%b+VF*&mDmDmDmDmDmDmDQ%m]|cN@WFXFYFZFT>(*;*;EQ%`@`F#>M%4 $'46wF G.G+G`@M%*&W#@GC##G$G&p5Bm<)<DF%G&Gc6*G=G#1#1-G$F;G>G,Gys",
"al'G=F)Ghx!G~G{GB/]G^G/G(G_Gm<m<:G,~ggg&<Ea%}&i%J%4 A#y83BvE<G<{*&*&;*;EA!M%[G}G|G1Gebi%4=2G3G4GV%lE<z~j1Ft6p&YbEDYbYbP:5GnD6G|Bp=)87G8G3 9G3DmDmD3D%&*&A8M*mDM%|c0GaGbGcG4+dG0C;*;EL%YbeGfGgGXbP:d$hG*EiGjG3D3DJ$&@i6v%|.H%wc8=4!)<kGlGXDc6k]$A8F#1dAdAmGuu,Gys",
"alnG=FoGvtMD`}{GB/pG^GqGrGsGm<)<tG^[uGZ*H%<E&CJ%%EF9X$!z3BvGwGxGM%`@yG`)~%M%d/4 j9zG$&i%!-@<AGBGSF[@7%CGh8n,Q%Yb3D*&g%N@H#6G2'_-8=DGEG[@FGBy*&mDq@3D*&p@6'+&M%M%GG&@HGCcIG*zJG5);*;EL%A#i}KGLG~yMG';aG GNGOGYb`@mDD<`B.bY-PGQGrE4!SARGSGXDTGUGk]VG#1$F)DWGXx,Gys",
"alXG0 YGwu9{h9R}cAZG`G H.H+Hm<)<<*Mc,;.*X&2'*C$'UCL#<&)z_-z<@H#HVaM%r#r#ZaQ_<-^%|G$Heb*&EC%Huc&Hl#~}#&.&h8.%p&IDp@HD*H-*=H-H2'8g8g{8;H,bx+qf3DmD3DmD3 $%(&._ybdbA#Zy>H8CTx,H1&O%;*.G*&A#'HccAcdb)HR;aG*E!H~HM%h8h8{HE-Z&v&]Hwc8=m<0<^HcxHm/H(H(HF|#1BE_H:HuuX3<H",
"al'Ge{[H(2@:tn}H}H|H`GGu1H2Hm<)<:*_&e-G#U$H%`&'%BzV#<&zb_-2_3H4H3>XbH%;ER:cb4=u(|G5H~z`@Jb{}6H7HK$VaTF8H`@.%PE*&+&9H0H;!=H2'AcaH3BbHcHi%b+d#mDmDmDmD*&D%-&,%.!eb|ct.QcdHTx*zeHb%2%a*3DA#;b;*fHYbc R;Pd GgHhHVa[@Iq,c0c|.]H|.iH8=m<)<jHkHMAlHmHwt$1dABEnHoHuuc}pH",
"alqHi>rHx/@:o8sH^GtHuHDqvHwHm<m<3!_&R-3;C#U$`&Kb DxHF$P:4'yHzHAHA#3D&Dr#@&>c9#X$$&6'~zA#O_#DBHCH<&M%<&D%L%a*A8M%n,Q1T_C>=H=HAc@/p=DHcH~}o$L%mDmDmDmDIqyb':+&'-*&`Fy$PdUDEHTxFH]ya&.G*&A#<&| zbVaJb<daG|D!cGHmDmDIqJb-~s@]HHHUD&Em<0<IHWzJHVBKHLHMH$F$FnHNHQyX3pH",
"alOHPHQHx/6'RHSHTHpnAEDqUHVHm<g2p=_&B=Z&WHC#a%5H@DYbV#z8}*XHYHZHc_Yb&D&D`H)H IQE&&5H*&`@UCQ7.I+IK$M%<&ECHC/!J%@In,#I$IyF=H=H-Hggp=%I&Ix/L%~jEDmDmDmDmDQ_{)P_)-h8*I>+Pd=IEH-I3cd&e%a*Q%3>L#:cQE@ID<[dwFvEDC;IEDmD*&N_G&<E|.HHUD[Bg20<>I,IbA>8mHLH'I)I3z!I~I2E/)pH",
"alHFID@yx/u~v~{IMvFy]I^I/I#Im<g2tG>HR-yE'&l 6GD<x+A8<&,c(IgE_IehB@*&U$U$1F>c:I#&ebC%d#5Dx[<I[I']X$3>q@qEyba[h8-<N@a*}I@^2'=H-Ho>p=AB|I~jB##I$&L%mE6'mEL%A8[@e$h81I(*wF4iIG2It%w;.b5]3IA#A#4IK#5ID<nD' 6IDC7I*&M%`@A! .<EHHKD&p_-m<)<8I9I7i0IDE)IaIbI%ycIdIeIfIpH",
"al'GNzgIK%ZbznhIiI({jIkIlI2im<g2:*>H8=H%l l a%t6G%*!<&zGokjAY!mIc_`@U$U$L%$&nIEDebD%[ J#q&oIpIqIW$3>eGJ{WbrI3>-<S%O}.I;.X&=H=Ho>_-ac&IP_sI <i%p@5'R;~&p@;}4 O}A#ND;!`E2FtIuIvIqE;EnDP:W$|c)-$'c_*!TDD-wI_='EEDD%x;P:0hX&B}}E&p&Em<)<xIyI&mzI$FDEbxAICqBICIDIEIpH",
"al'GFIGIK%j*HIIIJIKILIMINIrfm<ohOI>Hp=PI|.Z&H%=~>cZ<|czGQIRI)8SIc_`@H%H%A8L#g&TIUIz$C$`&D>7!VIWIi%$&T;v${c;*w M@;*D$XIC==H=H6GC:p=YI|IR*Cba*h8@%>,>,ZIQ_3>`@/!M%NDC><~yH`I0A JyG;*a%z8W$QEe$zb.JEx1G .wI+J@J&&d&./z8+-5F|.|.q*XAm<)<#J$J%J&J$F#1*JAICqpn=J-J;J<H",
"al>J,J'JK%ZIHI)J^)!J~J{JU*]JXcb_:*Qch@^J/JZ&U$)-UC3%x TD(J_Jm,:J%%A#U$H%$'c_46<Ja%7'[Jr#'*)*}J|Jh8h81J2JP];*;*r#X&]H3Jp>y%a%WB@/p=4J&I5Jxb&@)H@>`&6G7'w;Q%~z,7|c6J,7<~ F7J8J%&C#H%;*0#u(TFs@y8V%5H5'F-(<9J^:j};E%80J+-d&}EHHyE[A4!SAaJbJ8oJD-8CqcJAIrt&FdJeJIGpH",
"al>J`yfJK%gJhJiJ^)jJkJlJU*84m<b_4'QcmJ/Jl l H%!-cDj*TI4=UcjAm,CvXaM%l l t$B@H(.Il l }El '*7!nJoJ'zL%pJ;E'cr#}EY&qJ&DrJ.[=HH%2'C:R-sJtJuJ*&ZbS:,CH%<E<E9cN_*&F-zb|c`C<~|DvJgBcb}&2'<EN_h%;bH(3%^%>&[cs#wJxJyJzJs@W/dH[%AJ>!;*WBG*4!SA/xBJ.JCJQmDJEJFJCqCqGJHJw~pH",
"ysIJJJKJd#LJMJiJ)JNJlIOJEkPJSA7<aGQcwBCDl l H%:-sIezF&}$QJjAJ6RJ%%`@PGl .%(FSJrIl l PGPG'*|BS7TJQ_t6;Ev$O}s@yEl |.>+UJVJa%H%2'@/R-:Ai~wb %PCWJd&<EH%&Da%v%~z>+Y'XJK YJ;A7JZJG%I*H%l `JK$;b0C=)3>{Ht$OF K.K+KeGs@`B'Cs*@K-~d%nD>5)<)<#K$K%K~EbIDJ&KLH&F&F*K=KaipH",
"pHale[-K1F;K.&>KO9W),K;3F^'Km<)KaG!K~K|.|.|.H%#%xbEx#5{K]KXH^Ky,/KA#U$C#Y#Q_q&V$l Z&=H=H/~L<S7(K,c>,1B7!Z&Z&l l C#@>_K:K`&v%ocuG>~P;<K[KH%~cD$H#H%H%U$C#`&$'}K!-3 I/|K2_1K-I)H<@a%2'S:B@X$y+f&#&z$D<PG2K3KmIq@Y-&Cs#o&o&h@H*'*k[m<m<4K5KF{6K7K&F8Kwt&F9Kl80KaipH",
"ysaln-aK1F;KhJiJiJ^)bKcKv1dKm<)KaG+-3)|.|.|.C#Fb;b0#vFS<r=!F}8eKXaU%(EZ&y%;*fKC#Z&Z&=Hd&./f^S7gKhKa%WBiK|.Z&l l C#%._KjKy%.bwc4;p*a>kKlKA%v>C#5]C#C#C#U$=HX'}EmKcD +3)nKoKpKf&qKqJH%D<B@g%D%PE*&Wb.%PGrKsKtK;bW#&Cc#s*[%+-QcuKE<m<m<A/vKwKxKyKzKAK$F3E#1BKCKA*pH",
"alal('3>DKXpEKFKFKJI$!(2C]F|m<7<WF+-GKHH|.|.Z&:-ECq&q)i&p=HK21IKSdab}K|.l oDq:rIZ&Z&>,q:(*N=*BJK<cOFa%n-|.PGl Z&B}&*.IDG}E|.q*e[#Dp>KK2i'&]cH%a%Z&l H%l X&H%E-H#LK .MKL[&%NK[ P*OKqJ:-YbTF.%P,PKa%D$[dQK>5RKF$SK&*u.s*s*W&@KK.^>m<)<E|yITKUKVKWKXKdA)DAIYKZKeopH",
"alaly%bB;FF|`KFKm9k~Xp Lwe>8m<7<Pdi i `w|.|.|.Z&C#V$WHH#Q<.LUz+L`$D_H%@Ll l O}rIl Z&&CZ*(=b=*B[bDbX&xEU$v&rIl Z&CD&C**v$`w`w&pf[#q#LuFw;$Ll-r#y%l l H%l v%PG;*r#5F .OI%LAF4 &L*L[EqJa%d&g-5)P,$LPGyG>!..>7=LxeI)%Cu.s*s*s*s*s*<70<0<^x$J~HVH'KrtXK2@fB-Lbi;LwupH",
"alpHd/>L,L*K'L)L!LhIf{4%i9~Lm<7<rei re/JZ&Z&l l PIX&}EU${LsADH]Lh>^L1BCDZ&|.`w]H.b.bj$R<';f^/L(LCz<EY&'&Z&l '&Z&D$_La%;*KDKDoDP*o=D-:Lpe;*H%X&5]s@y%-HX&yEl l Z&'&W&<L[L}L|c6+e^Y&v%C#C#U$PGZ&l Z&|.I*|L^K1Lt%&@2LQc3LGK3Ls*W&XAXBFB]x4L)bVH5LdA$FBE6L7LJD8Lw~pH",
"alpH9Lx{0LaLbLcLm9k~XpdL|Gn](j&| -|L -NcNcNcPdHGrere_&Qc_7o[eL`.fL3G8=McreMcPcgLOcrehL.BaHiL77[dh*^[Qc_&PcQcPcgLPcjLQ&_*_!kL<~Q7N~_A.K*DMcMcD-P7^[8geLhfPcPc!Ki i u[.BWA3K}DnDsKkLQcQcQcQcQclLmLnLoLgLw7Q7[GpLT<OcYAu[u[uG`Au[V7Uc)<]jqLrLsLtL5A-GD5uLvLwL,Dv~ys",
"alpHyG+5xLyLBb=|O9zL#:@:r:5)FB>E-.FsL^L^-.B6W[W[pAvAN}ALAL:'@8BL.6W[sAuA)K)KohCL-.o[pApA-.qAN~V7..)6....q ......q DLv;a=@C#qFsFsFs)6EL)6q V7FLEL..R7V7 B..q ..*6q ..Fs)6N~#qknDLv;..tF..Fs......T))6y4y4FL%H......*6FsN~DLa=S;GL4!SAn}HL]'IL$1JLKLLL]%MLNLLA2@ys",
"alysQ;OLPLc6QLH}#yRLZI@:5%P,I,SL<B8g5BxB_!TLnLVEKKULVLWLXLYL=7ZL`L M.M+M@M@M#M$M%M&MoK*M=M-M;M*M*M>M,M'M)MLu!M~M{M]M^M/M(M_M:M^M<M[M}M|M{MFI@D1M)M2MoK3M4M5M6MEI7MPFPFPF8M8M8M9M0MaMbMcMdMeMfMgM(#hMiMjMkM|FlMuFmMCFUD{})6nM#LoMVcSApMqM9zrM>8PJNHQmsMtM5LNw-Gys",
"alal7,uMA@vM:>wMH}YxO}MDHIr%I,SLPd[%<~';`Bs@S:3>6D^%c_%%E&nx73xMg(yMzMLDAMBMBMn<iEIGIGTx*zF:CMDMEMEM{Fi>`$%%,&FM{FGMHMIMJM#~KMLMMMNMNMs<NMNMGDOMPMKMQMRMQMSMTMTMUMTM0AIAZ)Nb*zu@i>_:Z%|%0%%z/Ku(p8@IVaVai%lElEh854A854+&L%<&G >cZcSAVM.$WMrMXMPJF|YMZMaL`M N$Fys",
"alysR=.N+NXM@N#N#NaI$N.5HIf,QISL>H[%wF_=%Np&I%$'q$q$54dbQ%L%L%~zQE*&*&Q%J%5454M*+&+&R:+&Zayz7%7%{%LLD56%A*J%h8h8h81F#&M*~jLLyz~jK%qF,b}GX$&NY$O*u(*Nl/=NB@Y$-No8;NWa=N=N=N=N=N=NS$S$.JM#T%h81FM*+&E5E'>NhD5'n$E5E5sMJmo8=NS$,Ng!VcXcpM'Nv0)NXMPJF|*KaL!N8,8l~Nys",
"alpHLySp{N]N$!$!$!GJ^N/N(NPK_NwJwFi hLyBn-'CJ*J*J*:Nx&'*x&9#A=9#(*(*./';';d$}$a[a%;*nDH%U$U$s@U$U$C#|..b.bv&|.|.|.|.v&v&v&|.|.|.|.|..bY-&DgG<&M#Za54$&<Ng%c_3>zy`<j*ZbN@[Nz/}Nc^e^<D<D;!X[i*46i*.bw&_=e%-EjE|Nv>5' %QLS:O}d&;*J*Tcm<1N2N3N)NXMPJ4NV8=|=|NL5N6Nys",
"alysk<7Nx7c}$!$!$!=|$1;KG!/)@<wJPdi re}&|.|.|.v&@L@L@L@L@L`w|.|.|.|.|.|.d&}&}&7'H#d&wn}&}&}&dH}$0Ci$CCCCR;@>-C-C[d[d}D]y>+wndHdH7'7'@><d';2J}DX[A=';@>8N!-y+TD:-CDPIfLs@**.b9N0N0NaNe%2DlD,!5'bNgHlDECcNY-s@Y-O}e$| e$dNw&=~eNfNohm<gNhNiN!NXM,L>8<4#N#NjNkN]*al",
"alysa>~:=*lN$!$!$!wMmN~:G!63nNSLPd+-_&I*|.|.|.|.@L@L@L@L@L@L`wKD|.|.GF|.|.Z&|.|.Z&Z&Z&l yEl Z&Z&Z&PGH%H%H%H%e$h%oNX[<E<EWB6GpNj$&Cj$6GAc<EyEl Z&Z&|.|.CDCD@L@L@L@L@L]HGF`w@L@L@L@L@L@L`wCDCD|.|.Z&Z&|.|.Z&|.|.|.|.Z&]H]H`wqN@L1Bm<VczJrNsNtNXMXM>8rM|zf{bijN]*ys",
"alpHVJ@NuN/'vN$!$!#N,LwNG!h6xNwJwFi QcCC>,&C&C&Cd%nDd%d%d%d%nDnD&C}&d%nD}&O+O+}&&C&C}&}&wnwn&C&C}&7'I*R;@>[dJ nfSJ./I*1B@>0CR;R;@>@>R;R;-CI*dH7'7'}&d&d&d%d%pNd%d&d%d%d&nDd%;*nDd%d&d&d&nD>,&CwndHI*R;CCW/W/';';/~/~A='CyNwBg&kL)<SAzNANsNc6GJH}aIBN@N#NCNDN/=ys",
"alalENFNGNHNINJN,<KNLNMN=jNNFNON;d>d-d;d;d;dPN;dPN;d;d;d;d;dQNQNQN-dQNQN-d-dRN-d-d-d-dRNRN-d-d-d-d-d-dSN-d-dTNTNTNSNTNTN;dTN,d,dTNSN;dTN-d;dTNTNTN-d-d-d-d-d-dTN-dUN-d-d-dUNUN-d-d-dUNPN-dPNPN;dPN;dVNPNVNVNVNVNVNVNWNWNWNWNXNTNYNZN(ID=c:E<(IA5p*A5A5A5n>`N Oal",
"ysAuAuysysysysys.OAuysys.Oys.OpH+O'pQjQjQj@OQj@O@O@O@O@O@O@O@O@O@O@O@O@O@O@O@O#OQj@O$O#OQjQj@O@O@O@O@O#O@O@OQj@O%O%O&OQj@O@OQj@OQjQjQjQjQjQj%O@O@O@OQj@O%O@O@O@O@O@O@O@OQj@O@OQj@O@O'pQj'pQjQj*OQjQj'pQj'pQjQjQj'p'pQjQjQjQjQj%O.OAualysAuAuysyspHpHysAuAu.O.Oys"};
