/* XPM */
static char * kawara_N_xpm[] = {
"128 128 7112 2",
"  	c #FF00FF",
". 	c #523928",
"+ 	c #533B2B",
"@ 	c #4D3B2F",
"# 	c #38271F",
"$ 	c #523A28",
"% 	c #533823",
"& 	c #533926",
"* 	c #211814",
"= 	c #895F42",
"- 	c #A97249",
"; 	c #B2794C",
"> 	c #885A39",
", 	c #5C4030",
"' 	c #22160F",
") 	c #2F2019",
"! 	c #694935",
"~ 	c #8A5E3B",
"{ 	c #AD7649",
"] 	c #AB7548",
"^ 	c #8A603F",
"/ 	c #322417",
"( 	c #6E4D37",
"_ 	c #825536",
": 	c #8D5D3B",
"< 	c #92613C",
"[ 	c #492B1B",
"} 	c #482C1E",
"| 	c #3C2519",
"1 	c #180F0A",
"2 	c #472C1C",
"3 	c #4E301E",
"4 	c #52301C",
"5 	c #A46F44",
"6 	c #97643D",
"7 	c #8F5E3A",
"8 	c #5A3F2C",
"9 	c #A2714C",
"0 	c #623B22",
"a 	c #8E5E3C",
"b 	c #64412B",
"c 	c #472B1D",
"d 	c #3A2517",
"e 	c #393A13",
"f 	c #262F11",
"g 	c #3B291E",
"h 	c #473325",
"i 	c #261911",
"j 	c #724F34",
"k 	c #3A2619",
"l 	c #382419",
"m 	c #6F4D33",
"n 	c #2E1E15",
"o 	c #24160F",
"p 	c #4B3528",
"q 	c #150D0A",
"r 	c #2C3A19",
"s 	c #3C501B",
"t 	c #40561C",
"u 	c #324010",
"v 	c #3B3F15",
"w 	c #3F2819",
"x 	c #543220",
"y 	c #7D5336",
"z 	c #8C5D3A",
"A 	c #593C1F",
"B 	c #5F4326",
"C 	c #2D2115",
"D 	c #FE00FE",
"E 	c #624631",
"F 	c #865B3B",
"G 	c #5C3821",
"H 	c #956745",
"I 	c #43291C",
"J 	c #301D13",
"K 	c #2B1C11",
"L 	c #263905",
"M 	c #33500B",
"N 	c #557B1D",
"O 	c #52761C",
"P 	c #466518",
"Q 	c #385016",
"R 	c #273716",
"S 	c #10170A",
"T 	c #344419",
"U 	c #42561D",
"V 	c #38481A",
"W 	c #10130C",
"X 	c #34251A",
"Y 	c #8A6142",
"Z 	c #A3714A",
"` 	c #7B5439",
" .	c #25170F",
"..	c #150D09",
"+.	c #9F6F49",
"@.	c #A46F45",
"#.	c #603C26",
"$.	c #2B1B13",
"%.	c #311F16",
"&.	c #6D482E",
"*.	c #A77348",
"=.	c #946643",
"-.	c #130C09",
";.	c #21140D",
">.	c #7B5235",
",.	c #A8754B",
"'.	c #966946",
").	c #2A1B13",
"!.	c #181C0D",
"~.	c #3C4716",
"{.	c #52641E",
"].	c #54691C",
"^.	c #526B1E",
"/.	c #546E1E",
"(.	c #5A7922",
"_.	c #5A7C1E",
":.	c #54761B",
"<.	c #3F5D13",
"[.	c #324A0F",
"}.	c #473E1A",
"|.	c #3A2419",
"1.	c #4C2F1F",
"2.	c #956643",
"3.	c #54401E",
"4.	c #4F4A20",
"5.	c #815E45",
"6.	c #56351F",
"7.	c #59371F",
"8.	c #865C3F",
"9.	c #482D1F",
"0.	c #2D1B14",
"a.	c #654022",
"b.	c #3D3D0D",
"c.	c #345603",
"d.	c #406508",
"e.	c #3F6209",
"f.	c #415F0F",
"g.	c #4A6018",
"h.	c #425A18",
"i.	c #456517",
"j.	c #557616",
"k.	c #567719",
"l.	c #4C6A18",
"m.	c #304910",
"n.	c #463A19",
"o.	c #3E2515",
"p.	c #8A6141",
"q.	c #94633F",
"r.	c #75482B",
"s.	c #4B2F1F",
"t.	c #392316",
"u.	c #261710",
"v.	c #644833",
"w.	c #704F36",
"x.	c #704F35",
"y.	c #6F4E34",
"z.	c #6E4E34",
"A.	c #6D4E34",
"B.	c #6E4D34",
"C.	c #6E4F34",
"D.	c #6E4F35",
"E.	c #6E4F36",
"F.	c #684B33",
"G.	c #64452F",
"H.	c #A87349",
"I.	c #905C36",
"J.	c #755037",
"K.	c #291912",
"L.	c #573C28",
"M.	c #6C4B33",
"N.	c #6B4B32",
"O.	c #6C4C33",
"P.	c #6C4B32",
"Q.	c #6D4C33",
"R.	c #6D4D32",
"S.	c #6C4E34",
"T.	c #675034",
"U.	c #5F5332",
"V.	c #545329",
"W.	c #4D5127",
"X.	c #3E4921",
"Y.	c #38441A",
"Z.	c #685337",
"`.	c #513A2A",
" +	c #281910",
".+	c #80583A",
"++	c #AA764A",
"@+	c #9D6A42",
"#+	c #593E2A",
"$+	c #6F5037",
"%+	c #6E4E33",
"&+	c #6E4D32",
"*+	c #6D4D33",
"=+	c #725137",
"-+	c #634530",
";+	c #422B1C",
">+	c #332015",
",+	c #68452C",
"'+	c #A87347",
")+	c #96633D",
"!+	c #6C4B35",
"~+	c #432615",
"{+	c #4C3A1A",
"]+	c #344713",
"^+	c #2E4212",
"/+	c #445716",
"(+	c #576D1A",
"_+	c #56701A",
":+	c #4B6716",
"<+	c #395611",
"[+	c #2D480E",
"}+	c #2E4A0E",
"|+	c #34530E",
"1+	c #35550E",
"2+	c #304C0B",
"3+	c #5F4521",
"4+	c #613D24",
"5+	c #21160F",
"6+	c #503222",
"7+	c #8D6242",
"8+	c #6C492B",
"9+	c #554120",
"0+	c #48321F",
"a+	c #79583F",
"b+	c #4F301C",
"c+	c #6A4C38",
"d+	c #41281C",
"e+	c #2A1A13",
"f+	c #2E1B14",
"g+	c #643E27",
"h+	c #583D1D",
"i+	c #243A04",
"j+	c #253E04",
"k+	c #333510",
"l+	c #5E3C21",
"m+	c #704629",
"n+	c #784D2C",
"o+	c #494418",
"p+	c #2C470A",
"q+	c #3F4113",
"r+	c #6D4825",
"s+	c #6E4724",
"t+	c #754728",
"u+	c #9A6946",
"v+	c #7D4928",
"w+	c #663E24",
"x+	c #482D1D",
"y+	c #412719",
"z+	c #794B2E",
"A+	c #8E5E39",
"B+	c #96633C",
"C+	c #98643C",
"D+	c #9B673F",
"E+	c #9C683F",
"F+	c #9C673F",
"G+	c #9A663D",
"H+	c #99653E",
"I+	c #915F3A",
"J+	c #835736",
"K+	c #8A5F3E",
"L+	c #8E5A38",
"M+	c #7A4829",
"N+	c #3C2415",
"O+	c #342115",
"P+	c #65432C",
"Q+	c #6D472B",
"R+	c #7A5033",
"S+	c #7D5132",
"T+	c #855837",
"U+	c #8B5C39",
"V+	c #8D5D39",
"W+	c #905F39",
"X+	c #906039",
"Y+	c #8D5E38",
"Z+	c #5D4A23",
"`+	c #445514",
" @	c #58741A",
".@	c #4E6C19",
"+@	c #2D4C0D",
"@@	c #3B5F0D",
"#@	c #5F6E23",
"$@	c #4F321D",
"%@	c #2B1A11",
"&@	c #3E2618",
"*@	c #724629",
"=@	c #7C4D2C",
"-@	c #7F583C",
";@	c #835A3A",
">@	c #94623B",
",@	c #96623B",
"'@	c #95623A",
")@	c #946139",
"!@	c #925F37",
"~@	c #8F5C36",
"{@	c #8D5B36",
"]@	c #8A5A35",
"^@	c #8A5B35",
"/@	c #876C34",
"(@	c #856C33",
"_@	c #7A4A29",
":@	c #683F26",
"<@	c #27180F",
"[@	c #502F1C",
"}@	c #835434",
"|@	c #7F4C2C",
"1@	c #684026",
"2@	c #4D2B1A",
"3@	c #7B4828",
"4@	c #634221",
"5@	c #634222",
"6@	c #634521",
"7@	c #4F431D",
"8@	c #4A4320",
"9@	c #4B3E1F",
"0@	c #573F21",
"a@	c #5D4023",
"b@	c #48391A",
"c@	c #2B3B0C",
"d@	c #29460A",
"e@	c #3E3B14",
"f@	c #53351F",
"g@	c #482D1C",
"h@	c #251811",
"i@	c #492C1E",
"j@	c #775239",
"k@	c #734F2F",
"l@	c #4F441C",
"m@	c #483620",
"n@	c #3D2E25",
"o@	c #6F4C35",
"p@	c #4F2F1C",
"q@	c #51321F",
"r@	c #3F281C",
"s@	c #382317",
"t@	c #311D16",
"u@	c #613B24",
"v@	c #6C4227",
"w@	c #614323",
"x@	c #634122",
"y@	c #673E23",
"z@	c #613821",
"A@	c #5C3520",
"B@	c #55311E",
"C@	c #4F331E",
"D@	c #402D18",
"E@	c #4B2F1C",
"F@	c #58351F",
"G@	c #5C371F",
"H@	c #5D3821",
"I@	c #432D20",
"J@	c #805030",
"K@	c #7C4828",
"L@	c #613A23",
"M@	c #41281B",
"N@	c #402618",
"O@	c #613922",
"P@	c #603920",
"Q@	c #653A20",
"R@	c #6A3D23",
"S@	c #6E4025",
"T@	c #714225",
"U@	c #7A4727",
"V@	c #794728",
"W@	c #764527",
"X@	c #734326",
"Y@	c #704125",
"Z@	c #6A3F24",
"`@	c #51301E",
" #	c #926544",
".#	c #7D4929",
"+#	c #704327",
"@#	c #3C2417",
"##	c #774629",
"$#	c #704225",
"%#	c #6E4024",
"&#	c #744426",
"*#	c #764526",
"=#	c #774526",
"-#	c #774627",
";#	c #724426",
">#	c #694224",
",#	c #5B4021",
"'#	c #563C20",
")#	c #373814",
"!#	c #415B14",
"~#	c #56581D",
"{#	c #55351F",
"]#	c #352017",
"^#	c #683F25",
"/#	c #774728",
"(#	c #6A442C",
"_#	c #331D11",
":#	c #7B492A",
"<#	c #7C4929",
"[#	c #7C4928",
"}#	c #7B4A29",
"|#	c #7C4A29",
"1#	c #7C492A",
"2#	c #6A4424",
"3#	c #553F1C",
"4#	c #636320",
"5#	c #5B741E",
"6#	c #6C5725",
"7#	c #7D4C2B",
"8#	c #76482B",
"9#	c #2E1C13",
"0#	c #472B1B",
"a#	c #814C2C",
"b#	c #7B4C2C",
"c#	c #291911",
"d#	c #4F2E1C",
"e#	c #5D3720",
"f#	c #613A22",
"g#	c #633B22",
"h#	c #623B24",
"i#	c #59351F",
"j#	c #55321D",
"k#	c #54331E",
"l#	c #54331F",
"m#	c #53341F",
"n#	c #48331A",
"o#	c #313210",
"p#	c #422C19",
"q#	c #3E2718",
"r#	c #372217",
"s#	c #2E1D14",
"t#	c #2E1D15",
"u#	c #5F4230",
"v#	c #734F33",
"w#	c #503D1A",
"x#	c #513A23",
"y#	c #473224",
"z#	c #603D28",
"A#	c #52311E",
"B#	c #4C2F1E",
"C#	c #392318",
"D#	c #311E15",
"E#	c #321F18",
"F#	c #321E17",
"G#	c #311E17",
"H#	c #362117",
"I#	c #352115",
"J#	c #3A2114",
"K#	c #4E2E1E",
"L#	c #53311F",
"M#	c #54311F",
"N#	c #5B3621",
"O#	c #4B3B1A",
"P#	c #58471F",
"Q#	c #6C3F23",
"R#	c #6B3E23",
"S#	c #6D4024",
"T#	c #7B4728",
"U#	c #794628",
"V#	c #553320",
"W#	c #3B2316",
"X#	c #301E16",
"Y#	c #3A2317",
"Z#	c #6E4126",
"`#	c #704126",
" $	c #6F4125",
".$	c #714227",
"+$	c #774729",
"@$	c #6E4227",
"#$	c #7F4C2E",
"$$	c #845131",
"%$	c #462818",
"&$	c #7B5337",
"*$	c #7A4728",
"=$	c #693E24",
"-$	c #25170E",
";$	c #331E14",
">$	c #76462A",
",$	c #724428",
"'$	c #6A3E23",
")$	c #653B22",
"!$	c #603820",
"~$	c #613A21",
"{$	c #5F3921",
"]$	c #5B361F",
"^$	c #593621",
"/$	c #56341F",
"($	c #55351E",
"_$	c #4F341C",
":$	c #3A3716",
"<$	c #52361F",
"[$	c #583621",
"}$	c #331F15",
"|$	c #271911",
"1$	c #764728",
"2$	c #5B3721",
"3$	c #291810",
"4$	c #704228",
"5$	c #78472A",
"6$	c #79492B",
"7$	c #7A492C",
"8$	c #704627",
"9$	c #50411B",
"0$	c #5E4420",
"a$	c #764929",
"b$	c #7F4D2C",
"c$	c #7E4E2F",
"d$	c #311E14",
"e$	c #3C2518",
"f$	c #593521",
"g$	c #834C2C",
"h$	c #7C4C2C",
"i$	c #301F13",
"j$	c #342217",
"k$	c #3D2416",
"l$	c #3B2417",
"m$	c #40281A",
"n$	c #462A1A",
"o$	c #4E2F1C",
"p$	c #50301C",
"q$	c #4A2D1B",
"r$	c #462918",
"s$	c #452A19",
"t$	c #462B1A",
"u$	c #402819",
"v$	c #2D1C12",
"w$	c #293A0F",
"x$	c #2F2514",
"y$	c #362116",
"z$	c #41271A",
"A$	c #6C4A31",
"B$	c #563723",
"C$	c #3F281B",
"D$	c #3A2518",
"E$	c #573522",
"F$	c #543320",
"G$	c #4C2F1D",
"H$	c #372117",
"I$	c #321E18",
"J$	c #4F301E",
"K$	c #54321E",
"L$	c #5E3722",
"M$	c #623A23",
"N$	c #653B23",
"O$	c #663E22",
"P$	c #724627",
"Q$	c #774628",
"R$	c #714327",
"S$	c #56321E",
"T$	c #4E3020",
"U$	c #382318",
"V$	c #382217",
"W$	c #53311E",
"X$	c #54311E",
"Y$	c #55311D",
"Z$	c #5B3520",
"`$	c #593420",
" %	c #4A2C1B",
".%	c #422819",
"+%	c #3F2618",
"@%	c #3D2517",
"#%	c #402619",
"$%	c #472A1A",
"%%	c #56331F",
"&%	c #382115",
"*%	c #694026",
"=%	c #271810",
"-%	c #311D17",
";%	c #43281A",
">%	c #492A1A",
",%	c #482B1B",
"'%	c #482B1A",
")%	c #472B1A",
"!%	c #472A19",
"~%	c #4A2B1A",
"{%	c #4B2C1A",
"]%	c #4E2D1B",
"^%	c #53311D",
"/%	c #53331E",
"(%	c #443F19",
"_%	c #563A1E",
":%	c #53331F",
"<%	c #311E16",
"[%	c #271811",
"}%	c #784728",
"|%	c #5A3520",
"1%	c #271711",
"2%	c #382216",
"3%	c #412718",
"4%	c #442719",
"5%	c #482A1A",
"6%	c #4C2C1B",
"7%	c #4D2C1A",
"8%	c #58351E",
"9%	c #59351E",
"0%	c #593520",
"a%	c #362218",
"b%	c #372114",
"c%	c #77492B",
"d%	c #352216",
"e%	c #3D271A",
"f%	c #583420",
"g%	c #54321F",
"h%	c #53321E",
"i%	c #50301D",
"j%	c #3F2619",
"k%	c #341F15",
"l%	c #292C0D",
"m%	c #263C09",
"n%	c #2D430F",
"o%	c #322017",
"p%	c #331F18",
"q%	c #2B1911",
"r%	c #3A2217",
"s%	c #5E3B26",
"t%	c #563521",
"u%	c #462C1D",
"v%	c #382418",
"w%	c #543421",
"x%	c #563421",
"y%	c #372218",
"z%	c #22140D",
"A%	c #362017",
"B%	c #3D2519",
"C%	c #44281A",
"D%	c #44291A",
"E%	c #764629",
"F%	c #77472A",
"G%	c #4A2E1E",
"H%	c #372318",
"I%	c #4C2D1D",
"J%	c #4E2E1C",
"K%	c #4E2D1C",
"L%	c #4F2F1D",
"M%	c #51301D",
"N%	c #563321",
"O%	c #362015",
"P%	c #6B3F26",
"Q%	c #4E2F1D",
"R%	c #301E17",
"S%	c #3D2418",
"T%	c #52301E",
"U%	c #55321F",
"V%	c #55331F",
"W%	c #543420",
"X%	c #503F1E",
"Y%	c #573B21",
"Z%	c #5C3721",
"`%	c #784729",
" &	c #482A19",
".&	c #4A2B1B",
"+&	c #4B2C1B",
"@&	c #4D2D1D",
"#&	c #4E2E1D",
"$&	c #4F2F1E",
"%&	c #50301F",
"&&	c #4F301F",
"*&	c #50301E",
"=&	c #4D2E1E",
"-&	c #342018",
";&	c #382215",
">&	c #452A1B",
",&	c #5E3923",
"'&	c #382319",
")&	c #4B2C1C",
"!&	c #4A2C1C",
"~&	c #472A1B",
"{&	c #40261A",
"]&	c #3B2318",
"^&	c #321E16",
"/&	c #2E2313",
"(&	c #321F16",
"_&	c #241710",
":&	c #623C27",
"<&	c #53321F",
"[&	c #553420",
"}&	c #342116",
"|&	c #543522",
"1&	c #563522",
"2&	c #533221",
"3&	c #281811",
"4&	c #1E120D",
"5&	c #281711",
"6&	c #2C1A14",
"7&	c #331E17",
"8&	c #2F1D15",
"9&	c #2E1C15",
"0&	c #341F18",
"a&	c #3C2619",
"b&	c #40281B",
"c&	c #321D15",
"d&	c #352116",
"e&	c #563420",
"f&	c #472B1C",
"g&	c #281911",
"h&	c #301D17",
"i&	c #341F16",
"j&	c #331E16",
"k&	c #341E16",
"l&	c #331D16",
"m&	c #331D15",
"n&	c #321D16",
"o&	c #271912",
"p&	c #4D2F1E",
"q&	c #331F14",
"r&	c #2A1912",
"s&	c #321F17",
"t&	c #3A2315",
"u&	c #3F271B",
"v&	c #3A2418",
"w&	c #3C2618",
"x&	c #2D1D13",
"y&	c #332018",
"z&	c #301C16",
"A&	c #2B1913",
"B&	c #281812",
"C&	c #261711",
"D&	c #1B110D",
"E&	c #573420",
"F&	c #553422",
"G&	c #251710",
"H&	c #291A13",
"I&	c #27170F",
"J&	c #49271C",
"K&	c #6A3828",
"L&	c #623223",
"M&	c #5B2F21",
"N&	c #3F2018",
"O&	c #25150F",
"P&	c #321D17",
"Q&	c #22150F",
"R&	c #3A2316",
"S&	c #482B19",
"T&	c #382014",
"U&	c #25150E",
"V&	c #2C1A13",
"W&	c #281A12",
"X&	c #372319",
"Y&	c #38241A",
"Z&	c #392419",
"`&	c #352118",
" *	c #2F1C16",
".*	c #2C1B14",
"+*	c #291812",
"@*	c #251610",
"#*	c #23150F",
"$*	c #2A1913",
"%*	c #301D15",
"&*	c #332017",
"**	c #362317",
"=*	c #23140E",
"-*	c #372115",
";*	c #362217",
">*	c #2D1B12",
",*	c #21130D",
"'*	c #2E1D13",
")*	c #22150D",
"!*	c #21120B",
"~*	c #26140C",
"{*	c #25140D",
"]*	c #261610",
"^*	c #2B1A13",
"/*	c #301D16",
"(*	c #2F1D14",
"_*	c #281A11",
":*	c #201610",
"<*	c #1F1610",
"[*	c #1B120D",
"}*	c #20140F",
"|*	c #1F130E",
"1*	c #271410",
"2*	c #2F1812",
"3*	c #341B15",
"4*	c #361B16",
"5*	c #381C16",
"6*	c #381C15",
"7*	c #341D14",
"8*	c #25140E",
"9*	c #1A100B",
"0*	c #3A2417",
"a*	c #362115",
"b*	c #703B29",
"c*	c #783E2A",
"d*	c #783E2B",
"e*	c #793F2C",
"f*	c #653426",
"g*	c #3D1E17",
"h*	c #2C1C11",
"i*	c #342014",
"j*	c #402617",
"k*	c #6E4226",
"l*	c #704226",
"m*	c #6F4226",
"n*	c #502E1D",
"o*	c #26150F",
"p*	c #1C120D",
"q*	c #38251B",
"r*	c #36231A",
"s*	c #281912",
"t*	c #2F1D16",
"u*	c #261611",
"v*	c #20120D",
"w*	c #22130E",
"x*	c #361E15",
"y*	c #47291B",
"z*	c #4C2B1C",
"A*	c #4F2D1D",
"B*	c #48281A",
"C*	c #41241A",
"D*	c #3F231A",
"E*	c #3A2017",
"F*	c #2B1912",
"G*	c #1A110B",
"H*	c #2B1C12",
"I*	c #322016",
"J*	c #2C1C13",
"K*	c #281710",
"L*	c #301B13",
"M*	c #4D2D1C",
"N*	c #693D24",
"O*	c #54311C",
"P*	c #27170E",
"Q*	c #21140C",
"R*	c #4E2D1A",
"S*	c #744325",
"T*	c #7A4627",
"U*	c #7B4626",
"V*	c #794424",
"W*	c #55281B",
"X*	c #472118",
"Y*	c #381D16",
"Z*	c #2B1A12",
"`*	c #2F1C15",
" =	c #1D120D",
".=	c #211510",
"+=	c #30251E",
"@=	c #372F28",
"#=	c #3C342C",
"$=	c #3D352E",
"%=	c #3C342D",
"&=	c #372F29",
"*=	c #4B3024",
"==	c #44281C",
"-=	c #271812",
";=	c #3E1E18",
">=	c #421F1A",
",=	c #411F18",
"'=	c #442019",
")=	c #46221A",
"!=	c #47231B",
"~=	c #46231A",
"{=	c #43221A",
"]=	c #41211A",
"^=	c #402019",
"/=	c #251510",
"(=	c #301D14",
"_=	c #3E2719",
":=	c #48291B",
"<=	c #773D2B",
"[=	c #79402C",
"}=	c #7A402C",
"|=	c #5F3124",
"1=	c #44221A",
"2=	c #2D1610",
"3=	c #18100B",
"4=	c #382316",
"5=	c #704326",
"6=	c #47271B",
"7=	c #42221A",
"8=	c #1F150E",
"9=	c #1E130D",
"0=	c #1E130E",
"a=	c #160E09",
"b=	c #1D110B",
"c=	c #3D2119",
"d=	c #3C1E19",
"e=	c #3A1D18",
"f=	c #512D1E",
"g=	c #5C3522",
"h=	c #5C3422",
"i=	c #5B3421",
"j=	c #573120",
"k=	c #512A20",
"l=	c #502A20",
"m=	c #502B21",
"n=	c #1B130E",
"o=	c #170F0B",
"p=	c #20150F",
"q=	c #201410",
"r=	c #1D140E",
"s=	c #311C15",
"t=	c #371E17",
"u=	c #381F17",
"v=	c #623922",
"w=	c #6F4225",
"x=	c #6F4124",
"y=	c #6E4124",
"z=	c #57331E",
"A=	c #2D1C13",
"B=	c #20140E",
"C=	c #20130D",
"D=	c #1F120D",
"E=	c #51301B",
"F=	c #7C4724",
"G=	c #7A4525",
"H=	c #7B4625",
"I=	c #703D22",
"J=	c #59291D",
"K=	c #59291E",
"L=	c #55291E",
"M=	c #2B1710",
"N=	c #1C110C",
"O=	c #22140F",
"P=	c #241510",
"Q=	c #170F0A",
"R=	c #2C1C15",
"S=	c #342921",
"T=	c #37312A",
"U=	c #36312A",
"V=	c #3A342B",
"W=	c #3B342C",
"X=	c #3A332B",
"Y=	c #543829",
"Z=	c #6C3D29",
"`=	c #4D2E1F",
" -	c #19110C",
".-	c #231510",
"+-	c #261811",
"@-	c #382119",
"#-	c #421F19",
"$-	c #401E19",
"%-	c #5B3022",
"&-	c #623626",
"*-	c #613626",
"=-	c #5C3223",
"--	c #5A3122",
";-	c #552F20",
">-	c #572F21",
",-	c #49281C",
"'-	c #3D271B",
")-	c #3E2619",
"!-	c #3D2518",
"~-	c #613423",
"{-	c #763C29",
"]-	c #773D2A",
"^-	c #552B1F",
"/-	c #45221A",
"(-	c #261510",
"_-	c #20150E",
":-	c #3D2619",
"<-	c #3A2416",
"[-	c #663D24",
"}-	c #6F4326",
"|-	c #6C4025",
"1-	c #3E1E17",
"2-	c #49231C",
"3-	c #281712",
"4-	c #40211A",
"5-	c #3D1E18",
"6-	c #593321",
"7-	c #5A3421",
"8-	c #593421",
"9-	c #573020",
"0-	c #532B20",
"a-	c #532B21",
"b-	c #4F2820",
"c-	c #512921",
"d-	c #43241C",
"e-	c #1E140F",
"f-	c #1B120C",
"g-	c #371F17",
"h-	c #3F2317",
"i-	c #6E4225",
"j-	c #6E4224",
"k-	c #663C22",
"l-	c #3E271B",
"m-	c #2A1A14",
"n-	c #2A1A12",
"o-	c #5C351D",
"p-	c #894F29",
"q-	c #7C4625",
"r-	c #7B4624",
"s-	c #64331F",
"t-	c #572920",
"u-	c #3C1F17",
"v-	c #382F26",
"w-	c #37312B",
"x-	c #35302A",
"y-	c #39332B",
"z-	c #3A332A",
"A-	c #47352A",
"B-	c #6B3E28",
"C-	c #653B28",
"D-	c #23160E",
"E-	c #301E15",
"F-	c #2C1B12",
"G-	c #4A2921",
"H-	c #3F1E18",
"I-	c #49251C",
"J-	c #643627",
"K-	c #633526",
"L-	c #613525",
"M-	c #5E3423",
"N-	c #633826",
"O-	c #643727",
"P-	c #26160F",
"Q-	c #FC00FC",
"R-	c #1E140E",
"S-	c #412518",
"T-	c #753B29",
"U-	c #773C2A",
"V-	c #793F2B",
"W-	c #7A3F2C",
"X-	c #47221A",
"Y-	c #392317",
"Z-	c #6F4127",
"`-	c #704227",
" ;	c #673C24",
".;	c #47211A",
"+;	c #46221B",
"@;	c #2F1A14",
"#;	c #3D1E19",
"$;	c #45241A",
"%;	c #5D3623",
"&;	c #5D3620",
"*;	c #603B22",
"=;	c #5D3721",
"-;	c #4D251F",
";;	c #4A241E",
">;	c #45231C",
",;	c #1D130E",
"';	c #301E14",
");	c #150F09",
"!;	c #311C16",
"~;	c #371E16",
"{;	c #54301E",
"];	c #6E4125",
"^;	c #6D4124",
"/;	c #6F4224",
"(;	c #352013",
"_;	c #63381E",
":;	c #91552B",
"<;	c #7C4624",
"[;	c #7C4725",
"};	c #784324",
"|;	c #59281E",
"1;	c #57281E",
"2;	c #422119",
"3;	c #321E14",
"4;	c #23160F",
"5;	c #3A3028",
"6;	c #39322B",
"7;	c #38312A",
"8;	c #39322A",
"9;	c #3B342A",
"0;	c #3B332A",
"a;	c #673D2A",
"b;	c #6A3C28",
"c;	c #44271A",
"d;	c #20130E",
"e;	c #4B2D21",
"f;	c #401E18",
"g;	c #512A1F",
"h;	c #633727",
"i;	c #5F3324",
"j;	c #653828",
"k;	c #653727",
"l;	c #473226",
"m;	c #3A2216",
"n;	c #5D3121",
"o;	c #793C2A",
"p;	c #773B2A",
"q;	c #6E3626",
"r;	c #7A3C2A",
"s;	c #703829",
"t;	c #401F19",
"u;	c #3F1F18",
"v;	c #160D0A",
"w;	c #342015",
"x;	c #402718",
"y;	c #5C3620",
"z;	c #6F4126",
"A;	c #5F3521",
"B;	c #4A231C",
"C;	c #623F2B",
"D;	c #45221B",
"E;	c #43201A",
"F;	c #58321F",
"G;	c #663B23",
"H;	c #5D3622",
"I;	c #5B3620",
"J;	c #5E3921",
"K;	c #603A22",
"L;	c #5E3821",
"M;	c #4F261F",
"N;	c #4B241F",
"O;	c #48241E",
"P;	c #1A100A",
"Q;	c #321E15",
"R;	c #311F15",
"S;	c #170F09",
"T;	c #472D20",
"U;	c #341C15",
"V;	c #643A22",
"W;	c #392012",
"X;	c #764525",
"Y;	c #93562A",
"Z;	c #7F4825",
"`;	c #7D4725",
" >	c #6D3922",
".>	c #58281F",
"+>	c #48221A",
"@>	c #321F15",
"#>	c #291A12",
"$>	c #563827",
"%>	c #3C3128",
"&>	c #3B332B",
"*>	c #3A322A",
"=>	c #3B342B",
"->	c #5C3928",
";>	c #6B3D29",
">>	c #5D3624",
",>	c #3C2517",
"'>	c #553928",
")>	c #623C28",
"!>	c #542B20",
"~>	c #5B3122",
"{>	c #653627",
"]>	c #5B3123",
"^>	c #1B100C",
"/>	c #FD00FD",
"(>	c #5B3F2E",
"_>	c #381F13",
":>	c #45281A",
"<>	c #713928",
"[>	c #6C3425",
"}>	c #75392A",
"|>	c #5C2D21",
"1>	c #3F1F17",
"2>	c #2E1712",
"3>	c #52301D",
"4>	c #673D24",
"5>	c #321D11",
"6>	c #693E25",
"7>	c #734526",
"8>	c #532C1F",
"9>	c #49221B",
"0>	c #2F1712",
"a>	c #1C100B",
"b>	c #9A6742",
"c>	c #552A21",
"d>	c #522822",
"e>	c #613623",
"f>	c #623722",
"g>	c #633922",
"h>	c #603921",
"i>	c #5E3922",
"j>	c #603A23",
"k>	c #5E3721",
"l>	c #52271F",
"m>	c #4F2520",
"n>	c #1A110D",
"o>	c #1E120C",
"p>	c #1D110A",
"q>	c #865B3D",
"r>	c #4D2B1B",
"s>	c #563220",
"t>	c #6E4026",
"u>	c #3A2215",
"v>	c #3F271A",
"w>	c #8E542C",
"x>	c #915529",
"y>	c #824A26",
"z>	c #774123",
"A>	c #5C2A1E",
"B>	c #4E241C",
"C>	c #2C1B11",
"D>	c #2E1C14",
"E>	c #784E33",
"F>	c #5E432F",
"G>	c #3A322B",
"H>	c #38322A",
"I>	c #442F23",
"J>	c #6F402B",
"K>	c #6B3E2A",
"L>	c #402818",
"M>	c #9C6844",
"N>	c #5C3122",
"O>	c #623526",
"P>	c #633627",
"Q>	c #552E21",
"R>	c #643526",
"S>	c #4B3324",
"T>	c #563623",
"U>	c #4F2C1D",
"V>	c #5E3221",
"W>	c #773B29",
"X>	c #783B29",
"Y>	c #5D2C1F",
"Z>	c #7D3E2E",
"`>	c #74392A",
" ,	c #381C17",
".,	c #170D0A",
"+,	c #724225",
"@,	c #58341F",
"#,	c #6C3F26",
"$,	c #6D4025",
"%,	c #95623B",
"&,	c #663C25",
"*,	c #6D3E26",
"=,	c #42201A",
"-,	c #24140F",
";,	c #311D15",
">,	c #352117",
",,	c #22120C",
"',	c #B0754A",
"),	c #613324",
"!,	c #552822",
"~,	c #532822",
"{,	c #4D231D",
"],	c #57311F",
"^,	c #5F3A21",
"/,	c #5A3120",
"(,	c #50261F",
"_,	c #522620",
":,	c #43211C",
"<,	c #42271A",
"[,	c #291811",
"},	c #8E5E3B",
"|,	c #79482A",
"1,	c #8B5632",
"2,	c #482516",
"3,	c #6D3F26",
"4,	c #6C3E26",
"5,	c #2D1A12",
"6,	c #2E1B13",
"7,	c #2D1B13",
"8,	c #321C11",
"9,	c #93562D",
"0,	c #95562B",
"a,	c #8C5028",
"b,	c #714023",
"c,	c #794325",
"d,	c #622C1E",
"e,	c #4B221A",
"f,	c #3B2317",
"g,	c #543727",
"h,	c #815538",
"i,	c #3B332C",
"j,	c #332922",
"k,	c #663C2A",
"l,	c #6B3F2B",
"m,	c #1F130C",
"n,	c #422719",
"o,	c #8E5E3D",
"p,	c #815034",
"q,	c #563022",
"r,	c #633827",
"s,	c #653929",
"t,	c #5A3123",
"u,	c #5A2F21",
"v,	c #653526",
"w,	c #3B1D17",
"x,	c #5F3F28",
"y,	c #67422A",
"z,	c #633423",
"A,	c #743B28",
"B,	c #743A28",
"C,	c #733A28",
"D,	c #411E17",
"E,	c #72372A",
"F,	c #54281E",
"G,	c #381B17",
"H,	c #251410",
"I,	c #140C0A",
"J,	c #26130A",
"K,	c #97633E",
"L,	c #714224",
"M,	c #8F5E3C",
"N,	c #522C1D",
"O,	c #2F1913",
"P,	c #372116",
"Q,	c #412818",
"R,	c #372016",
"S,	c #2B1812",
"T,	c #8E5B39",
"U,	c #74432C",
"V,	c #522721",
"W,	c #532821",
"X,	c #5C4020",
"Y,	c #603721",
"Z,	c #5D3820",
"`,	c #422219",
" '	c #43201B",
".'	c #44201B",
"+'	c #361C18",
"@'	c #130C07",
"#'	c #311D13",
"$'	c #4B2D1C",
"%'	c #905C37",
"&'	c #794929",
"*'	c #6C4023",
"='	c #754526",
"-'	c #A0673C",
";'	c #3F1E13",
">'	c #6B3D25",
",'	c #502D1D",
"''	c #794726",
")'	c #9A5A2D",
"!'	c #96572B",
"~'	c #804925",
"{'	c #6A3D21",
"]'	c #63371E",
"^'	c #653520",
"/'	c #351E15",
"('	c #2C1A12",
"_'	c #402519",
":'	c #150C07",
"<'	c #68442D",
"['	c #3A3128",
"}'	c #3D342D",
"|'	c #383129",
"1'	c #352E27",
"2'	c #362319",
"3'	c #452B1E",
"4'	c #211610",
"5'	c #432919",
"6'	c #442819",
"7'	c #342016",
"8'	c #341E15",
"9'	c #65412D",
"0'	c #553221",
"a'	c #9C6843",
"b'	c #653928",
"c'	c #673C2B",
"d'	c #643828",
"e'	c #5D3124",
"f'	c #50271C",
"g'	c #3E1F19",
"h'	c #402516",
"i'	c #AC7146",
"j'	c #9B603E",
"k'	c #723A28",
"l'	c #5E2F21",
"m'	c #361A15",
"n'	c #45201A",
"o'	c #351A16",
"p'	c #301915",
"q'	c #180E0A",
"r'	c #362016",
"s'	c #23130D",
"t'	c #784F32",
"u'	c #9F6940",
"v'	c #8E5B35",
"w'	c #976137",
"x'	c #A46C40",
"y'	c #795033",
"z'	c #381D17",
"A'	c #24130F",
"B'	c #291711",
"C'	c #311D14",
"D'	c #352015",
"E'	c #462A19",
"F'	c #492A19",
"G'	c #331C14",
"H'	c #371C16",
"I'	c #4D2A1E",
"J'	c #6C3C25",
"K'	c #663624",
"L'	c #582B20",
"M'	c #582C1F",
"N'	c #5B3121",
"O'	c #5C3421",
"P'	c #5B3120",
"Q'	c #572D20",
"R'	c #43211B",
"S'	c #321A15",
"T'	c #331B17",
"U'	c #402518",
"V'	c #3E2518",
"W'	c #3D2318",
"X'	c #3F2518",
"Y'	c #3E2418",
"Z'	c #3D2217",
"`'	c #875836",
" )	c #9D663D",
".)	c #895631",
"+)	c #7D4C2C",
"@)	c #935C35",
"#)	c #9B623A",
"$)	c #3A1D14",
"%)	c #391F16",
"&)	c #341D15",
"*)	c #22140E",
"=)	c #331D13",
"-)	c #714324",
";)	c #8E532B",
">)	c #8D5329",
",)	c #844F28",
"')	c #854D28",
"))	c #864C27",
"!)	c #894F27",
"~)	c #724224",
"{)	c #372015",
"])	c #2D1A11",
"^)	c #462619",
"/)	c #351F16",
"()	c #1B110B",
"_)	c #37271D",
":)	c #3C3229",
"<)	c #3D352D",
"[)	c #3A3129",
"})	c #45372C",
"|)	c #4C392C",
"1)	c #50372A",
"2)	c #19140F",
"3)	c #271A12",
"4)	c #1E150E",
"5)	c #341F14",
"6)	c #432918",
"7)	c #452918",
"8)	c #503324",
"9)	c #B47B4C",
"0)	c #A56E46",
"a)	c #8D5B3A",
"b)	c #815133",
"c)	c #895435",
"d)	c #845237",
"e)	c #401F18",
"f)	c #3C1E17",
"g)	c #27130A",
"h)	c #9B6743",
"i)	c #422217",
"j)	c #4F2E24",
"k)	c #42231B",
"l)	c #341A15",
"m)	c #341B16",
"n)	c #351C18",
"o)	c #2A1713",
"p)	c #1D100D",
"q)	c #3C2318",
"r)	c #43261A",
"s)	c #321D14",
"t)	c #452A1D",
"u)	c #6B452B",
"v)	c #7D5233",
"w)	c #6D472D",
"x)	c #371C13",
"y)	c #321B15",
"z)	c #311B15",
"A)	c #281510",
"B)	c #180E0B",
"C)	c #301C11",
"D)	c #422617",
"E)	c #422616",
"F)	c #4A2A18",
"G)	c #56311B",
"H)	c #5E341D",
"I)	c #3E2419",
"J)	c #22120E",
"K)	c #301A14",
"L)	c #3C2118",
"M)	c #4E2A1C",
"N)	c #47241A",
"O)	c #48251C",
"P)	c #46241C",
"Q)	c #3C1E18",
"R)	c #301A15",
"S)	c #2A1712",
"T)	c #160C09",
"U)	c #0E0A06",
"V)	c #46281A",
"W)	c #633A21",
"X)	c #412517",
"Y)	c #3E2317",
"Z)	c #643E26",
"`)	c #372216",
" !	c #25160F",
".!	c #3F2519",
"+!	c #613F28",
"@!	c #734C32",
"#!	c #6F4B31",
"$!	c #3B2015",
"%!	c #1F130D",
"&!	c #3D2417",
"*!	c #462919",
"=!	c #56341E",
"-!	c #412618",
";!	c #2E1C12",
">!	c #2F1E15",
",!	c #42291A",
"'!	c #53311C",
")!	c #5D3822",
"!!	c #3C2418",
"~!	c #2C1B13",
"{!	c #371F14",
"]!	c #65371F",
"^!	c #6A3C21",
"/!	c #311E13",
"(!	c #1D140D",
"_!	c #271A11",
":!	c #2C1D15",
"<!	c #2E221A",
"[!	c #4C3427",
"}!	c #513528",
"|!	c #3E281D",
"1!	c #2B1D15",
"2!	c #221911",
"3!	c #20160F",
"4!	c #130F0A",
"5!	c #4E2D19",
"6!	c #56321C",
"7!	c #22150E",
"8!	c #23120D",
"9!	c #6E4931",
"0!	c #391C14",
"a!	c #503123",
"b!	c #593625",
"c!	c #5B3727",
"d!	c #411F17",
"e!	c #3E2019",
"f!	c #2B1610",
"g!	c #4A2D1E",
"h!	c #100B0A",
"i!	c #180E0D",
"j!	c #1E1110",
"k!	c #1E1210",
"l!	c #170E0C",
"m!	c #090807",
"n!	c #070707",
"o!	c #663823",
"p!	c #57301D",
"q!	c #42271B",
"r!	c #2C1A11",
"s!	c #2C170F",
"t!	c #2B160E",
"u!	c #2D1710",
"v!	c #2C1710",
"w!	c #22130D",
"x!	c #1F110C",
"y!	c #2E1911",
"z!	c #301A12",
"A!	c #492C1B",
"B!	c #905B35",
"C!	c #7E4C2A",
"D!	c #734021",
"E!	c #824E2D",
"F!	c #935E39",
"G!	c #402418",
"H!	c #1F110D",
"I!	c #1E100C",
"J!	c #291712",
"K!	c #311B16",
"L!	c #2F1A15",
"M!	c #2F1914",
"N!	c #2E1A15",
"O!	c #2D1914",
"P!	c #1F120F",
"Q!	c #2C1A16",
"R!	c #110B06",
"S!	c #94613C",
"T!	c #87512C",
"U!	c #824C28",
"V!	c #7B4927",
"W!	c #86522F",
"X!	c #7C4F2F",
"Y!	c #2B1B10",
"Z!	c #2D1913",
"`!	c #2C1912",
" ~	c #2D1A13",
".~	c #2D1712",
"+~	c #41221A",
"@~	c #46271D",
"#~	c #694229",
"$~	c #945D35",
"%~	c #965F36",
"&~	c #784627",
"*~	c #623920",
"=~	c #3D2618",
"-~	c #291B13",
";~	c #1C130E",
">~	c #1C140E",
",~	c #221610",
"'~	c #301914",
")~	c #523521",
"!~	c #A06437",
"~~	c #7F4A27",
"{~	c #734122",
"]~	c #6F3F22",
"^~	c #784A2B",
"/~	c #2E1E14",
"(~	c #141310",
"_~	c #110F0D",
":~	c #16100B",
"<~	c #241811",
"[~	c #251A13",
"}~	c #1F1710",
"|~	c #16120D",
"1~	c #141413",
"2~	c #181818",
"3~	c #5A3A25",
"4~	c #794B2B",
"5~	c #6D3E21",
"6~	c #653A1F",
"7~	c #53301A",
"8~	c #5B3922",
"9~	c #6E472D",
"0~	c #28170E",
"a~	c #1D100B",
"b~	c #1F100C",
"c~	c #21110C",
"d~	c #29140F",
"e~	c #2C1610",
"f~	c #2D1711",
"g~	c #3B1E15",
"h~	c #3B1F16",
"i~	c #64442E",
"j~	c #915E3A",
"k~	c #442517",
"l~	c #2D1912",
"m~	c #22130F",
"n~	c #19110E",
"o~	c #1A100D",
"p~	c #24150F",
"q~	c #180F0B",
"r~	c #562E1C",
"s~	c #61341F",
"t~	c #422518",
"u~	c #432719",
"v~	c #4C2B1B",
"w~	c #4D2C1C",
"x~	c #1E110C",
"y~	c #2E1A12",
"z~	c #311B12",
"A~	c #371E14",
"B~	c #3E2217",
"C~	c #3A1E16",
"D~	c #2E1B11",
"E~	c #986037",
"F~	c #A96D40",
"G~	c #6E442B",
"H~	c #3A2219",
"I~	c #401F1A",
"J~	c #4F2620",
"K~	c #3E1E19",
"L~	c #2B1613",
"M~	c #180D0C",
"N~	c #140C09",
"O~	c #0C0706",
"P~	c #160D0C",
"Q~	c #251311",
"R~	c #351D18",
"S~	c #3F221D",
"T~	c #3D211C",
"U~	c #8C5935",
"V~	c #9A623A",
"W~	c #925D36",
"X~	c #754A2C",
"Y~	c #3B1F1A",
"Z~	c #43221D",
"`~	c #44221C",
" {	c #40201A",
".{	c #391C17",
"+{	c #3A1C16",
"@{	c #43211A",
"#{	c #49241D",
"${	c #4A261E",
"%{	c #1B0F09",
"&{	c #9F6338",
"*{	c #9D643A",
"={	c #3C1D18",
"-{	c #4E241F",
";{	c #46201C",
">{	c #3E1D1A",
",{	c #361A17",
"'{	c #331A17",
"){	c #361A16",
"!{	c #411E1A",
"~{	c #4D231F",
"{{	c #552623",
"]{	c #502520",
"^{	c #845231",
"/{	c #9B6137",
"({	c #9B6037",
"_{	c #975E35",
":{	c #8E5A35",
"<{	c #694228",
"[{	c #302017",
"}{	c #171818",
"|{	c #191A1C",
"1{	c #18191A",
"2{	c #171718",
"3{	c #161617",
"4{	c #161717",
"5{	c #1A1C1E",
"6{	c #1C1D1E",
"7{	c #1A1B1D",
"8{	c #1A1310",
"9{	c #462819",
"0{	c #955D35",
"a{	c #A06538",
"b{	c #8D5933",
"c{	c #885733",
"d{	c #794C2C",
"e{	c #5E3720",
"f{	c #3B2114",
"g{	c #301811",
"h{	c #432019",
"i{	c #442119",
"j{	c #432219",
"k{	c #452319",
"l{	c #532B1C",
"m{	c #432519",
"n{	c #271610",
"o{	c #90623E",
"p{	c #9E643A",
"q{	c #7C4626",
"r{	c #6B3C21",
"s{	c #5B331D",
"t{	c #59321D",
"u{	c #5C341D",
"v{	c #613921",
"w{	c #3B2118",
"x{	c #412316",
"y{	c #5B311F",
"z{	c #5C3220",
"A{	c #522C1C",
"B{	c #321C12",
"C{	c #381F14",
"D{	c #452617",
"E{	c #55301C",
"F{	c #613820",
"G{	c #59311E",
"H{	c #452119",
"I{	c #47221B",
"J{	c #311D12",
"K{	c #4D2A1A",
"L{	c #522D1B",
"M{	c #4F2D1F",
"N{	c #3B2218",
"O{	c #4D2520",
"P{	c #4D2521",
"Q{	c #4E2520",
"R{	c #512621",
"S{	c #47241E",
"T{	c #3D201B",
"U{	c #3D201A",
"V{	c #45251D",
"W{	c #552D21",
"X{	c #512B20",
"Y{	c #3F211A",
"Z{	c #3C2117",
"`{	c #452619",
" ]	c #4B291B",
".]	c #46231C",
"+]	c #43211D",
"@]	c #44211C",
"#]	c #4C231C",
"$]	c #56271F",
"%]	c #602A21",
"&]	c #662D22",
"*]	c #652C22",
"=]	c #622B22",
"-]	c #5E2920",
";]	c #1F100B",
">]	c #301C13",
",]	c #5F3821",
"']	c #774B2E",
")]	c #311C13",
"!]	c #401F1B",
"~]	c #542520",
"{]	c #572622",
"]]	c #562523",
"^]	c #532422",
"/]	c #502421",
"(]	c #4F2420",
"_]	c #512421",
":]	c #572623",
"<]	c #572523",
"[]	c #582724",
"}]	c #411F1B",
"|]	c #3F2318",
"1]	c #512F1F",
"2]	c #5E3624",
"3]	c #48291E",
"4]	c #40261B",
"5]	c #362118",
"6]	c #221913",
"7]	c #2F2720",
"8]	c #332A23",
"9]	c #302923",
"0]	c #2A2521",
"a]	c #22201E",
"b]	c #1B1C1D",
"c]	c #1B1C1C",
"d]	c #202120",
"e]	c #292824",
"f]	c #352F27",
"g]	c #22211F",
"h]	c #1B1B1C",
"i]	c #2F1B14",
"j]	c #4E2918",
"k]	c #4C2B19",
"l]	c #502F1A",
"m]	c #472919",
"n]	c #331C12",
"o]	c #61321E",
"p]	c #69351D",
"q]	c #68351F",
"r]	c #66341E",
"s]	c #65341E",
"t]	c #6C3920",
"u]	c #6A3920",
"v]	c #713F21",
"w]	c #57311C",
"x]	c #523826",
"y]	c #A76C3F",
"z]	c #87502D",
"A]	c #7B4525",
"B]	c #7C4827",
"C]	c #734225",
"D]	c #754323",
"E]	c #804B29",
"F]	c #704025",
"G]	c #43261B",
"H]	c #3C2219",
"I]	c #130E09",
"J]	c #663A21",
"K]	c #754425",
"L]	c #613421",
"M]	c #50231D",
"N]	c #150E0A",
"O]	c #1D110D",
"P]	c #42291C",
"Q]	c #744530",
"R]	c #4C2520",
"S]	c #4C2421",
"T]	c #542821",
"U]	c #663226",
"V]	c #633225",
"W]	c #502B20",
"X]	c #4C2B20",
"Y]	c #522E21",
"Z]	c #5D3425",
"`]	c #663928",
" ^	c #693B29",
".^	c #47241D",
"+^	c #170E0A",
"@^	c #26170F",
"#^	c #28180F",
"$^	c #1C120C",
"%^	c #381E16",
"&^	c #49231D",
"*^	c #713025",
"=^	c #793427",
"-^	c #7C3428",
";^	c #7C3528",
">^	c #783326",
",^	c #7D3629",
"'^	c #83382A",
")^	c #612C23",
"!^	c #301C15",
"~^	c #71422A",
"{^	c #9A5D38",
"]^	c #82402D",
"^^	c #732F24",
"/^	c #6D2D23",
"(^	c #6B2D24",
"_^	c #6B2E24",
":^	c #6E2F25",
"<^	c #5C2823",
"[^	c #552523",
"}^	c #562624",
"|^	c #572824",
"1^	c #28170F",
"2^	c #140D09",
"3^	c #4A392D",
"4^	c #392F26",
"5^	c #382F25",
"6^	c #302D26",
"7^	c #2E2C27",
"8^	c #2C2C26",
"9^	c #2C2B26",
"0^	c #362E26",
"a^	c #1E1E20",
"b^	c #1C1716",
"c^	c #331E13",
"d^	c #2B190F",
"e^	c #301D12",
"f^	c #1E120B",
"g^	c #402216",
"h^	c #753C20",
"i^	c #753D1F",
"j^	c #783E20",
"k^	c #7A3F22",
"l^	c #794022",
"m^	c #7A4122",
"n^	c #6C391F",
"o^	c #6C3B20",
"p^	c #733E24",
"q^	c #44251A",
"r^	c #FB00FB",
"s^	c #966640",
"t^	c #A96C3E",
"u^	c #7D4525",
"v^	c #774223",
"w^	c #925A33",
"x^	c #9D6237",
"y^	c #AA6D41",
"z^	c #7F4B2B",
"A^	c #6B3E24",
"B^	c #59341F",
"C^	c #5A341E",
"D^	c #5A341F",
"E^	c #432718",
"F^	c #754326",
"G^	c #744324",
"H^	c #754325",
"I^	c #562B1F",
"J^	c #4F241E",
"K^	c #3D1D17",
"L^	c #120D09",
"M^	c #2F1C14",
"N^	c #734C31",
"O^	c #8B5736",
"P^	c #4B231F",
"Q^	c #5F2E24",
"R^	c #71392A",
"S^	c #733A2A",
"T^	c #753C2B",
"U^	c #814D36",
"V^	c #865537",
"W^	c #683927",
"X^	c #683929",
"Y^	c #683A28",
"Z^	c #6A3A29",
"`^	c #271612",
" /	c #190F0B",
"./	c #2F1D13",
"+/	c #2F1E13",
"@/	c #1E130C",
"#/	c #724831",
"$/	c #6F3B2B",
"%/	c #6D2F25",
"&/	c #7E3628",
"*/	c #7C3628",
"=/	c #7B3628",
"-/	c #7B3627",
";/	c #7D3628",
">/	c #743327",
",/	c #723227",
"'/	c #803729",
")/	c #6C3025",
"!/	c #241410",
"~/	c #9E623A",
"{/	c #A4653A",
"]/	c #84412B",
"^/	c #7B3225",
"//	c #7C3325",
"(/	c #7C3326",
"_/	c #7C3427",
":/	c #793226",
"</	c #5E2923",
"[/	c #512523",
"}/	c #572725",
"|/	c #592824",
"1/	c #2D1811",
"2/	c #1A0F0B",
"3/	c #835A3E",
"4/	c #3B3027",
"5/	c #3A3026",
"6/	c #332D26",
"7/	c #2D2B26",
"8/	c #2B2A25",
"9/	c #2C2A26",
"0/	c #2A241E",
"a/	c #3D3229",
"b/	c #2A2724",
"c/	c #131313",
"d/	c #392216",
"e/	c #2E1A11",
"f/	c #2E170F",
"g/	c #713B20",
"h/	c #773D20",
"i/	c #7A4022",
"j/	c #62331E",
"k/	c #7C4426",
"l/	c #57311E",
"m/	c #583D28",
"n/	c #AA6E40",
"o/	c #A36739",
"p/	c #995E34",
"q/	c #A1663B",
"r/	c #AA6C3E",
"s/	c #7E5030",
"t/	c #854D2D",
"u/	c #9C6037",
"v/	c #A4693F",
"w/	c #6C3E23",
"x/	c #502E1C",
"y/	c #0D0906",
"z/	c #392215",
"A/	c #754224",
"B/	c #693B21",
"C/	c #6E3E25",
"D/	c #4C221C",
"E/	c #4D241E",
"F/	c #25130F",
"G/	c #311C14",
"H/	c #3E2517",
"I/	c #291910",
"J/	c #764B2F",
"K/	c #8C5637",
"L/	c #5D2A22",
"M/	c #74382B",
"N/	c #733B2A",
"O/	c #84543A",
"P/	c #935E3C",
"Q/	c #6B3B29",
"R/	c #693A29",
"S/	c #693928",
"T/	c #6A3929",
"U/	c #522A1F",
"V/	c #231310",
"W/	c #2F1E14",
"X/	c #73482F",
"Y/	c #884631",
"Z/	c #713024",
"`/	c #7C3627",
" (	c #7F3729",
".(	c #733227",
"+(	c #6B2D23",
"@(	c #7E3529",
"#(	c #6A2F25",
"$(	c #25140F",
"%(	c #2B1811",
"&(	c #A4653C",
"*(	c #A56539",
"=(	c #8D4B2F",
"-(	c #7D3426",
";(	c #7E3427",
">(	c #7B3326",
",(	c #602922",
"'(	c #502423",
")(	c #562725",
"!(	c #582823",
"~(	c #301A13",
"{(	c #895D3E",
"](	c #3C2E24",
"^(	c #393026",
"/(	c #3A3127",
"((	c #3A3027",
"_(	c #352E26",
":(	c #2E2A25",
"<(	c #2E2B26",
"[(	c #26231D",
"}(	c #322C25",
"|(	c #151615",
"1(	c #3B2217",
"2(	c #27140E",
"3(	c #552C1B",
"4(	c #7A3F21",
"5(	c #7A4023",
"6(	c #7B4123",
"7(	c #60311B",
"8(	c #6B3A20",
"9(	c #683B22",
"0(	c #3F2B1D",
"a(	c #825736",
"b(	c #AA6B3C",
"c(	c #AA6B3B",
"d(	c #AB6D3D",
"e(	c #AD6F3F",
"f(	c #AA6D40",
"g(	c #5C3822",
"h(	c #804A2A",
"i(	c #B07243",
"j(	c #955C34",
"k(	c #46291A",
"l(	c #100B09",
"m(	c #835433",
"n(	c #744224",
"o(	c #714124",
"p(	c #703E23",
"q(	c #5E2E20",
"r(	c #4B211C",
"s(	c #21140E",
"t(	c #442818",
"u(	c #54311D",
"v(	c #8F593A",
"w(	c #6C3328",
"x(	c #76392B",
"y(	c #753B2A",
"z(	c #743B2A",
"A(	c #773E2B",
"B(	c #784F35",
"C(	c #925F3C",
"D(	c #693A28",
"E(	c #693929",
"F(	c #46261C",
"G(	c #140B09",
"H(	c #301E13",
"I(	c #7B3C2C",
"J(	c #803829",
"K(	c #7D3627",
"L(	c #87412B",
"M(	c #6D3625",
"N(	c #612A1F",
"O(	c #7D3729",
"P(	c #51261E",
"Q(	c #2A1812",
"R(	c #824E2F",
"S(	c #A46539",
"T(	c #9A5A35",
"U(	c #7B3124",
"V(	c #7C3426",
"W(	c #7D3326",
"X(	c #7D3527",
"Y(	c #692E21",
"Z(	c #4C2320",
"`(	c #562724",
" _	c #41271B",
"._	c #492C1C",
"+_	c #66452F",
"@_	c #614531",
"#_	c #3B3127",
"$_	c #3B3128",
"%_	c #2D2A25",
"&_	c #272420",
"*_	c #2D251D",
"=_	c #171716",
"-_	c #361F15",
";_	c #3C2217",
">_	c #3C2317",
",_	c #24140D",
"'_	c #773E23",
")_	c #7B4022",
"!_	c #713D21",
"~_	c #422315",
"{_	c #6D3F24",
"]_	c #412419",
"^_	c #583C2A",
"/_	c #9F643B",
"(_	c #A86A3B",
"__	c #A96C3C",
":_	c #AE6F3E",
"<_	c #885633",
"[_	c #8B5531",
"}_	c #AD7043",
"|_	c #915D38",
"1_	c #5E3A25",
"2_	c #050506",
"3_	c #AA6A3C",
"4_	c #834D2B",
"5_	c #714024",
"6_	c #724123",
"7_	c #764226",
"8_	c #572B1F",
"9_	c #44211B",
"0_	c #3C1F19",
"a_	c #2E1914",
"b_	c #120C09",
"c_	c #55321E",
"d_	c #5A361F",
"e_	c #472C1B",
"f_	c #9A603D",
"g_	c #9C5C39",
"h_	c #81422C",
"i_	c #753928",
"j_	c #723828",
"k_	c #8F5738",
"l_	c #5C3C29",
"m_	c #926140",
"n_	c #6A3A28",
"o_	c #6B3A29",
"p_	c #6C3A29",
"q_	c #2E1A13",
"r_	c #231610",
"s_	c #1B0E0A",
"t_	c #4B251B",
"u_	c #965C3A",
"v_	c #965B38",
"w_	c #84422C",
"x_	c #7C3526",
"y_	c #7E3626",
"z_	c #A05F38",
"A_	c #683725",
"B_	c #4F251D",
"C_	c #53261D",
"D_	c #42281B",
"E_	c #945B35",
"F_	c #A5653A",
"G_	c #8B482C",
"H_	c #7B3525",
"I_	c #7B3425",
"J_	c #7E3824",
"K_	c #733720",
"L_	c #4A241D",
"M_	c #4F2621",
"N_	c #462B1B",
"O_	c #482C1D",
"P_	c #4C2D1B",
"Q_	c #4C2E1C",
"R_	c #160C08",
"S_	c #3F2B1F",
"T_	c #503526",
"U_	c #3B2E24",
"V_	c #2C2924",
"W_	c #2B2823",
"X_	c #2C2822",
"Y_	c #2F2922",
"Z_	c #2C2620",
"`_	c #1F1914",
" :	c #302A23",
".:	c #111110",
"+:	c #351F13",
"@:	c #452819",
"#:	c #3C2216",
"$:	c #2D1A10",
"%:	c #2A1911",
"&:	c #5C321D",
"*:	c #9A5B34",
"=:	c #8D502C",
"-:	c #7E4323",
";:	c #783D20",
">:	c #783F21",
",:	c #8B502B",
"':	c #341F17",
"):	c #2D1F15",
"!:	c #7C5335",
"~:	c #3F2216",
"{:	c #623D27",
"]:	c #74482B",
"^:	c #73482C",
"/:	c #3E2015",
"(:	c #683E25",
"_:	c #5E3823",
"::	c #4E2F21",
"<:	c #361E17",
"[:	c #060608",
"}:	c #11090A",
"|:	c #211412",
"1:	c #351C14",
"2:	c #653C24",
"3:	c #996037",
"4:	c #9A5F36",
"5:	c #865331",
"6:	c #532E1D",
"7:	c #4A271C",
"8:	c #3B1F17",
"9:	c #3C201B",
"0:	c #190E0A",
"a:	c #2B1A10",
"b:	c #0B0806",
"c:	c #1E110D",
"d:	c #42261A",
"e:	c #885434",
"f:	c #A5673F",
"g:	c #965937",
"h:	c #995E3C",
"i:	c #B2784D",
"j:	c #401E13",
"k:	c #7D5035",
"l:	c #593023",
"m:	c #522C1F",
"n:	c #321C15",
"o:	c #18110D",
"p:	c #563422",
"q:	c #2F1C13",
"r:	c #482919",
"s:	c #4B2F1E",
"t:	c #2A1611",
"u:	c #6D452B",
"v:	c #935F3A",
"w:	c #A1663C",
"x:	c #A2653D",
"y:	c #8D5935",
"z:	c #4C261C",
"A:	c #412019",
"B:	c #281611",
"C:	c #1D120C",
"D:	c #241610",
"E:	c #331B14",
"F:	c #653D26",
"G:	c #7E472A",
"H:	c #723B24",
"I:	c #6A351F",
"J:	c #65321C",
"K:	c #67351F",
"L:	c #5C2F1C",
"M:	c #3C1F18",
"N:	c #3A1F17",
"O:	c #190F09",
"P:	c #4A2D1C",
"Q:	c #4C2E1B",
"R:	c #4B2D1B",
"S:	c #42291B",
"T:	c #0E0905",
"U:	c #341E12",
"V:	c #492B1D",
"W:	c #412C20",
"X:	c #4A2F21",
"Y:	c #593423",
"Z:	c #5B3422",
"`:	c #583422",
" <	c #341F13",
".<	c #1A140D",
"+<	c #2E2821",
"@<	c #110A08",
"#<	c #47291A",
"$<	c #140B08",
"%<	c #724529",
"&<	c #8A5632",
"*<	c #84502E",
"=<	c #7B4E2E",
"-<	c #54301D",
";<	c #372017",
"><	c #1B0F0C",
",<	c #261712",
"'<	c #060606",
")<	c #140E0A",
"!<	c #453122",
"~<	c #2D1F16",
"{<	c #2E1B15",
"]<	c #311B14",
"^<	c #351D16",
"/<	c #221411",
"(<	c #0B0708",
"_<	c #130A0A",
":<	c #45261E",
"<<	c #321813",
"[<	c #100A07",
"}<	c #27150E",
"|<	c #391E15",
"1<	c #3D2117",
"2<	c #391E16",
"3<	c #361D18",
"4<	c #341C17",
"5<	c #291612",
"6<	c #180C0A",
"7<	c #110C09",
"8<	c #0D0A06",
"9<	c #0E0A07",
"0<	c #140D0A",
"a<	c #21140F",
"b<	c #311A12",
"c<	c #4B2E20",
"d<	c #5E3D2C",
"e<	c #513223",
"f<	c #3E1D15",
"g<	c #3E1D17",
"h<	c #371A15",
"i<	c #351B16",
"j<	c #311A15",
"k<	c #21130E",
"l<	c #241311",
"m<	c #130E0A",
"n<	c #5F3B24",
"o<	c #311C11",
"p<	c #301B11",
"q<	c #52321E",
"r<	c #9F643C",
"s<	c #6F472C",
"t<	c #190D09",
"u<	c #3C2019",
"v<	c #3D1F18",
"w<	c #3E2018",
"x<	c #351B15",
"y<	c #190E0B",
"z<	c #080707",
"A<	c #0B0907",
"B<	c #0F0B08",
"C<	c #0D0A07",
"D<	c #42281A",
"E<	c #1D110C",
"F<	c #49261E",
"G<	c #2A1710",
"H<	c #100B07",
"I<	c #0C0905",
"J<	c #0D0905",
"K<	c #100A05",
"L<	c #1C130C",
"M<	c #21160E",
"N<	c #1E150D",
"O<	c #100D07",
"P<	c #0C0A06",
"Q<	c #23150D",
"R<	c #281810",
"S<	c #2F1D12",
"T<	c #291A10",
"U<	c #211811",
"V<	c #0F0D0B",
"W<	c #2F1B12",
"X<	c #2F1C12",
"Y<	c #432717",
"Z<	c #412617",
"`<	c #402517",
" [	c #130A09",
".[	c #1B0F0B",
"+[	c #1E0F0B",
"@[	c #100908",
"#[	c #090707",
"$[	c #0A0807",
"%[	c #0F0B09",
"&[	c #1F160F",
"*[	c #070505",
"=[	c #0F0808",
"-[	c #2F1B17",
";[	c #47251D",
">[	c #643527",
",[	c #763E2D",
"'[	c #6B3626",
")[	c #44201A",
"![	c #311F17",
"~[	c #5E3523",
"{[	c #49201A",
"][	c #331811",
"^[	c #24170F",
"/[	c #301812",
"([	c #331713",
"_[	c #0F0706",
":[	c #20120E",
"<[	c #311913",
"[[	c #351A15",
"}[	c #321914",
"|[	c #281411",
"1[	c #180E0C",
"2[	c #130908",
"3[	c #552821",
"4[	c #221511",
"5[	c #6C4428",
"6[	c #A86A3D",
"7[	c #9E6338",
"8[	c #A1653A",
"9[	c #A6683C",
"0[	c #74492B",
"a[	c #352016",
"b[	c #1C0F0C",
"c[	c #603923",
"d[	c #23140D",
"e[	c #23150E",
"f[	c #25160E",
"g[	c #191A0B",
"h[	c #422C18",
"i[	c #7F4826",
"j[	c #824C2B",
"k[	c #1C110B",
"l[	c #18100C",
"m[	c #17110C",
"n[	c #150F0B",
"o[	c #120C08",
"p[	c #25120E",
"q[	c #401C15",
"r[	c #301810",
"s[	c #291710",
"t[	c #20140D",
"u[	c #1E140D",
"v[	c #18110A",
"w[	c #3F2718",
"x[	c #462C1C",
"y[	c #0A0705",
"z[	c #18110B",
"A[	c #100B08",
"B[	c #070605",
"C[	c #17100C",
"D[	c #43251C",
"E[	c #3C1C15",
"F[	c #3D1C16",
"G[	c #52271E",
"H[	c #371B15",
"I[	c #2F1711",
"J[	c #47241B",
"K[	c #29110D",
"L[	c #0C0808",
"M[	c #36261A",
"N[	c #37271B",
"O[	c #3F271F",
"P[	c #331F17",
"Q[	c #663627",
"R[	c #793D2B",
"S[	c #7C3E2C",
"T[	c #80402C",
"U[	c #7E402C",
"V[	c #653326",
"W[	c #110C08",
"X[	c #321F14",
"Y[	c #53301E",
"Z[	c #6A3D22",
"`[	c #6D3E24",
" }	c #704124",
".}	c #633621",
"+}	c #4B201B",
"@}	c #472019",
"#}	c #2C1511",
"$}	c #411B17",
"%}	c #3A1A15",
"&}	c #381A14",
"*}	c #3E2318",
"=}	c #382118",
"-}	c #482A1B",
";}	c #522F1E",
">}	c #512B1E",
",}	c #552721",
"'}	c #2E1813",
")}	c #6F452A",
"!}	c #74482C",
"~}	c #512F1C",
"{}	c #170E09",
"]}	c #6C3D22",
"^}	c #734223",
"/}	c #704023",
"(}	c #6D4026",
"_}	c #6D3F23",
":}	c #351E11",
"<}	c #311B13",
"[}	c #2C2011",
"}}	c #1C1E08",
"|}	c #4A2F17",
"1}	c #985529",
"2}	c #8A4D27",
"3}	c #764122",
"4}	c #744123",
"5}	c #734224",
"6}	c #6F4023",
"7}	c #6C3D20",
"8}	c #623720",
"9}	c #50231C",
"0}	c #56241C",
"a}	c #391B13",
"b}	c #3B2117",
"c}	c #392015",
"d}	c #57341E",
"e}	c #5B381F",
"f}	c #583620",
"g}	c #55341F",
"h}	c #54341E",
"i}	c #523420",
"j}	c #50321F",
"k}	c #513422",
"l}	c #5C3723",
"m}	c #6A3C24",
"n}	c #744327",
"o}	c #301C14",
"p}	c #623C2A",
"q}	c #451E19",
"r}	c #723926",
"s}	c #693523",
"t}	c #5D2E20",
"u}	c #54291E",
"v}	c #542A1F",
"w}	c #52281D",
"x}	c #562A20",
"y}	c #653223",
"z}	c #250F0C",
"A}	c #431516",
"B}	c #3A231A",
"C}	c #372018",
"D}	c #4A2D1F",
"E}	c #5B2F22",
"F}	c #512E20",
"G}	c #58301E",
"H}	c #391E13",
"I}	c #3C261C",
"J}	c #723A29",
"K}	c #683324",
"L}	c #7F3F2C",
"M}	c #5D2E22",
"N}	c #130B07",
"O}	c #3B2418",
"P}	c #754324",
"Q}	c #774324",
"R}	c #683920",
"S}	c #491F1B",
"T}	c #401D18",
"U}	c #28220F",
"V}	c #603D26",
"W}	c #5F3422",
"X}	c #491F18",
"Y}	c #532719",
"Z}	c #67391E",
"`}	c #61351E",
" |	c #5F351E",
".|	c #5E351E",
"+|	c #5F361E",
"@|	c #61371F",
"#|	c #5C2F1D",
"$|	c #572721",
"%|	c #562621",
"&|	c #0E0B08",
"*|	c #563826",
"=|	c #3A1F13",
"-|	c #734123",
";|	c #724122",
">|	c #714022",
",|	c #6E3F22",
"'|	c #623921",
")|	c #714123",
"!|	c #724223",
"~|	c #392011",
"{|	c #27280E",
"]|	c #253409",
"^|	c #605118",
"/|	c #A15A2A",
"(|	c #884B26",
"_|	c #774021",
":|	c #774122",
"<|	c #764121",
"[|	c #774222",
"}|	c #784222",
"||	c #743F21",
"1|	c #57271C",
"2|	c #58241C",
"3|	c #371A13",
"4|	c #391F15",
"5|	c #82573A",
"6|	c #59351D",
"7|	c #59361F",
"8|	c #58361E",
"9|	c #59371E",
"0|	c #5A3720",
"a|	c #5B3820",
"b|	c #643921",
"c|	c #7B4325",
"d|	c #7B4427",
"e|	c #28150C",
"f|	c #9B6944",
"g|	c #471F17",
"h|	c #693423",
"i|	c #713925",
"j|	c #713926",
"k|	c #6F3A26",
"l|	c #602F20",
"m|	c #713825",
"n|	c #6D3624",
"o|	c #28110C",
"p|	c #58261C",
"q|	c #53241C",
"r|	c #55241C",
"s|	c #86482D",
"t|	c #894A2E",
"u|	c #83472C",
"v|	c #8A4B2E",
"w|	c #422317",
"x|	c #643123",
"y|	c #803F2C",
"z|	c #7F402C",
"A|	c #502820",
"B|	c #42211A",
"C|	c #281511",
"D|	c #57311D",
"E|	c #764326",
"F|	c #351D11",
"G|	c #693D25",
"H|	c #724124",
"I|	c #794425",
"J|	c #653922",
"K|	c #532A1D",
"L|	c #461E1B",
"M|	c #301711",
"N|	c #394A22",
"O|	c #84542F",
"P|	c #7F4B2C",
"Q|	c #59291B",
"R|	c #5C2D1B",
"S|	c #66391B",
"T|	c #5E321B",
"U|	c #61361E",
"V|	c #60371F",
"W|	c #62381F",
"X|	c #5F431D",
"Y|	c #582721",
"Z|	c #572621",
"`|	c #40211B",
" 1	c #060505",
".1	c #271710",
"+1	c #150A04",
"@1	c #A76F44",
"#1	c #4E2B18",
"$1	c #341C10",
"%1	c #20310B",
"&1	c #2D400D",
"*1	c #6E741A",
"=1	c #9A5628",
"-1	c #864924",
";1	c #784122",
">1	c #794122",
",1	c #652F1D",
"'1	c #331812",
")1	c #361D13",
"!1	c #A77046",
"~1	c #4F2A15",
"{1	c #4E2D17",
"]1	c #56331B",
"^1	c #5A4F19",
"/1	c #636A19",
"(1	c #5C421D",
"_1	c #5C341E",
":1	c #824526",
"<1	c #7E4427",
"[1	c #2A150D",
"}1	c #3E2417",
"|1	c #422618",
"11	c #3C2215",
"21	c #25150D",
"31	c #A26C41",
"41	c #7D472B",
"51	c #6E3725",
"61	c #703925",
"71	c #723A26",
"81	c #723A27",
"91	c #713A26",
"01	c #5C2E20",
"a1	c #713724",
"b1	c #653221",
"c1	c #2F150F",
"d1	c #894C2F",
"e1	c #783F28",
"f1	c #7E422B",
"g1	c #74422B",
"h1	c #7F452B",
"i1	c #884A2D",
"j1	c #351F14",
"k1	c #572F1F",
"l1	c #582C1E",
"m1	c #773A28",
"n1	c #5C2B1E",
"o1	c #81402C",
"p1	c #7B3E2C",
"q1	c #3D1B15",
"r1	c #3F1F1A",
"s1	c #703F25",
"t1	c #7F4725",
"u1	c #5D331E",
"v1	c #724125",
"w1	c #925D38",
"x1	c #6E472E",
"y1	c #7A4527",
"z1	c #4D231B",
"A1	c #421D19",
"B1	c #1F1A0E",
"C1	c #445B22",
"D1	c #936038",
"E1	c #955B34",
"F1	c #5A291C",
"G1	c #56261C",
"H1	c #50231A",
"I1	c #4A1E16",
"J1	c #60361E",
"K1	c #62411C",
"L1	c #5F541B",
"M1	c #582620",
"N1	c #572520",
"O1	c #3C1D17",
"P1	c #070504",
"Q1	c #321D13",
"R1	c #3B2216",
"S1	c #24120A",
"T1	c #B67C4D",
"U1	c #69391F",
"V1	c #704022",
"W1	c #744222",
"X1	c #8D532F",
"Y1	c #432112",
"Z1	c #693C23",
"`1	c #24110A",
" 2	c #301B14",
".2	c #301B12",
"+2	c #2C1D10",
"@2	c #1D350A",
"#2	c #27310B",
"$2	c #586B14",
"%2	c #905923",
"&2	c #905126",
"*2	c #784022",
"=2	c #794123",
"-2	c #794222",
";2	c #794120",
">2	c #723821",
",2	c #57241B",
"'2	c #351D13",
")2	c #9B643B",
"!2	c #634124",
"~2	c #4C5610",
"{2	c #697018",
"]2	c #584416",
"^2	c #544417",
"/2	c #5E3F1F",
"(2	c #512E1B",
"_2	c #814426",
":2	c #7E4327",
"<2	c #29150D",
"[2	c #3C2316",
"}2	c #402417",
"|2	c #28160E",
"12	c #9A663E",
"22	c #AE6C3F",
"32	c #693521",
"42	c #703926",
"52	c #743A27",
"62	c #713826",
"72	c #582B1F",
"82	c #733825",
"92	c #56291D",
"02	c #2A130E",
"a2	c #84482E",
"b2	c #7E432C",
"c2	c #733F2D",
"d2	c #663525",
"e2	c #6F3927",
"f2	c #542D1B",
"g2	c #130D0A",
"h2	c #623D28",
"i2	c #613322",
"j2	c #723927",
"k2	c #793B29",
"l2	c #783A29",
"m2	c #50251B",
"n2	c #7C3E2B",
"o2	c #653022",
"p2	c #2F1813",
"q2	c #1A0D08",
"r2	c #905935",
"s2	c #7D4424",
"t2	c #7A4223",
"u2	c #764224",
"v2	c #6E3E22",
"w2	c #A16940",
"x2	c #4E3021",
"y2	c #673722",
"z2	c #451E17",
"A2	c #3A1A13",
"B2	c #374919",
"C2	c #334A16",
"D2	c #3D2315",
"E2	c #24140E",
"F2	c #72482B",
"G2	c #AB6C3E",
"H2	c #58271D",
"I2	c #53241B",
"J2	c #544415",
"K2	c #5E371B",
"L2	c #62361F",
"M2	c #61361F",
"N2	c #5F361D",
"O2	c #544618",
"P2	c #3B2113",
"Q2	c #4E201B",
"R2	c #3F1C16",
"S2	c #825436",
"T2	c #895431",
"U2	c #743F20",
"V2	c #744021",
"W2	c #7C4623",
"X2	c #A76639",
"Y2	c #411D12",
"Z2	c #724023",
"`2	c #512C1A",
" 3	c #23100A",
".3	c #2D1E10",
"+3	c #28310A",
"@3	c #1D3608",
"#3	c #1E1409",
"$3	c #455B12",
"%3	c #747419",
"&3	c #83611E",
"*3	c #7E4721",
"=3	c #784021",
"-3	c #784221",
";3	c #784121",
">3	c #774120",
",3	c #75401F",
"'3	c #65361D",
")3	c #7F4324",
"!3	c #431D13",
"~3	c #2B150E",
"{3	c #3A2015",
"]3	c #351E13",
"^3	c #6F482C",
"/3	c #795030",
"(3	c #273C05",
"_3	c #65851A",
":3	c #67701A",
"<3	c #5E461C",
"[3	c #5E3920",
"}3	c #5A3620",
"|3	c #5A351F",
"13	c #653620",
"23	c #5B301C",
"33	c #2F1B13",
"43	c #3A2115",
"53	c #422519",
"63	c #2D1910",
"73	c #573621",
"83	c #A3673C",
"93	c #5E321F",
"03	c #995D39",
"a3	c #743A25",
"b3	c #85472E",
"c3	c #874A2E",
"d3	c #451F15",
"e3	c #6B3524",
"f3	c #411C15",
"g3	c #6F3727",
"h3	c #6D3828",
"i3	c #75412E",
"j3	c #4A281B",
"k3	c #472A1C",
"l3	c #4A2B1D",
"m3	c #976441",
"n3	c #7C462F",
"o3	c #793A28",
"p3	c #793A29",
"q3	c #421B14",
"r3	c #4D2019",
"s3	c #411C16",
"t3	c #311914",
"u3	c #261511",
"v3	c #23130C",
"w3	c #8E5D3A",
"x3	c #9F6238",
"y3	c #814625",
"z3	c #7E4422",
"A3	c #8A522C",
"B3	c #AB7043",
"C3	c #411E16",
"D3	c #341812",
"E3	c #486923",
"F3	c #1E3206",
"G3	c #402416",
"H3	c #4C2A1B",
"I3	c #351A12",
"J3	c #7A4B2E",
"K3	c #643220",
"L3	c #5D2C1D",
"M3	c #59281B",
"N3	c #59311B",
"O3	c #592A1D",
"P3	c #63361E",
"Q3	c #63351E",
"R3	c #5E321E",
"S3	c #552C1D",
"T3	c #3B1915",
"U3	c #341612",
"V3	c #301712",
"W3	c #1C0E09",
"X3	c #382015",
"Y3	c #7F5537",
"Z3	c #A96E40",
"`3	c #8B532D",
" 4	c #723E20",
".4	c #6E3E20",
"+4	c #905226",
"@4	c #A46538",
"#4	c #401B13",
"$4	c #4C281A",
"%4	c #321810",
"&4	c #1D0F09",
"*4	c #341E13",
"=4	c #342012",
"-4	c #2E2A0D",
";4	c #223208",
">4	c #1D3408",
",4	c #141106",
"'4	c #334310",
")4	c #618E15",
"!4	c #5F7E15",
"~4	c #7A631F",
"{4	c #824E25",
"]4	c #7D4622",
"^4	c #7B4220",
"/4	c #7F4924",
"(4	c #7E4B21",
"_4	c #402213",
":4	c #61371D",
"<4	c #32190F",
"[4	c #28150D",
"}4	c #24130C",
"|4	c #5A401E",
"14	c #3F4312",
"24	c #39490D",
"34	c #423014",
"44	c #5F3820",
"54	c #4D2E1C",
"64	c #341D13",
"74	c #1C1009",
"84	c #361E13",
"94	c #442619",
"04	c #1E0E0A",
"a4	c #7C4F31",
"b4	c #C37D48",
"c4	c #8E4F2F",
"d4	c #8C4D2F",
"e4	c #995835",
"f4	c #7A3A22",
"g4	c #743D27",
"h4	c #3B1912",
"i4	c #421D15",
"j4	c #3C1B15",
"k4	c #310E0D",
"l4	c #4F261B",
"m4	c #582D1F",
"n4	c #442519",
"o4	c #43271A",
"p4	c #462319",
"q4	c #200E09",
"r4	c #AF7044",
"s4	c #955D3B",
"t4	c #854B32",
"u4	c #6F3625",
"v4	c #5C2D20",
"w4	c #3A1B16",
"x4	c #291814",
"y4	c #150C08",
"z4	c #2C140C",
"A4	c #774C2F",
"B4	c #A3663B",
"C4	c #B36F3F",
"D4	c #B3703E",
"E4	c #8E5D39",
"F4	c #2D1410",
"G4	c #2D1511",
"H4	c #2C1611",
"I4	c #3E501A",
"J4	c #48711C",
"K4	c #273709",
"L4	c #352211",
"M4	c #3D2215",
"N4	c #522F1B",
"O4	c #482817",
"P4	c #28130E",
"Q4	c #442316",
"R4	c #6D3A24",
"S4	c #61301F",
"T4	c #5B2A1E",
"U4	c #58291E",
"V4	c #592A1E",
"W4	c #56281D",
"X4	c #4B251A",
"Y4	c #321611",
"Z4	c #2F1611",
"`4	c #1E0F0A",
" 5	c #1F110B",
".5	c #3F2316",
"+5	c #3F2214",
"@5	c #3D2317",
"#5	c #553522",
"$5	c #5F3D26",
"%5	c #895A36",
"&5	c #98623A",
"*5	c #986039",
"=5	c #945C33",
"-5	c #381911",
";5	c #371A12",
">5	c #1B110A",
",5	c #3C2712",
"'5	c #2E250C",
")5	c #242D09",
"!5	c #1A2707",
"~5	c #25290A",
"{5	c #456B10",
"]5	c #2C4B0A",
"^5	c #264206",
"/5	c #404011",
"(5	c #4F5014",
"_5	c #5B551A",
":5	c #725E23",
"<5	c #6B4821",
"[5	c #2D190D",
"}5	c #2E1A10",
"|5	c #24130B",
"15	c #4B2716",
"25	c #5B321D",
"35	c #311911",
"45	c #2E1912",
"55	c #180F09",
"65	c #412716",
"75	c #4F311E",
"85	c #4F321E",
"95	c #5A3621",
"05	c #6A3D25",
"a5	c #714026",
"b5	c #311F12",
"c5	c #341C14",
"d5	c #683B1F",
"e5	c #432517",
"f5	c #26160E",
"g5	c #1F100D",
"h5	c #7E5438",
"i5	c #9D663F",
"j5	c #99623A",
"k5	c #AD6F43",
"l5	c #AF7045",
"m5	c #9C643E",
"n5	c #6A3F29",
"o5	c #3B1A13",
"p5	c #3E1C16",
"q5	c #411414",
"r5	c #491C17",
"s5	c #44261A",
"t5	c #48251A",
"u5	c #431F16",
"v5	c #462419",
"w5	c #865A3B",
"x5	c #5B3622",
"y5	c #321612",
"z5	c #2B1713",
"A5	c #1D120E",
"B5	c #261813",
"C5	c #5F3927",
"D5	c #4D2C1B",
"E5	c #492B1A",
"F5	c #371D14",
"G5	c #391C11",
"H5	c #391C10",
"I5	c #371B13",
"J5	c #311712",
"K5	c #281410",
"L5	c #323E17",
"M5	c #50751F",
"N5	c #263F08",
"O5	c #59401B",
"P5	c #683C1F",
"Q5	c #673B20",
"R5	c #864D2A",
"S5	c #2D1911",
"T5	c #1B0D09",
"U5	c #2E1811",
"V5	c #391C12",
"W5	c #3C1D15",
"X5	c #3E1E16",
"Y5	c #3D1D15",
"Z5	c #361912",
"`5	c #341913",
" 6	c #351913",
".6	c #0F0A07",
"+6	c #3C2617",
"@6	c #7F4C2A",
"#6	c #8F532F",
"$6	c #864E2B",
"%6	c #5D3922",
"&6	c #8F5935",
"*6	c #160D08",
"=6	c #341B13",
"-6	c #361B12",
";6	c #351910",
">6	c #33170F",
",6	c #361A11",
"'6	c #29160F",
")6	c #150D08",
"!6	c #3F270E",
"~6	c #2D330A",
"{6	c #24260B",
"]6	c #181407",
"^6	c #1F180A",
"/6	c #231C0C",
"(6	c #26230B",
"_6	c #2A220C",
":6	c #2F1E0E",
"<6	c #301E0E",
"[6	c #2E1C0F",
"}6	c #483222",
"|6	c #965830",
"16	c #97542E",
"26	c #743F24",
"36	c #653822",
"46	c #321F13",
"56	c #19110B",
"66	c #2A1811",
"76	c #2C1811",
"86	c #301E11",
"96	c #311F11",
"06	c #130D08",
"a6	c #0C0A05",
"b6	c #301A11",
"c6	c #381D11",
"d6	c #62341B",
"e6	c #9B5629",
"f6	c #62371C",
"g6	c #382013",
"h6	c #26150D",
"i6	c #342218",
"j6	c #45291D",
"k6	c #371A14",
"l6	c #371913",
"m6	c #351712",
"n6	c #381914",
"o6	c #341712",
"p6	c #2C150F",
"q6	c #341B12",
"r6	c #401D16",
"s6	c #442117",
"t6	c #402719",
"u6	c #4A2F20",
"v6	c #0E0806",
"w6	c #0A0607",
"x6	c #090705",
"y6	c #0A0706",
"z6	c #080606",
"A6	c #070606",
"B6	c #130C08",
"C6	c #46281C",
"D6	c #744028",
"E6	c #492819",
"F6	c #422619",
"G6	c #341E14",
"H6	c #21130C",
"I6	c #1C0F09",
"J6	c #22130C",
"K6	c #24130D",
"L6	c #20180B",
"M6	c #1B2505",
"N6	c #23360B",
"O6	c #1D2D07",
"P6	c #131503",
"Q6	c #774C2D",
"R6	c #AC7040",
"S6	c #965E35",
"T6	c #8D5630",
"U6	c #9B663B",
"V6	c #7D5434",
"W6	c #22120B",
"X6	c #150C06",
"Y6	c #25130D",
"Z6	c #2C1810",
"`6	c #311912",
" 7	c #301912",
".7	c #1E110B",
"+7	c #100905",
"@7	c #3E291B",
"#7	c #B67747",
"$7	c #975B33",
"%7	c #884C29",
"&7	c #985D36",
"*7	c #9E673E",
"=7	c #6F4A30",
"-7	c #0F0B07",
";7	c #26140E",
">7	c #1E110A",
",7	c #2B1B11",
"'7	c #97643E",
")7	c #B47747",
"!7	c #97603A",
"~7	c #744124",
"{7	c #734124",
"]7	c #452914",
"^7	c #2D1E0F",
"/7	c #160F08",
"(7	c #160F0A",
"_7	c #19100A",
":7	c #1A1109",
"<7	c #1B120B",
"[7	c #160F09",
"}7	c #16100A",
"|7	c #543A28",
"17	c #BF7843",
"27	c #9C5D32",
"37	c #804526",
"47	c #804627",
"57	c #885332",
"67	c #915F3B",
"77	c #17100A",
"87	c #120D08",
"97	c #120C07",
"07	c #18100A",
"a7	c #1F150D",
"b7	c #1A130B",
"c7	c #161009",
"d7	c #251F10",
"e7	c #302814",
"f7	c #1A0E09",
"g7	c #A7693A",
"h7	c #A56231",
"i7	c #98572A",
"j7	c #8B502A",
"k7	c #764729",
"l7	c #95633F",
"m7	c #523020",
"n7	c #180E09",
"o7	c #1B0F0A",
"p7	c #1C0F0A",
"q7	c #20110B",
"r7	c #311C12",
"s7	c #331E12",
"t7	c #351E12",
"u7	c #29170E",
"v7	c #25140C",
"w7	c #19100B",
"x7	c #2A160F",
"y7	c #60311F",
"z7	c #562D1C",
"A7	c #4C2918",
"B7	c #582F1B",
"C7	c #64361F",
"D7	c #180E08",
"E7	c #23160B",
"F7	c #251E0B",
"G7	c #231B0A",
"H7	c #201609",
"I7	c #140C06",
"J7	c #442416",
"K7	c #9E683D",
"L7	c #A26B3E",
"M7	c #905D37",
"N7	c #5E301B",
"O7	c #27130C",
"P7	c #23160D",
"Q7	c #1C110A",
"R7	c #160E08",
"S7	c #120B06",
"T7	c #100A06",
"U7	c #0F0A06",
"V7	c #150E08",
"W7	c #1C100A",
"X7	c #22140C",
"Y7	c #20130B",
"Z7	c #80492C",
"`7	c #A76A3E",
" 8	c #9E6339",
".8	c #874D29",
"+8	c #936442",
"@8	c #110A06",
"#8	c #20130C",
"$8	c #21130B",
"%8	c #23140C",
"&8	c #844F2F",
"*8	c #AE683A",
"=8	c #935B37",
"-8	c #4C2A19",
";8	c #422415",
">8	c #361D11",
",8	c #21130A",
"'8	c #24150D",
")8	c #1F130B",
"!8	c #1D120B",
"~8	c #1F120C",
"{8	c #20140B",
"]8	c #442D22",
"^8	c #AC693B",
"/8	c #B77240",
"(8	c #AA6C3F",
"_8	c #A36A40",
":8	c #955F3A",
"<8	c #6E3D23",
"[8	c #24160E",
"}8	c #26160D",
"|8	c #4B2818",
"18	c #854F2C",
"28	c #B3723F",
"38	c #AB6C3B",
"48	c #965C33",
"58	c #784326",
"68	c #70361D",
"78	c #562B1A",
"88	c #26140D",
"98	c #2C1911",
"08	c #5D3725",
"a8	c #543121",
"b8	c #603523",
"c8	c #613622",
"d8	c #5E3321",
"e8	c #633722",
"f8	c #63361C",
"g8	c #58321C",
"h8	c #502F1D",
"i8	c #472517",
"j8	c #5A301E",
"k8	c #502A1A",
"l8	c #321A10",
"m8	c #4D2B1C",
"n8	c #492A1B",
"o8	c #55301D",
"p8	c #54301C",
"q8	c #4E2C1A",
"r8	c #4A2918",
"s8	c #401F13",
"t8	c #4D2717",
"u8	c #542A1A",
"v8	c #432114",
"w8	c #572E1A",
"x8	c #58331E",
"y8	c #482C1B",
"z8	c #482C1C",
"A8	c #4C2D1C",
"B8	c #492718",
"C8	c #663720",
"D8	c #784126",
"E8	c #753F25",
"F8	c #633620",
"G8	c #4D291B",
"H8	c #562F21",
"I8	c #582F21",
"J8	c #5E3121",
"K8	c #5C3120",
"L8	c #582E1E",
"M8	c #592E1D",
"N8	c #5A2F1D",
"O8	c #5C301F",
"P8	c #5E3220",
"Q8	c #5E3120",
"R8	c #5E311F",
"S8	c #462317",
"T8	c #613621",
"U8	c #7A4D32",
"V8	c #30180E",
"W8	c #2F1810",
"X8	c #5A2E1E",
"Y8	c #623322",
"Z8	c #633322",
"`8	c #633422",
" 9	c #633523",
".9	c #643423",
"+9	c #683524",
"@9	c #512A1C",
"#9	c #6F432B",
"$9	c #945937",
"%9	c #6C3B24",
"&9	c #5F301C",
"*9	c #5A2E1C",
"=9	c #4B271A",
"-9	c #4E291B",
";9	c #5B3020",
">9	c #5E3222",
",9	c #613422",
"'9	c #643523",
")9	c #623323",
"!9	c #643323",
"~9	c #673423",
"{9	c #623120",
"]9	c #3F1F14",
"^9	c #5F301D",
"/9	c #683621",
"(9	c #6B3621",
"_9	c #6B3521",
":9	c #592B1A",
"<9	c #381A11",
"[9	c #5A2F20",
"}9	c #603321",
"|9	c #623422",
"19	c #5F3322",
"29	c #6A3A24",
"39	c #6B3B23",
"49	c #633823",
"59	c #653C28",
"69	c #91532E",
"79	c #955731",
"89	c #A05B31",
"99	c #91522D",
"09	c #8E502B",
"a9	c #93542E",
"b9	c #8E4F29",
"c9	c #8B4E28",
"d9	c #884C27",
"e9	c #784220",
"f9	c #7B4422",
"g9	c #723E1F",
"h9	c #60351F",
"i9	c #603924",
"j9	c #503020",
"k9	c #44281B",
"l9	c #45281B",
"m9	c #49291A",
"n9	c #5D3420",
"o9	c #653720",
"p9	c #60341E",
"q9	c #92532C",
"r9	c #98562C",
"s9	c #9F5C2F",
"t9	c #A15C2F",
"u9	c #A76033",
"v9	c #9C5D36",
"w9	c #7A482A",
"x9	c #6E4028",
"y9	c #6E3D22",
"z9	c #804626",
"A9	c #814622",
"B9	c #7E4421",
"C9	c #76401F",
"D9	c #66381E",
"E9	c #5B331C",
"F9	c #532F1C",
"G9	c #5C331C",
"H9	c #62361D",
"I9	c #6A3A1E",
"J9	c #794221",
"K9	c #764024",
"L9	c #673923",
"M9	c #552F1E",
"N9	c #472618",
"O9	c #472719",
"P9	c #56311F",
"Q9	c #653924",
"R9	c #693822",
"S9	c #6D3622",
"T9	c #7F4529",
"U9	c #91522E",
"V9	c #9D5831",
"W9	c #A25C31",
"X9	c #A05B2F",
"Y9	c #A15C31",
"Z9	c #A45D32",
"`9	c #A35C32",
" 0	c #9F592F",
".0	c #9A562D",
"+0	c #9A5630",
"@0	c #945330",
"#0	c #85492B",
"$0	c #733D24",
"%0	c #6D3621",
"&0	c #723925",
"*0	c #743924",
"=0	c #733824",
"-0	c #713723",
";0	c #713823",
">0	c #703723",
",0	c #743824",
"'0	c #763924",
")0	c #7B3E25",
"!0	c #763C26",
"~0	c #653422",
"{0	c #592E1E",
"]0	c #542B1B",
"^0	c #613221",
"/0	c #753C27",
"(0	c #773B25",
"_0	c #703521",
":0	c #713620",
"<0	c #783F26",
"[0	c #7B4126",
"}0	c #86492A",
"|0	c #894A29",
"10	c #894A28",
"20	c #894929",
"30	c #8A4A2A",
"40	c #8D4B2A",
"50	c #834428",
"60	c #5E301F",
"70	c #391E14",
"80	c #412218",
"90	c #442016",
"00	c #602F1F",
"a0	c #6F3720",
"b0	c #7B4124",
"c0	c #8C4C28",
"d0	c #91512B",
"e0	c #8B4F2A",
"f0	c #8C4E2A",
"g0	c #8D4E2A",
"h0	c #92522C",
"i0	c #97562E",
"j0	c #995A32",
"k0	c #9C5930",
"l0	c #9A582F",
"m0	c #9E5A31",
"n0	c #985831",
"o0	c #965831",
"p0	c #94542F",
"q0	c #92532D",
"r0	c #935530",
"s0	c #93542F",
"t0	c #864B27",
"u0	c #7D4624",
"v0	c #7F4624",
"w0	c #6B3D22",
"x0	c #734427",
"y0	c #754628",
"z0	c #834D2C",
"A0	c #91552F",
"B0	c #9B5A32",
"C0	c #9B5A2F",
"D0	c #9A5A30",
"E0	c #9B5B30",
"F0	c #9D5C31",
"G0	c #9D5D32",
"H0	c #9D5C32",
"I0	c #9E5D32",
"J0	c #9D5C33",
"K0	c #9C5C32",
"L0	c #90542D",
"M0	c #91542E",
"N0	c #91552E",
"O0	c #8E532E",
"P0	c #884F2A",
"Q0	c #844C29",
"R0	c #7F4928",
"S0	c #6F3E20",
"T0	c #734022",
"U0	c #744121",
"V0	c #754122",
"W0	c #764222",
"X0	c #764223",
"Y0	c #754123",
"Z0	c #6C3D21",
"`0	c #63391F",
" a	c #663A1F",
".a	c #673A20",
"+a	c #6A3A20",
"@a	c #965833",
"#a	c #A16035",
"$a	c #9F5F35",
"%a	c #9A5A33",
"&a	c #925530",
"*a	c #905631",
"=a	c #8C532F",
"-a	c #88502D",
";a	c #874E2C",
">a	c #854D2B",
",a	c #824C2A",
"'a	c #814B29",
")a	c #854D2A",
"!a	c #854F2D",
"~a	c #895231",
"{a	c #8F5633",
"]a	c #8A502E",
"^a	c #844B2B",
"/a	c #834929",
"(a	c #854C2B",
"_a	c #8D5331",
":a	c #9B5D37",
"<a	c #9E5E35",
"[a	c #9F5F37",
"}a	c #975730",
"|a	c #975830",
"1a	c #955832",
"2a	c #905530",
"3a	c #905430",
"4a	c #945631",
"5a	c #9B5A33",
"6a	c #A56137",
"7a	c #A15F34",
"8a	c #A05F34",
"9a	c #A25F34",
"0a	c #A36035",
"aa	c #A35F35",
"ba	c #A25F35",
"ca	c #A35F34",
"da	c #8D512F",
"ea	c #844C2C",
"fa	c #81492B",
"ga	c #834B2D",
"ha	c #8A4E2D",
"ia	c #975936",
"ja	c #9A5B37",
"ka	c #9A5A32",
"la	c #9F5B30",
"ma	c #A46031",
"na	c #935A2A",
"oa	c #99602D",
"pa	c #97612E",
"qa	c #8D662B",
"ra	c #60531F",
"sa	c #744E25",
"ta	c #85552C",
"ua	c #9A582E",
"va	c #8F5531",
"wa	c #935933",
"xa	c #6C3D24",
"ya	c #6B4227",
"za	c #5C361F",
"Aa	c #5C3720",
"Ba	c #673E24",
"Ca	c #6F4327",
"Da	c #6D4126",
"Ea	c #744326",
"Fa	c #6E4023",
"Ga	c #673B1F",
"Ha	c #663C20",
"Ia	c #663D21",
"Ja	c #673E22",
"Ka	c #693F23",
"La	c #683E23",
"Ma	c #643B20",
"Na	c #61391E",
"Oa	c #60391F",
"Pa	c #613A20",
"Qa	c #633B21",
"Ra	c #623A20",
"Sa	c #5A341C",
"Ta	c #56321B",
"Ua	c #52301B",
"Va	c #51301C",
"Wa	c #56321D",
"Xa	c #57331F",
"Ya	c #502F1B",
"Za	c #4A2C1A",
"`a	c #4C2C19",
" b	c #593623",
".b	c #392418",
"+b	c #352014",
"@b	c #331F12",
"#b	c #392315",
"$b	c #583723",
"%b	c #593823",
"&b	c #593923",
"*b	c #5A3924",
"=b	c #573722",
"-b	c #543521",
";b	c #533320",
">b	c #4E2F1A",
",b	c #4F2F1B",
"'b	c #5C351E",
")b	c #693D23",
"!b	c #6A3E24",
"~b	c #693F26",
"{b	c #6B4027",
"]b	c #472616",
"^b	c #422314",
"/b	c #3F2215",
"(b	c #412415",
"_b	c #4A2A19",
":b	c #563320",
"<b	c #5E3924",
"[b	c #613B23",
"}b	c #57391C",
"|b	c #37340E",
"1b	c #52551C",
"2b	c #57551E",
"3b	c #534D1C",
"4b	c #4F471B",
"5b	c #493B1A",
"6b	c #412F17",
"7b	c #4E331C",
"8b	c #72442A",
"9b	c #553220",
"0b	c #512F20",
"ab	c #4A2C1D",
"bb	c #4C2E1E",
"cb	c #4B2E1D",
"db	c #4D2F1D",
"eb	c #4E2F1E",
"fb	c #6F4227",
"gb	c #653B24",
"hb	c #603922",
"ib	c #55331D",
"jb	c #52361C",
"kb	c #4E361C",
"lb	c #47331A",
"mb	c #43321A",
"nb	c #3A2F17",
"ob	c #3E421A",
"pb	c #45491C",
"qb	c #48461C",
"rb	c #504B21",
"sb	c #504420",
"tb	c #4D321F",
"ub	c #492D1C",
"vb	c #4A2E1C",
"wb	c #492D1B",
"xb	c #4F311F",
"yb	c #462A1B",
"zb	c #4A2D1D",
"Ab	c #4D301E",
"Bb	c #503120",
"Cb	c #4E301F",
"Db	c #462B1C",
"Eb	c #43291B",
"Fb	c #43291A",
"Gb	c #442A1B",
"Hb	c #442B1C",
"Ib	c #452C1C",
"Jb	c #452B1C",
"Kb	c #452B1A",
"Lb	c #5B3823",
"Mb	c #603A25",
"Nb	c #643D26",
"Ob	c #663E26",
"Pb	c #663D26",
"Qb	c #643B24",
"Rb	c #5F3923",
"Sb	c #59331F",
"Tb	c #52301F",
"Ub	c #502E1E",
"Vb	c #462A1C",
"Wb	c #44291B",
"Xb	c #51311D",
"Yb	c #51311E",
"Zb	c #422718",
"`b	c #402616",
" c	c #403714",
".c	c #384112",
"+c	c #2C3010",
"@c	c #272E10",
"#c	c #242D10",
"$c	c #253010",
"%c	c #2A390F",
"&c	c #2D3911",
"*c	c #2F3711",
"=c	c #353312",
"-c	c #3B2B14",
";c	c #482D1B",
">c	c #492D1D",
",c	c #452A1A",
"'c	c #40271A",
")c	c #40271B",
"!c	c #41291B",
"~c	c #432A1C",
"{c	c #422A1D",
"]c	c #412A1D",
"^c	c #402A1C",
"/c	c #41291C",
"(c	c #42291D",
"_c	c #432A1D",
":c	c #3E2519",
"<c	c #442A1C",
"[c	c #452A1C",
"}c	c #462B1D",
"|c	c #523220",
"1c	c #553421",
"2c	c #573521",
"3c	c #583522",
"4c	c #593622",
"5c	c #5A3622",
"6c	c #5A3521",
"7c	c #4E2F1F",
"8c	c #4B2D1E",
"9c	c #352317",
"0c	c #2D1D14",
"ac	c #2D1E14",
"bc	c #2E1F14",
"cc	c #2E1F15",
"dc	c #322118",
"ec	c #332219",
"fc	c #342318",
"gc	c #342319",
"hc	c #342419",
"ic	c #332319",
"jc	c #342219",
"kc	c #342418",
"lc	c #352419",
"mc	c #352418",
"nc	c #332318",
"oc	c #35241A",
"pc	c #35241B",
"qc	c #35251A",
"rc	c #35251B",
"sc	c #36251B",
"tc	c #36261B",
"uc	c #36251A",
"vc	c #37261B",
"wc	c #37251B",
"xc	c #37251A",
"yc	c #36241A",
"zc	c #362419",
"Ac	c #352319",
"Bc	c #34231A",
"Cc	c #2E1F16",
"Dc	c #2A1C15",
"Ec	c #2A1C14",
"Fc	c #2B1C13",
"Gc	c #2C1D13",
"Hc	c #2D1E13",
"Ic	c #2E1E13",
"Jc	c #101012",
"Kc	c #18110C",
"Lc	c #22170F",
"Mc	c #23170F",
"Nc	c #231810",
"Oc	c #23180F",
"Pc	c #241810",
"Qc	c #251810",
"Rc	c #1C1611",
"Sc	c #14100C",
"Tc	c #120E0A",
"Uc	c #130F0B",
"Vc	c #140F0B",
"Wc	c #13100B",
"Xc	c #130E0B",
"Yc	c #14100B",
"Zc	c #140F0C",
"`c	c #150F0C",
" d	c #15100D",
".d	c #15100C",
"+d	c #14110C",
"@d	c #15110C",
"#d	c #16110D",
"$d	c #15110E",
"%d	c #16110E",
"&d	c #16120E",
"*d	c #15100E",
"=d	c #18130F",
"-d	c #1A1410",
";d	c #1A1411",
">d	c #1B1411",
",d	c #191310",
"'d	c #181310",
")d	c #15120E",
"!d	c #13100C",
"~d	c #120F0B",
"{d	c #0F0E0A",
"]d	c #0B0B0B",
"^d	c #0F0D09",
"/d	c #15100B",
"(d	c #19110D",
"_d	c #14100E",
":d	c #1C130D",
"<d	c #301F15",
"[d	c #322015",
"}d	c #1F1614",
"|d	c #1F150F",
"1d	c #241711",
"2d	c #231710",
"3d	c #140E0B",
"4d	c #251911",
"5d	c #281B12",
"6d	c #241812",
"7d	c #1E1410",
"8d	c #2A1B14",
"9d	c #2B1C14",
"0d	c #261912",
"ad	c #1B120E",
"bd	c #281B14",
"cd	c #271A14",
"dd	c #231711",
"ed	c #312118",
"fd	c #3F291D",
"gd	c #493022",
"hd	c #472F21",
"id	c #493021",
"jd	c #482F21",
"kd	c #402A1D",
"ld	c #33221A",
"md	c #281B15",
"nd	c #1C1310",
"od	c #17100D",
"pd	c #312017",
"qd	c #281A14",
"rd	c #291B14",
"sd	c #291C15",
"td	c #1F1611",
"ud	c #15110D",
"vd	c #251913",
"wd	c #221712",
"xd	c #18120F",
"yd	c #19120E",
"zd	c #281A13",
"Ad	c #281B13",
"Bd	c #1C140F",
"Cd	c #291C14",
"Dd	c #251813",
"Ed	c #17120F",
"Fd	c #211712",
"Gd	c #2C1D16",
"Hd	c #2C1E16",
"Id	c #291B15",
"Jd	c #2B1D16",
"Kd	c #2A1C16",
"Ld	c #2A1D16",
"Md	c #231914",
"Nd	c #221814",
"Od	c #1B1612",
"Pd	c #0F0D0A",
"Qd	c #231811",
"Rd	c #1E1512",
"Sd	c #7A4E2D",
"Td	c #573320",
"Ud	c #1F1612",
"Vd	c #14100D",
"Wd	c #241912",
"Xd	c #311F18",
"Yd	c #2F1E16",
"Zd	c #150F0E",
"`d	c #362318",
" e	c #201510",
".e	c #301F16",
"+e	c #18110E",
"@e	c #38251A",
"#e	c #3A261A",
"$e	c #372419",
"%e	c #332019",
"&e	c #1D1411",
"*e	c #221611",
"=e	c #37241A",
"-e	c #312117",
";e	c #422B1F",
">e	c #452E22",
",e	c #432B20",
"'e	c #412A1F",
")e	c #3E291E",
"!e	c #3C271D",
"~e	c #462E20",
"{e	c #4F3324",
"]e	c #543525",
"^e	c #4C3122",
"/e	c #462E23",
"(e	c #452E23",
"_e	c #402B20",
":e	c #34241B",
"<e	c #2F1F17",
"[e	c #35221A",
"}e	c #37241B",
"|e	c #39251C",
"1e	c #37231A",
"2e	c #39251A",
"3e	c #251914",
"4e	c #120E0C",
"5e	c #2F1E17",
"6e	c #2E1D16",
"7e	c #2D1E17",
"8e	c #16100F",
"9e	c #1F140E",
"0e	c #15100F",
"ae	c #251812",
"be	c #372317",
"ce	c #332119",
"de	c #261B15",
"ee	c #251B14",
"fe	c #241A16",
"ge	c #120F0C",
"he	c #332115",
"ie	c #2F1F14",
"je	c #9A643C",
"ke	c #5C3722",
"le	c #573623",
"me	c #6C3E25",
"ne	c #6F4025",
"oe	c #573421",
"pe	c #211611",
"qe	c #251912",
"re	c #2D1D15",
"se	c #100C0C",
"te	c #3B2519",
"ue	c #342216",
"ve	c #3B251A",
"we	c #1D1310",
"xe	c #39251B",
"ye	c #3B2719",
"ze	c #332118",
"Ae	c #1C1311",
"Be	c #39241A",
"Ce	c #2C1C14",
"De	c #3B271D",
"Ee	c #4B3125",
"Fe	c #462D21",
"Ge	c #3A261C",
"He	c #36231B",
"Ie	c #38251C",
"Je	c #39261D",
"Ke	c #3A271D",
"Le	c #3B281D",
"Me	c #3F2A1E",
"Ne	c #3F2A20",
"Oe	c #3C271E",
"Pe	c #39261B",
"Qe	c #3E291D",
"Re	c #412D21",
"Se	c #36241B",
"Te	c #302018",
"Ue	c #231813",
"Ve	c #0E0B0B",
"We	c #2D1D16",
"Xe	c #140F0D",
"Ye	c #1D140F",
"Ze	c #3B261A",
"`e	c #372219",
" f	c #16100E",
".f	c #271813",
"+f	c #3B2419",
"@f	c #301F17",
"#f	c #342119",
"$f	c #342118",
"%f	c #251B15",
"&f	c #211813",
"*f	c #100C0B",
"=f	c #2E1B12",
"-f	c #2C2412",
";f	c #2D2813",
">f	c #2B2812",
",f	c #292511",
"'f	c #24180E",
")f	c #302A13",
"!f	c #332614",
"~f	c #121112",
"{f	c #24170E",
"]f	c #2D1B10",
"^f	c #2F1C10",
"/f	c #2F1C11",
"(f	c #331D12",
"_f	c #372014",
":f	c #361F13",
"<f	c #1F1712",
"[f	c #100C09",
"}f	c #201612",
"|f	c #322018",
"1f	c #2D1C15",
"2f	c #0A0809",
"3f	c #281913",
"4f	c #332117",
"5f	c #3A2318",
"6f	c #3C241A",
"7f	c #3C261A",
"8f	c #3A251B",
"9f	c #3D261A",
"0f	c #362219",
"af	c #543625",
"bf	c #4E3224",
"cf	c #3B261D",
"df	c #3A261D",
"ef	c #543E2F",
"ff	c #6C4F3A",
"gf	c #6F513E",
"hf	c #805C44",
"if	c #5D4231",
"jf	c #38241B",
"kf	c #3D291D",
"lf	c #352219",
"mf	c #3B261C",
"nf	c #422B20",
"of	c #3C261B",
"pf	c #2F1F18",
"qf	c #221714",
"rf	c #0B0809",
"sf	c #3D281E",
"tf	c #2D1D17",
"uf	c #120F0E",
"vf	c #1C130F",
"wf	c #150F0F",
"xf	c #3D2419",
"yf	c #322119",
"zf	c #271B15",
"Af	c #241915",
"Bf	c #1D1512",
"Cf	c #20150D",
"Df	c #1C140B",
"Ef	c #201A0E",
"Ff	c #211D0F",
"Gf	c #1F1C0F",
"Hf	c #1E190C",
"If	c #1F170C",
"Jf	c #201A0D",
"Kf	c #1F150C",
"Lf	c #1D130C",
"Mf	c #130F0D",
"Nf	c #111012",
"Of	c #25180E",
"Pf	c #1B220C",
"Qf	c #131D09",
"Rf	c #1B1E0C",
"Sf	c #271D0F",
"Tf	c #231B0D",
"Uf	c #201D0C",
"Vf	c #2B2110",
"Wf	c #2D2012",
"Xf	c #1D150E",
"Yf	c #1E1611",
"Zf	c #211713",
"`f	c #261913",
" g	c #090809",
".g	c #271913",
"+g	c #332016",
"@g	c #3C2218",
"#g	c #392116",
"$g	c #1B1310",
"%g	c #40281C",
"&g	c #513525",
"*g	c #4F3223",
"=g	c #482E21",
"-g	c #37241C",
";g	c #443026",
">g	c #382219",
",g	c #C1916B",
"'g	c #DC9F71",
")g	c #DCA275",
"!g	c #513628",
"~g	c #482E20",
"{g	c #AD805F",
"]g	c #D99D70",
"^g	c #DA9F73",
"/g	c #9C7558",
"(g	c #483429",
"_g	c #3F281E",
":g	c #2D1E18",
"<g	c #211613",
"[g	c #40291E",
"}g	c #120E0E",
"|g	c #513322",
"1g	c #523322",
"2g	c #382218",
"3g	c #382117",
"4g	c #372118",
"5g	c #120D0E",
"6g	c #281914",
"7g	c #41261A",
"8g	c #261914",
"9g	c #261810",
"0g	c #3B2215",
"ag	c #684831",
"bg	c #3E2416",
"cg	c #6D442B",
"dg	c #66361D",
"eg	c #272712",
"fg	c #1E3010",
"gg	c #322D15",
"hg	c #352114",
"ig	c #2A1910",
"jg	c #372416",
"kg	c #1E160F",
"lg	c #16100C",
"mg	c #120D0A",
"ng	c #241813",
"og	c #271914",
"pg	c #291A14",
"qg	c #09080A",
"rg	c #6E3F26",
"sg	c #6A3F25",
"tg	c #663D25",
"ug	c #523221",
"vg	c #4A2E1F",
"wg	c #201611",
"xg	c #6B3E25",
"yg	c #1C120F",
"zg	c #201511",
"Ag	c #593825",
"Bg	c #4C3021",
"Cg	c #432D21",
"Dg	c #A17555",
"Eg	c #CE956C",
"Fg	c #D0A178",
"Gg	c #E7B283",
"Hg	c #E8B687",
"Ig	c #795846",
"Jg	c #BA9576",
"Kg	c #E9B88B",
"Lg	c #E7B588",
"Mg	c #A88366",
"Ng	c #8D664B",
"Og	c #CA9268",
"Pg	c #8F684C",
"Qg	c #3B251C",
"Rg	c #5E3925",
"Sg	c #70482F",
"Tg	c #0F0C0D",
"Ug	c #241611",
"Vg	c #533322",
"Wg	c #543423",
"Xg	c #5C3521",
"Yg	c #673E26",
"Zg	c #3E261A",
"`g	c #0C090B",
" h	c #74472C",
".h	c #533220",
"+h	c #482B1D",
"@h	c #160D0B",
"#h	c #371F13",
"$h	c #3D2314",
"%h	c #7F5435",
"&h	c #362014",
"*h	c #4A2B19",
"=h	c #1D130F",
"-h	c #8A5A37",
";h	c #794527",
">h	c #5D341E",
",h	c #2B2811",
"'h	c #355716",
")h	c #3F3A18",
"!h	c #4C2C1C",
"~h	c #2B180F",
"{h	c #5E3A23",
"]h	c #3B2A1E",
"^h	c #160E0B",
"/h	c #4D301D",
"(h	c #0A090A",
"_h	c #714125",
":h	c #7D492A",
"<h	c #673D25",
"[h	c #583824",
"}h	c #4A2F1F",
"|h	c #1E1610",
"1h	c #6A3F27",
"2h	c #5D371F",
"3h	c #744428",
"4h	c #4E3121",
"5h	c #76523B",
"6h	c #CD9166",
"7h	c #DC9F70",
"8h	c #E4B188",
"9h	c #533323",
"0h	c #3A2116",
"ah	c #D9B087",
"bh	c #F1C498",
"ch	c #7E5E4A",
"dh	c #4F3120",
"eh	c #BF9D7D",
"fh	c #F0C598",
"gh	c #F0C597",
"hh	c #AC8C6D",
"ih	c #472C1F",
"jh	c #9C7C62",
"kh	c #E4AD7F",
"lh	c #DD9F6F",
"mh	c #BE865C",
"nh	c #61412E",
"oh	c #3F281D",
"ph	c #442B1E",
"qh	c #3A251A",
"rh	c #3C251A",
"sh	c #110B0A",
"th	c #73492F",
"uh	c #57341F",
"vh	c #0D0A0B",
"wh	c #543321",
"xh	c #472C1D",
"yh	c #653D24",
"zh	c #643C24",
"Ah	c #0A080A",
"Bh	c #76482D",
"Ch	c #261812",
"Dh	c #180F0C",
"Eh	c #512D18",
"Fh	c #905E39",
"Gh	c #724321",
"Hh	c #77492D",
"Ih	c #703E22",
"Jh	c #784426",
"Kh	c #1E1310",
"Lh	c #100F11",
"Mh	c #92623C",
"Nh	c #814D2D",
"Oh	c #643821",
"Ph	c #352312",
"Qh	c #43681A",
"Rh	c #4C321A",
"Sh	c #4D2D1B",
"Th	c #543B1B",
"Uh	c #754327",
"Vh	c #9F6437",
"Wh	c #563D2A",
"Xh	c #150E0B",
"Yh	c #2B1B12",
"Zh	c #402B1E",
"`h	c #473022",
" i	c #482F20",
".i	c #422B1E",
"+i	c #3F291C",
"@i	c #412A1C",
"#i	c #472D1E",
"$i	c #503322",
"%i	c #533625",
"&i	c #4F3322",
"*i	c #4D3221",
"=i	c #4D3122",
"-i	c #4E3221",
";i	c #462E1E",
">i	c #39271C",
",i	c #5C3A25",
"'i	c #5B3722",
")i	c #4C3020",
"!i	c #2F1F15",
"~i	c #533526",
"{i	c #563727",
"]i	c #553626",
"^i	c #543524",
"/i	c #563624",
"(i	c #895130",
"_i	c #986E52",
":i	c #D8996A",
"<i	c #E0A372",
"[i	c #EEBE91",
"}i	c #F1C8A1",
"|i	c #5C3825",
"1i	c #3F2417",
"2i	c #DEB893",
"3i	c #F6CDA3",
"4i	c #F5CCA2",
"5i	c #81614E",
"6i	c #5B3A27",
"7i	c #C4A385",
"8i	c #F4CEA5",
"9i	c #F5CDA2",
"0i	c #B09073",
"ai	c #513222",
"bi	c #A3886F",
"ci	c #F1C79D",
"di	c #ECB88A",
"ei	c #E0A06D",
"fi	c #D49868",
"gi	c #815B3F",
"hi	c #442A1D",
"ii	c #482D20",
"ji	c #3D271D",
"ki	c #322219",
"li	c #553726",
"mi	c #4D3123",
"ni	c #4A3124",
"oi	c #422C21",
"pi	c #332218",
"qi	c #583623",
"ri	c #482E1F",
"si	c #422A1C",
"ti	c #482F22",
"ui	c #493124",
"vi	c #513627",
"wi	c #62402D",
"xi	c #5E3D2B",
"yi	c #573A28",
"zi	c #583A28",
"Ai	c #583A2A",
"Bi	c #4F3527",
"Ci	c #4B3327",
"Di	c #462F24",
"Ei	c #402A1E",
"Fi	c #52392A",
"Gi	c #885331",
"Hi	c #7A4424",
"Ii	c #814E2C",
"Ji	c #784A1F",
"Ki	c #7D4523",
"Li	c #0F0F11",
"Mi	c #101011",
"Ni	c #7F5638",
"Oi	c #834F30",
"Pi	c #724227",
"Qi	c #322212",
"Ri	c #3B4116",
"Si	c #693C22",
"Ti	c #764A27",
"Ui	c #563720",
"Vi	c #804624",
"Wi	c #A16538",
"Xi	c #5B3E28",
"Yi	c #160E0C",
"Zi	c #322019",
"`i	c #492F21",
" j	c #523523",
".j	c #573622",
"+j	c #5F3C27",
"@j	c #654029",
"#j	c #68422D",
"$j	c #66402A",
"%j	c #6B452D",
"&j	c #6C452C",
"*j	c #6C452D",
"=j	c #6B432C",
"-j	c #69432B",
";j	c #67412B",
">j	c #5F3D29",
",j	c #513726",
"'j	c #4F3220",
")j	c #5D3B25",
"!j	c #513321",
"~j	c #67412C",
"{j	c #6B442D",
"]j	c #6C442C",
"^j	c #6D442C",
"/j	c #71472C",
"(j	c #8B5230",
"_j	c #864C2A",
":j	c #AA7C5C",
"<j	c #A87A59",
"[j	c #986D4D",
"}j	c #A68465",
"|j	c #A9886A",
"1j	c #AB8D72",
"2j	c #613B26",
"3j	c #412417",
"4j	c #9F856B",
"5j	c #B19376",
"6j	c #B29579",
"7j	c #71503D",
"8j	c #67422B",
"9j	c #8D7763",
"0j	c #AF947A",
"aj	c #AD9175",
"bj	c #7F6956",
"cj	c #766250",
"dj	c #AE9073",
"ej	c #AE8E6F",
"fj	c #AC8766",
"gj	c #A47755",
"hj	c #C28E66",
"ij	c #8B6042",
"jj	c #492D20",
"kj	c #41291D",
"lj	c #3F291E",
"mj	c #5B3C29",
"nj	c #5F3E2B",
"oj	c #5F3E2A",
"pj	c #553624",
"qj	c #483021",
"rj	c #4E3220",
"sj	c #442D1F",
"tj	c #452D1E",
"uj	c #4B3021",
"vj	c #573826",
"wj	c #5B3A26",
"xj	c #5C3A26",
"yj	c #5A3925",
"zj	c #5C3C27",
"Aj	c #5E3C26",
"Bj	c #5A3A27",
"Cj	c #4E3120",
"Dj	c #613D27",
"Ej	c #382519",
"Fj	c #170F0C",
"Gj	c #553D2E",
"Hj	c #8C5936",
"Ij	c #7A4323",
"Jj	c #673E1F",
"Kj	c #764420",
"Lj	c #794422",
"Mj	c #784322",
"Nj	c #63371D",
"Oj	c #58321D",
"Pj	c #996138",
"Qj	c #794729",
"Rj	c #4D331C",
"Sj	c #435E19",
"Tj	c #754424",
"Uj	c #7C4726",
"Vj	c #7A4626",
"Wj	c #814623",
"Xj	c #9F6337",
"Yj	c #6F492F",
"Zj	c #3E291C",
"`j	c #3F2A1D",
" k	c #412B1E",
".k	c #432B1F",
"+k	c #3F2A1C",
"@k	c #412A1E",
"#k	c #432B1E",
"$k	c #432B1D",
"%k	c #412B1D",
"&k	c #503320",
"*k	c #5F3D27",
"=k	c #4D3121",
"-k	c #432C1F",
";k	c #96552E",
">k	c #844C2A",
",k	c #9B6C4B",
"'k	c #DF9D6C",
")k	c #7F4D2F",
"!k	c #784A2E",
"~k	c #653E2A",
"{k	c #603926",
"]k	c #4F2E1E",
"^k	c #502F20",
"/k	c #4F2F21",
"(k	c #633D27",
"_k	c #5F3A26",
":k	c #492C1F",
"<k	c #462A1F",
"[k	c #482B1F",
"}k	c #523121",
"|k	c #573422",
"1k	c #462B1E",
"2k	c #472B1E",
"3k	c #492D21",
"4k	c #946949",
"5k	c #D69665",
"6k	c #7A5237",
"7k	c #312219",
"8k	c #462E1F",
"9k	c #5E3B25",
"0k	c #3A261B",
"ak	c #3B261B",
"bk	c #3B271C",
"ck	c #38261B",
"dk	c #3C281C",
"ek	c #3D291C",
"fk	c #442C1D",
"gk	c #4F3323",
"hk	c #2E1E16",
"ik	c #4B3529",
"jk	c #854B29",
"kk	c #5D361A",
"lk	c #724120",
"mk	c #784424",
"nk	c #6E3D24",
"ok	c #784224",
"pk	c #1F1311",
"qk	c #100E11",
"rk	c #28190F",
"sk	c #B17442",
"tk	c #693F27",
"uk	c #4D6317",
"vk	c #683D20",
"wk	c #6D3E22",
"xk	c #7F4524",
"yk	c #9D6035",
"zk	c #744E33",
"Ak	c #2E1E17",
"Bk	c #231712",
"Ck	c #0D0C0C",
"Dk	c #41271C",
"Ek	c #3E261B",
"Fk	c #523422",
"Gk	c #643F29",
"Hk	c #503323",
"Ik	c #1B130F",
"Jk	c #3D261B",
"Kk	c #985935",
"Lk	c #93522C",
"Mk	c #7B563E",
"Nk	c #DE9C6A",
"Ok	c #E09F6E",
"Pk	c #553322",
"Qk	c #5F3924",
"Rk	c #43291D",
"Sk	c #523A2C",
"Tk	c #5B4437",
"Uk	c #613B28",
"Vk	c #4A2A1B",
"Wk	c #6D5648",
"Xk	c #715B4C",
"Yk	c #6E5849",
"Zk	c #6E5848",
"`k	c #6C5647",
" l	c #6A5546",
".l	c #6B5547",
"+l	c #6C5546",
"@l	c #594235",
"#l	c #663E29",
"$l	c #523E33",
"%l	c #634D3F",
"&l	c #5B4334",
"*l	c #462C20",
"=l	c #482C1F",
"-l	c #997253",
";l	c #DB9663",
">l	c #CD8C5E",
",l	c #593826",
"'l	c #4D3021",
")l	c #523424",
"!l	c #402A1F",
"~l	c #100D0D",
"{l	c #673F27",
"]l	c #3E271C",
"^l	c #2C1B15",
"/l	c #0E0C0C",
"(l	c #1F1510",
"_l	c #2B1B14",
":l	c #463025",
"<l	c #AB7549",
"[l	c #8B512E",
"}l	c #522C18",
"|l	c #673920",
"1l	c #5E351F",
"2l	c #472818",
"3l	c #5C321C",
"4l	c #774022",
"5l	c #251712",
"6l	c #AA6D3C",
"7l	c #583A20",
"8l	c #3E2516",
"9l	c #6E3B20",
"0l	c #804422",
"al	c #A16439",
"bl	c #624028",
"cl	c #241A14",
"dl	c #3F271C",
"el	c #0B0A0B",
"fl	c #583421",
"gl	c #583520",
"hl	c #593926",
"il	c #6C442A",
"jl	c #894D2C",
"kl	c #8C5230",
"ll	c #D09468",
"ml	c #DF9E6A",
"nl	c #EBB588",
"ol	c #543322",
"pl	c #5A3623",
"ql	c #B9987A",
"rl	c #F7CCA2",
"sl	c #F8CFA6",
"tl	c #653D28",
"ul	c #462719",
"vl	c #E3C19B",
"wl	c #FBD8AF",
"xl	c #FCD9AF",
"yl	c #FBD8AE",
"zl	c #FCD8B0",
"Al	c #FCD9B1",
"Bl	c #FCD8AF",
"Cl	c #BCA083",
"Dl	c #6F452C",
"El	c #A88E74",
"Fl	c #F7D0A4",
"Gl	c #F7CDA1",
"Hl	c #816853",
"Il	c #452A1E",
"Jl	c #A07E60",
"Kl	c #E5AA7B",
"Ll	c #DA9461",
"Ml	c #B57C54",
"Nl	c #513423",
"Ol	c #352318",
"Pl	c #130D0B",
"Ql	c #63402D",
"Rl	c #0E0B0C",
"Sl	c #6D4229",
"Tl	c #583622",
"Ul	c #21150E",
"Vl	c #5D3824",
"Wl	c #543422",
"Xl	c #392218",
"Yl	c #0C0B0C",
"Zl	c #533321",
"`l	c #3D271C",
" m	c #452F25",
".m	c #89502C",
"+m	c #6D3D22",
"@m	c #65371E",
"#m	c #67381E",
"$m	c #542F1C",
"%m	c #5A311B",
"&m	c #764021",
"*m	c #472A1D",
"=m	c #A76B3B",
"-m	c #442718",
";m	c #3F2418",
">m	c #4C2B1A",
",m	c #9F643A",
"'m	c #573B27",
")m	c #4E2E1F",
"!m	c #7C4A2D",
"~m	c #814D2E",
"{m	c #77482B",
"]m	c #78482B",
"^m	c #744629",
"/m	c #754528",
"(m	c #75462A",
"_m	c #754A2F",
":m	c #593824",
"<m	c #754629",
"[m	c #482718",
"}m	c #985834",
"|m	c #874B2A",
"1m	c #6B3F25",
"2m	c #A06E4D",
"3m	c #DC9A69",
"4m	c #E7AD7E",
"5m	c #F0C196",
"6m	c #5D3722",
"7m	c #F8CDA2",
"8m	c #F9D2AB",
"9m	c #653D27",
"0m	c #E4C39E",
"am	c #FCDAB2",
"bm	c #FDDBB3",
"cm	c #FDDCB3",
"dm	c #FDDCB4",
"em	c #FDDBB4",
"fm	c #FDDAB1",
"gm	c #BCA183",
"hm	c #73472E",
"im	c #AA9077",
"jm	c #F8D2A8",
"km	c #F7CC9F",
"lm	c #7F664F",
"mm	c #452A1F",
"nm	c #A07F62",
"om	c #EDBE92",
"pm	c #DB9967",
"qm	c #DA9563",
"rm	c #7B5136",
"sm	c #523423",
"tm	c #764C35",
"um	c #573321",
"vm	c #0D0B0B",
"wm	c #5A3722",
"xm	c #633C25",
"ym	c #714329",
"zm	c #3F2419",
"Am	c #0B0A0C",
"Bm	c #663D27",
"Cm	c #513120",
"Dm	c #41261B",
"Em	c #44291D",
"Fm	c #170E0B",
"Gm	c #3F2920",
"Hm	c #AB7649",
"Im	c #89512E",
"Jm	c #462714",
"Km	c #4E2A17",
"Lm	c #6A3B20",
"Mm	c #59321E",
"Nm	c #5C311C",
"Om	c #5C331E",
"Pm	c #391F14",
"Qm	c #0F0E10",
"Rm	c #332116",
"Sm	c #A66B3C",
"Tm	c #46291B",
"Um	c #4A2A1A",
"Vm	c #6F3A1F",
"Wm	c #814322",
"Xm	c #9D633A",
"Ym	c #473124",
"Zm	c #291B16",
"`m	c #38221A",
" n	c #5A3724",
".n	c #7E4B2D",
"+n	c #804C2E",
"@n	c #74452A",
"#n	c #76452A",
"$n	c #73442A",
"%n	c #804D2D",
"&n	c #5D3B28",
"*n	c #7C4D31",
"=n	c #5A3825",
"-n	c #1F140F",
";n	c #714025",
">n	c #663C24",
",n	c #9B5730",
"'n	c #925431",
")n	c #3E2214",
"!n	c #A17152",
"~n	c #B17D59",
"{n	c #C19977",
"]n	c #C49F7F",
"^n	c #643A25",
"/n	c #6E412A",
"(n	c #937761",
"_n	c #BD9C7D",
":n	c #BEA083",
"<n	c #6E4029",
"[n	c #4B2A1A",
"}n	c #E6C7A4",
"|n	c #FEDDB6",
"1n	c #FEDEB8",
"2n	c #FEDFB9",
"3n	c #FFDFB9",
"4n	c #FFDEB7",
"5n	c #C1A68B",
"6n	c #79492E",
"7n	c #84705F",
"8n	c #C1A387",
"9n	c #C3A283",
"0n	c #6C5544",
"an	c #492C20",
"bn	c #826954",
"cn	c #C09D7C",
"dn	c #B78966",
"en	c #AF7952",
"fn	c #916546",
"gn	c #513425",
"hn	c #754A34",
"in	c #5B3521",
"jn	c #0C0A0A",
"kn	c #6A4027",
"ln	c #5A3723",
"mn	c #6A3F26",
"nn	c #714328",
"on	c #5D3621",
"pn	c #6B3F29",
"qn	c #170D0B",
"rn	c #87512E",
"sn	c #412315",
"tn	c #59311D",
"un	c #542F1D",
"vn	c #56301C",
"wn	c #60341D",
"xn	c #773F22",
"yn	c #5A321E",
"zn	c #120F11",
"An	c #A56B3C",
"Bn	c #522E1D",
"Cn	c #452719",
"Dn	c #834423",
"En	c #814422",
"Fn	c #9F673F",
"Gn	c #1F100A",
"Hn	c #281B16",
"In	c #492C1D",
"Jn	c #5B3723",
"Kn	c #281813",
"Ln	c #52311F",
"Mn	c #7B492C",
"Nn	c #7F4B2D",
"On	c #6D4128",
"Pn	c #6E4128",
"Qn	c #74442A",
"Rn	c #7C4A2B",
"Sn	c #7D4F32",
"Tn	c #5B3825",
"Un	c #9C5A33",
"Vn	c #995630",
"Wn	c #884E2C",
"Xn	c #48291A",
"Yn	c #73462E",
"Zn	c #865237",
"`n	c #865133",
" o	c #885132",
".o	c #874F31",
"+o	c #7D492E",
"@o	c #824B2E",
"#o	c #7A472D",
"$o	c #73442C",
"%o	c #6C3F28",
"&o	c #E7CAA9",
"*o	c #FEE0BB",
"=o	c #FEDFBA",
"-o	c #FEE0BA",
";o	c #C3AC91",
">o	c #834E31",
",o	c #6B3F28",
"'o	c #613925",
")o	c #573322",
"!o	c #4C2D1F",
"~o	c #40271C",
"{o	c #41271D",
"]o	c #623D2A",
"^o	c #623C26",
"/o	c #422B1D",
"(o	c #694028",
"_o	c #43281B",
":o	c #643D27",
"<o	c #693E26",
"[o	c #623923",
"}o	c #41251A",
"|o	c #392319",
"1o	c #6B402A",
"2o	c #44291C",
"3o	c #86502C",
"4o	c #704328",
"5o	c #552F1D",
"6o	c #62351D",
"7o	c #231611",
"8o	c #140F11",
"9o	c #0F0F10",
"0o	c #A4693B",
"ao	c #6F3B1F",
"bo	c #844521",
"co	c #A26B45",
"do	c #170C08",
"eo	c #2A1C17",
"fo	c #261A15",
"go	c #38231B",
"ho	c #482D1E",
"io	c #291914",
"jo	c #7C492B",
"ko	c #6C4027",
"lo	c #6C4128",
"mo	c #724429",
"no	c #633B24",
"oo	c #573823",
"po	c #7F5134",
"qo	c #5B3824",
"ro	c #2F2018",
"so	c #A86338",
"to	c #97562F",
"uo	c #6B4630",
"vo	c #745038",
"wo	c #7A5F4A",
"xo	c #7F6450",
"yo	c #593522",
"zo	c #725B4A",
"Ao	c #8D745F",
"Bo	c #907864",
"Co	c #947D69",
"Do	c #9F8A74",
"Eo	c #F1D6B4",
"Fo	c #FEE1BD",
"Go	c #FEE2BD",
"Ho	c #FEE1BE",
"Io	c #FFE2BE",
"Jo	c #FEE2BE",
"Ko	c #E2C9AB",
"Lo	c #A59079",
"Mo	c #8F7763",
"No	c #8A725D",
"Oo	c #8A6F58",
"Po	c #714B35",
"Qo	c #583321",
"Ro	c #5D493B",
"So	c #7F644F",
"To	c #7A6049",
"Uo	c #76553E",
"Vo	c #774A30",
"Wo	c #543425",
"Xo	c #633E27",
"Yo	c #72462B",
"Zo	c #3A241A",
"`o	c #0C0B0B",
" p	c #291913",
".p	c #673E28",
"+p	c #583524",
"@p	c #3F261A",
"#p	c #A97549",
"$p	c #89502B",
"%p	c #3E2115",
"&p	c #58311C",
"*p	c #542F1B",
"=p	c #67371D",
"-p	c #54301B",
";p	c #3B2115",
">p	c #0F1010",
",p	c #0F0F0F",
"'p	c #A26739",
")p	c #703C20",
"!p	c #7D4426",
"~p	c #854622",
"{p	c #9A643F",
"]p	c #160D09",
"^p	c #231713",
"/p	c #221813",
"(p	c #2E1D17",
"_p	c #452B1D",
":p	c #0F0B0B",
"<p	c #211511",
"[p	c #583521",
"}p	c #5B3A25",
"|p	c #4D2F1F",
"1p	c #633A24",
"2p	c #995B35",
"3p	c #935532",
"4p	c #522D1A",
"5p	c #D19164",
"6p	c #DF9F71",
"7p	c #F2C498",
"8p	c #F2C59A",
"9p	c #F3C99E",
"0p	c #4C2C1D",
"ap	c #C3A485",
"bp	c #FAD5AC",
"cp	c #FCDAB3",
"dp	c #FDDCB6",
"ep	c #FEDEB9",
"fp	c #FEE2C0",
"gp	c #FEE3C1",
"hp	c #FEE3C0",
"ip	c #FDE2BF",
"jp	c #FDDFBB",
"kp	c #FDDDB8",
"lp	c #FDDBB6",
"mp	c #97755C",
"np	c #683E27",
"op	c #A68C74",
"pp	c #F2C89D",
"qp	c #F0C49A",
"rp	c #EAB589",
"sp	c #DD8E58",
"tp	c #BF7C4F",
"up	c #4A2D20",
"vp	c #462D1E",
"wp	c #110D0C",
"xp	c #4D3323",
"yp	c #73472B",
"zp	c #683B23",
"Ap	c #352217",
"Bp	c #4F3221",
"Cp	c #523320",
"Dp	c #4B2E1E",
"Ep	c #0F0C0B",
"Fp	c #A9754A",
"Gp	c #794023",
"Hp	c #462617",
"Ip	c #502C19",
"Jp	c #6E3C21",
"Kp	c #7A4123",
"Lp	c #381F15",
"Mp	c #2B1A14",
"Np	c #492919",
"Op	c #502F1E",
"Pp	c #6F3D21",
"Qp	c #864722",
"Rp	c #352218",
"Sp	c #503321",
"Tp	c #5C3B26",
"Up	c #6C472E",
"Vp	c #6E492F",
"Wp	c #704830",
"Xp	c #704930",
"Yp	c #724B32",
"Zp	c #764E32",
"`p	c #784E32",
" q	c #774D32",
".q	c #764D32",
"+q	c #734B30",
"@q	c #70472F",
"#q	c #67432B",
"$q	c #68462F",
"%q	c #734A30",
"&q	c #563927",
"*q	c #6F472F",
"=q	c #744C32",
"-q	c #5A3C29",
";q	c #804E30",
">q	c #875132",
",q	c #67422E",
"'q	c #D99466",
")q	c #E2A87C",
"!q	c #F4C59A",
"~q	c #F4C89D",
"{q	c #F4CBA1",
"]q	c #663F28",
"^q	c #C3A689",
"/q	c #FBD9AF",
"(q	c #FEE3C2",
"_q	c #FEE4C3",
":q	c #FEE5C3",
"<q	c #FEE4C2",
"[q	c #FEE1BF",
"}q	c #FEE1BC",
"|q	c #FCDBB2",
"1q	c #96775E",
"2q	c #6E432A",
"3q	c #A68D77",
"4q	c #F3CCA1",
"5q	c #F1C69C",
"6q	c #EFC095",
"7q	c #E0915B",
"8q	c #D88C58",
"9q	c #4F3222",
"0q	c #543725",
"aq	c #6B462E",
"bq	c #69442D",
"cq	c #583825",
"dq	c #613822",
"eq	c #392417",
"fq	c #5A3B27",
"gq	c #72472D",
"hq	c #623E29",
"iq	c #623E2A",
"jq	c #603D29",
"kq	c #613D29",
"lq	c #623E28",
"mq	c #5D3A26",
"nq	c #573723",
"oq	c #6D472E",
"pq	c #2D1E15",
"qq	c #A77448",
"rq	c #874F2C",
"sq	c #763E20",
"tq	c #2B150B",
"uq	c #723D22",
"vq	c #7B4323",
"wq	c #542E1A",
"xq	c #9C6135",
"yq	c #4D2C1D",
"zq	c #703D21",
"Aq	c #713E22",
"Bq	c #854621",
"Cq	c #935E37",
"Dq	c #533523",
"Eq	c #5F3B26",
"Fq	c #593724",
"Gq	c #5C3823",
"Hq	c #603B26",
"Iq	c #5F3A25",
"Jq	c #613C27",
"Kq	c #683F28",
"Lq	c #8D5634",
"Mq	c #6A3C23",
"Nq	c #79492D",
"Oq	c #82553B",
"Pq	c #D79165",
"Qq	c #E5AD82",
"Rq	c #F3C59A",
"Sq	c #F4C99E",
"Tq	c #F4CCA3",
"Uq	c #6A412A",
"Vq	c #C2A688",
"Wq	c #FBD9B0",
"Xq	c #FEE2C1",
"Yq	c #FEE5C4",
"Zq	c #FEE6C4",
"`q	c #95765E",
" r	c #71452C",
".r	c #A78E77",
"+r	c #F4CEA3",
"@r	c #F0C399",
"#r	c #E59762",
"$r	c #4D3120",
"%r	c #573824",
"&r	c #7C4C2F",
"*r	c #663C23",
"=r	c #6B4229",
"-r	c #523321",
";r	c #644129",
">r	c #A87549",
",r	c #874F2D",
"'r	c #753E21",
")r	c #512E1C",
"!r	c #2B160D",
"~r	c #733C1F",
"{r	c #7B4223",
"]r	c #4D2B18",
"^r	c #171111",
"/r	c #100E10",
"(r	c #9D6034",
"_r	c #412619",
":r	c #713D20",
"<r	c #6D3B20",
"[r	c #884722",
"}r	c #935F38",
"|r	c #150C09",
"1r	c #1E1510",
"2r	c #1D1410",
"3r	c #271A13",
"4r	c #1C120E",
"5r	c #2C1D14",
"6r	c #5D3A25",
"7r	c #8D5838",
"8r	c #5D331D",
"9r	c #75472D",
"0r	c #936145",
"ar	c #D69065",
"br	c #E7B187",
"cr	c #6B422A",
"dr	c #674028",
"er	c #C1A587",
"fr	c #FEDDB7",
"gr	c #FEE2BF",
"hr	c #FEE5C5",
"ir	c #FFE4C6",
"jr	c #FEE4C6",
"kr	c #FFE5C4",
"lr	c #FEE3C3",
"mr	c #FFE2C0",
"nr	c #FEE2BC",
"or	c #FEDFB8",
"pr	c #FCDBB1",
"qr	c #91745D",
"rr	c #73462D",
"sr	c #A78F78",
"tr	c #F5CEA4",
"ur	c #EFC499",
"vr	c #E79C67",
"wr	c #E1905A",
"xr	c #7F5236",
"yr	c #543624",
"zr	c #4C2F20",
"Ar	c #7A4C30",
"Br	c #683E24",
"Cr	c #261A13",
"Dr	c #2B1C15",
"Er	c #2D1E16",
"Fr	c #110C0A",
"Gr	c #221713",
"Hr	c #211612",
"Ir	c #2B1810",
"Jr	c #874E2D",
"Kr	c #743E21",
"Lr	c #552F1C",
"Mr	c #422416",
"Nr	c #743D1F",
"Or	c #7D4323",
"Pr	c #502D1A",
"Qr	c #5B321B",
"Rr	c #A16133",
"Sr	c #53301D",
"Tr	c #532E1A",
"Ur	c #4B2918",
"Vr	c #723D20",
"Wr	c #8A4922",
"Xr	c #955E38",
"Yr	c #150B09",
"Zr	c #251A15",
"`r	c #2B1E18",
" s	c #34221A",
".s	c #0F0D0D",
"+s	c #432A1E",
"@s	c #442A1E",
"#s	c #65422C",
"$s	c #6F462D",
"%s	c #2E1F18",
"&s	c #40291C",
"*s	c #8A5637",
"=s	c #5B331E",
"-s	c #77482F",
";s	c #946144",
">s	c #D68E64",
",s	c #E6B187",
"'s	c #F4CDA3",
")s	c #6C422B",
"!s	c #653E28",
"~s	c #C0A487",
"{s	c #FBD8B0",
"]s	c #FEDCB7",
"^s	c #FFE2BF",
"/s	c #FEE4C5",
"(s	c #8D725C",
"_s	c #74462E",
":s	c #A78F79",
"<s	c #F5CEA5",
"[s	c #F2C89E",
"}s	c #E79D68",
"|s	c #E29059",
"1s	c #835538",
"2s	c #6E4830",
"3s	c #563523",
"4s	c #462D1F",
"5s	c #0C0A0B",
"6s	c #452E1F",
"7s	c #784C2F",
"8s	c #40291D",
"9s	c #462C1E",
"0s	c #503122",
"as	c #31211A",
"bs	c #442C20",
"cs	c #312018",
"ds	c #2A1810",
"es	c #AA774A",
"fs	c #824725",
"gs	c #542E1B",
"hs	c #7C4221",
"is	c #522E1B",
"js	c #764020",
"ks	c #7F4321",
"ls	c #5C321B",
"ms	c #100F10",
"ns	c #412C21",
"os	c #A26132",
"ps	c #673820",
"qs	c #5F341D",
"rs	c #6D3B21",
"ss	c #5C331D",
"ts	c #8E4A22",
"us	c #A46A42",
"vs	c #170B08",
"ws	c #302019",
"xs	c #35221B",
"ys	c #0D0B0C",
"zs	c #633B25",
"As	c #643C25",
"Bs	c #5D3A24",
"Cs	c #5A3824",
"Ds	c #6D4730",
"Es	c #784D33",
"Fs	c #553625",
"Gs	c #5F3B25",
"Hs	c #7F4F34",
"Is	c #70432B",
"Js	c #915F45",
"Ks	c #D48D63",
"Ls	c #E6AF85",
"Ms	c #69412A",
"Ns	c #633E28",
"Os	c #C0A387",
"Ps	c #FDDCB5",
"Qs	c #FEDEBA",
"Rs	c #FEE4C4",
"Ss	c #FDDBB2",
"Ts	c #8C715C",
"Us	c #74462D",
"Vs	c #A7907A",
"Ws	c #F5CFA5",
"Xs	c #F0C499",
"Ys	c #EA9C65",
"Zs	c #E49058",
"`s	c #7F5237",
" t	c #805136",
".t	c #452E21",
"+t	c #583523",
"@t	c #7E5032",
"#t	c #633C26",
"$t	c #704329",
"%t	c #613A25",
"&t	c #39271D",
"*t	c #0C0B0A",
"=t	c #5A3725",
"-t	c #442B1D",
";t	c #AB774A",
">t	c #7C4120",
",t	c #723B1D",
"'t	c #5A311C",
")t	c #6F3B1E",
"!t	c #432314",
"~t	c #7B4224",
"{t	c #793F1F",
"]t	c #56301B",
"^t	c #66371D",
"/t	c #763E1E",
"(t	c #493225",
"_t	c #9F5E30",
":t	c #683A21",
"<t	c #5C321E",
"[t	c #391C0E",
"}t	c #8D4A22",
"|t	c #A3683D",
"1t	c #21110B",
"2t	c #301F18",
"3t	c #4D2F20",
"4t	c #613A24",
"5t	c #6B4028",
"6t	c #613D26",
"7t	c #633F2A",
"8t	c #764B32",
"9t	c #784A30",
"0t	c #663A24",
"at	c #6D412A",
"bt	c #794D36",
"ct	c #D38B62",
"dt	c #E1A97F",
"et	c #F1C49A",
"ft	c #F3CBA3",
"gt	c #5C3927",
"ht	c #C0A386",
"it	c #FBD7B0",
"jt	c #72462D",
"kt	c #A78F7A",
"lt	c #EA945A",
"mt	c #E89157",
"nt	c #60351E",
"ot	c #7D4E33",
"pt	c #4F2F1F",
"qt	c #0D0A0C",
"rt	c #452D1F",
"st	c #805032",
"tt	c #5F3A24",
"ut	c #6F4228",
"vt	c #5D3825",
"wt	c #AB764B",
"xt	c #7C401F",
"yt	c #6F391D",
"zt	c #65361E",
"At	c #5E331C",
"Bt	c #371E11",
"Ct	c #68361B",
"Dt	c #552F1A",
"Et	c #784123",
"Ft	c #743C1D",
"Gt	c #9D5C30",
"Ht	c #683A22",
"It	c #6C3A20",
"Jt	c #4E2916",
"Kt	c #8C4921",
"Lt	c #312019",
"Mt	c #4B2D1F",
"Nt	c #0B090A",
"Ot	c #4F2E1D",
"Pt	c #5C3622",
"Qt	c #5D3823",
"Rt	c #7B4F34",
"St	c #543523",
"Tt	c #6D422A",
"Ut	c #69402A",
"Vt	c #5B3A29",
"Wt	c #D28B61",
"Xt	c #DC9F76",
"Yt	c #F0C49B",
"Zt	c #F3CAA1",
"`t	c #553524",
" u	c #BFA285",
".u	c #FBD7AF",
"+u	c #FEE0BC",
"@u	c #FCDAB1",
"#u	c #A68E77",
"$u	c #F5CEA3",
"%u	c #F1BE92",
"&u	c #EB9154",
"*u	c #DC8750",
"=u	c #5D3723",
"-u	c #784B30",
";u	c #583724",
">u	c #865535",
",u	c #6A3E25",
"'u	c #613B25",
")u	c #623B25",
"!u	c #38261D",
"~u	c #27160E",
"{u	c #A97448",
"]u	c #7C4020",
"^u	c #6F3A1E",
"/u	c #532E1C",
"(u	c #6E3A1F",
"_u	c #391F12",
":u	c #7C4223",
"<u	c #5F341C",
"[u	c #442515",
"}u	c #502D19",
"|u	c #66371E",
"1u	c #532D19",
"2u	c #6B391E",
"3u	c #7E4222",
"4u	c #884721",
"5u	c #9F6439",
"6u	c #493324",
"7u	c #4C2E1F",
"8u	c #653D25",
"9u	c #6B3F27",
"0u	c #835436",
"au	c #573624",
"bu	c #5A3721",
"cu	c #854F30",
"du	c #5C3824",
"eu	c #C5845E",
"fu	c #D49368",
"gu	c #F2C599",
"hu	c #F2C99F",
"iu	c #3E2316",
"ju	c #BDA184",
"ku	c #F9D5AC",
"lu	c #FCDBB5",
"mu	c #FDDFB8",
"nu	c #FEE0BD",
"ou	c #FEE2C2",
"pu	c #FDDFBA",
"qu	c #FDDBB5",
"ru	c #8E725C",
"su	c #A68E75",
"tu	c #F4CAA0",
"uu	c #F1C599",
"vu	c #EEB485",
"wu	c #EA9155",
"xu	c #BE7445",
"yu	c #684029",
"zu	c #76492E",
"Au	c #4C3223",
"Bu	c #573523",
"Cu	c #452D20",
"Du	c #8A5938",
"Eu	c #683E26",
"Fu	c #734428",
"Gu	c #35251C",
"Hu	c #734529",
"Iu	c #4A2E20",
"Ju	c #A36E43",
"Ku	c #7E411F",
"Lu	c #713B1F",
"Mu	c #552E1C",
"Nu	c #3C2114",
"Ou	c #7B4120",
"Pu	c #5E341E",
"Qu	c #492918",
"Ru	c #69381D",
"Su	c #51321E",
"Tu	c #9F5F32",
"Uu	c #47281A",
"Vu	c #683921",
"Wu	c #502B18",
"Xu	c #69381E",
"Yu	c #874622",
"Zu	c #894822",
"`u	c #9E6438",
" v	c #4B3322",
".v	c #52321F",
"+v	c #6B4128",
"@v	c #6A4026",
"#v	c #613C25",
"$v	c #643D25",
"%v	c #683F27",
"&v	c #8A593A",
"*v	c #2F2017",
"=v	c #5B3822",
"-v	c #633C24",
";v	c #925634",
">v	c #53301C",
",v	c #654432",
"'v	c #7A543D",
")v	c #87654E",
"!v	c #8A6A54",
"~v	c #8E6F59",
"{v	c #623924",
"]v	c #7A5C4A",
"^v	c #94755E",
"/v	c #947660",
"(v	c #93765F",
"_v	c #917862",
":v	c #F1D4B2",
"<v	c #DBC3A5",
"[v	c #947963",
"}v	c #937762",
"|v	c #927661",
"1v	c #937662",
"2v	c #82583F",
"3v	c #73462A",
"4v	c #765846",
"5v	c #92725B",
"6v	c #8D6D57",
"7v	c #866148",
"8v	c #7D4D33",
"9v	c #613A26",
"0v	c #7A4C31",
"av	c #6A4129",
"bv	c #5D3925",
"cv	c #583624",
"dv	c #8A5838",
"ev	c #653C25",
"fv	c #3D281C",
"gv	c #653E26",
"hv	c #5D3926",
"iv	c #34241C",
"jv	c #6F4429",
"kv	c #42281C",
"lv	c #4B2F21",
"mv	c #A06C43",
"nv	c #7F4220",
"ov	c #723B1F",
"pv	c #562F1B",
"qv	c #562E1A",
"rv	c #7A3F1E",
"sv	c #633720",
"tv	c #4A2917",
"uv	c #4A2C19",
"vv	c #64351B",
"wv	c #9F5F31",
"xv	c #482818",
"yv	c #64361E",
"zv	c #62361E",
"Av	c #512D1A",
"Bv	c #9F6339",
"Cv	c #412918",
"Dv	c #271B14",
"Ev	c #513829",
"Fv	c #553A2A",
"Gv	c #573A2A",
"Hv	c #573B2A",
"Iv	c #573929",
"Jv	c #573A29",
"Kv	c #553929",
"Lv	c #533829",
"Mv	c #533A2B",
"Nv	c #875739",
"Ov	c #583C2C",
"Pv	c #593C2A",
"Qv	c #683D25",
"Rv	c #573524",
"Sv	c #603A27",
"Tv	c #633C27",
"Uv	c #643E28",
"Vv	c #643D28",
"Wv	c #E6CCAF",
"Xv	c #B9A38B",
"Yv	c #7E4E31",
"Zv	c #603B25",
"`v	c #45291B",
" w	c #8D5938",
".w	c #2F2016",
"+w	c #4E3425",
"@w	c #563928",
"#w	c #563A29",
"$w	c #8B5939",
"%w	c #4F3525",
"&w	c #593C2B",
"*w	c #593C2C",
"=w	c #5A3D2C",
"-w	c #5C3E2C",
";w	c #5E402D",
">w	c #543A2B",
",w	c #4D3526",
"'w	c #4B3326",
")w	c #493226",
"!w	c #3F261B",
"~w	c #A36D44",
"{w	c #552D1A",
"]w	c #3B2013",
"^w	c #7A3F1F",
"/w	c #63351D",
"(w	c #4E2A18",
"_w	c #4B2B19",
":w	c #63351C",
"<w	c #63371F",
"[w	c #5F351D",
"}w	c #56301A",
"|w	c #63361D",
"1w	c #814421",
"2w	c #864622",
"3w	c #9D6037",
"4w	c #3B2010",
"5w	c #3A271C",
"6w	c #503523",
"7w	c #5D3924",
"8w	c #603822",
"9w	c #5F3721",
"0w	c #56321F",
"aw	c #58331F",
"bw	c #683D24",
"cw	c #673F26",
"dw	c #684027",
"ew	c #5E3B28",
"fw	c #73472D",
"gw	c #73482E",
"hw	c #8A5D43",
"iw	c #9E6C4D",
"jw	c #B18C6E",
"kw	c #B59477",
"lw	c #654F41",
"mw	c #8F7864",
"nw	c #B99B7E",
"ow	c #B89C80",
"pw	c #E5CAAD",
"qw	c #FDDDB7",
"rw	c #FDDDB6",
"sw	c #B8A188",
"tw	c #7B4B30",
"uw	c #857565",
"vw	c #C3AA8F",
"ww	c #BFA488",
"xw	c #6C5746",
"yw	c #4D3020",
"zw	c #7E6B59",
"Aw	c #BA9B80",
"Bw	c #AD7D5E",
"Cw	c #AB6E4B",
"Dw	c #87583E",
"Ew	c #653E27",
"Fw	c #804F30",
"Gw	c #4A2E1D",
"Hw	c #533728",
"Iw	c #744B32",
"Jw	c #764B30",
"Kw	c #7A4D31",
"Lw	c #513221",
"Mw	c #8B5A3B",
"Nw	c #41281A",
"Ow	c #6A4229",
"Pw	c #72462C",
"Qw	c #6F4328",
"Rw	c #5F3922",
"Sw	c #633924",
"Tw	c #633D25",
"Uw	c #322117",
"Vw	c #26150E",
"Ww	c #A06941",
"Xw	c #824421",
"Yw	c #713C1F",
"Zw	c #542C18",
"`w	c #7A4222",
" x	c #4A2A17",
".x	c #3A1F11",
"+x	c #66351A",
"@x	c #61341C",
"#x	c #653F26",
"$x	c #9E5F31",
"%x	c #4D2B19",
"&x	c #58311B",
"*x	c #3B1F10",
"=x	c #39261A",
"-x	c #40291A",
";x	c #3F2616",
">x	c #422717",
",x	c #321E13",
"'x	c #75462B",
")x	c #87593E",
"!x	c #D38E61",
"~x	c #E2AA7F",
"{x	c #F0C69C",
"]x	c #826A59",
"^x	c #BD9D80",
"/x	c #F7CEA3",
"(x	c #F7D2AA",
"_x	c #E3C6A7",
":x	c #FCDBB4",
"<x	c #FBDAB3",
"[x	c #B59C81",
"}x	c #A9947F",
"|x	c #FAD4AA",
"1x	c #826C56",
"2x	c #A18367",
"3x	c #ECB98F",
"4x	c #DA8F5E",
"5x	c #E08F5B",
"6x	c #4B3020",
"7x	c #432819",
"8x	c #3F2517",
"9x	c #1D0E09",
"0x	c #9B653E",
"ax	c #733D1F",
"bx	c #723C20",
"cx	c #492A17",
"dx	c #3B2012",
"ex	c #7E4120",
"fx	c #6E371B",
"gx	c #562F1A",
"hx	c #60331A",
"ix	c #664026",
"jx	c #9E5E31",
"kx	c #5E331D",
"lx	c #5D341D",
"mx	c #4E2B19",
"nx	c #874621",
"ox	c #84441F",
"px	c #97572D",
"qx	c #3D2010",
"rx	c #241914",
"sx	c #2B1C16",
"tx	c #35231A",
"ux	c #100D0C",
"vx	c #160F0C",
"wx	c #603A26",
"xx	c #BD805A",
"yx	c #D59467",
"zx	c #E9B78C",
"Ax	c #7D6656",
"Bx	c #492E1F",
"Cx	c #B9997C",
"Dx	c #F6CCA2",
"Ex	c #F6D0A9",
"Fx	c #683E29",
"Gx	c #E0C09F",
"Hx	c #FAD6AE",
"Ix	c #F9D5AD",
"Jx	c #B1967A",
"Kx	c #A8927B",
"Lx	c #F8D1A7",
"Mx	c #7C6853",
"Nx	c #9F7B5F",
"Ox	c #DD9769",
"Px	c #E0925D",
"Qx	c #B4774E",
"Rx	c #6D4329",
"Sx	c #0E0B0A",
"Tx	c #2D1C14",
"Ux	c #33211A",
"Vx	c #3E281C",
"Wx	c #0F0C0A",
"Xx	c #2C1C16",
"Yx	c #2F1E18",
"Zx	c #1E130F",
"`x	c #210F0A",
" y	c #975D38",
".y	c #834421",
"+y	c #753D1E",
"@y	c #472917",
"#y	c #3E2213",
"$y	c #854522",
"%y	c #7B3D1D",
"&y	c #572E18",
"*y	c #5F3219",
"=y	c #663F26",
"-y	c #9D5E30",
";y	c #603A24",
">y	c #5E321D",
",y	c #63361F",
"'y	c #68381E",
")y	c #874722",
"!y	c #81421E",
"~y	c #95542C",
"{y	c #3D1F10",
"]y	c #261A14",
"^y	c #3C251B",
"/y	c #472D1F",
"(y	c #50311F",
"_y	c #835236",
":y	c #5D3A28",
"<y	c #2A1B15",
"[y	c #503220",
"}y	c #533422",
"|y	c #351F15",
"1y	c #663D29",
"2y	c #3F2719",
"3y	c #613F2C",
"4y	c #CF8E62",
"5y	c #D79568",
"6y	c #785D4C",
"7y	c #8C7460",
"8y	c #BD9D81",
"9y	c #C0A084",
"0y	c #40281D",
"ay	c #4C2D1E",
"by	c #AB9077",
"cy	c #C4A587",
"dy	c #C3A587",
"ey	c #C4A586",
"fy	c #C4A485",
"gy	c #8C745F",
"hy	c #806C5A",
"iy	c #BEA185",
"jy	c #B79B7F",
"ky	c #5E4D3F",
"ly	c #452C1F",
"my	c #936142",
"ny	c #DC8C59",
"oy	c #D68C5A",
"py	c #673C26",
"qy	c #4B2F20",
"ry	c #5E3A26",
"sy	c #0D0B0A",
"ty	c #885737",
"uy	c #322218",
"vy	c #21100A",
"wy	c #8B4E2C",
"xy	c #824320",
"yy	c #6E3B1E",
"zy	c #703A1D",
"Ay	c #7D4020",
"By	c #7F411E",
"Cy	c #5A2F19",
"Dy	c #5D3118",
"Ey	c #9C5C2F",
"Fy	c #5F331D",
"Gy	c #6B381E",
"Hy	c #814320",
"Iy	c #904F29",
"Jy	c #3D1E10",
"Ky	c #231913",
"Ly	c #4F3020",
"My	c #0B0909",
"Ny	c #70442A",
"Oy	c #623C23",
"Py	c #865638",
"Qy	c #613E2A",
"Ry	c #603B24",
"Sy	c #502F1F",
"Ty	c #795038",
"Uy	c #D08E62",
"Vy	c #6E4F3E",
"Wy	c #503021",
"Xy	c #4F3022",
"Yy	c #462A1D",
"Zy	c #5E3B29",
"`y	c #6C432E",
" z	c #6A422D",
".z	c #6C422C",
"+z	c #70442D",
"@z	c #6F442C",
"#z	c #673F29",
"$z	c #613B27",
"%z	c #462A1E",
"&z	c #462B1F",
"*z	c #996341",
"=z	c #DD8F5C",
"-z	c #71462D",
";z	c #7A4B30",
">z	c #20120C",
",z	c #4B2E1F",
"'z	c #6E4228",
")z	c #39231A",
"!z	c #22100A",
"~z	c #884A27",
"{z	c #834520",
"]z	c #6C3A1E",
"^z	c #7E4221",
"/z	c #6E3A1D",
"(z	c #482819",
"_z	c #763C1E",
":z	c #80411E",
"<z	c #5D321C",
"[z	c #4B2A19",
"}z	c #653E25",
"|z	c #9C5C2E",
"1z	c #633B23",
"2z	c #60331D",
"3z	c #64371F",
"4z	c #512B18",
"5z	c #6A371C",
"6z	c #7D411E",
"7z	c #8A4A24",
"8z	c #3C1F11",
"9z	c #3E251A",
"0z	c #482B1E",
"az	c #5B3724",
"bz	c #5F3B27",
"cz	c #0C0909",
"dz	c #623A24",
"ez	c #72452A",
"fz	c #593721",
"gz	c #563520",
"hz	c #603C22",
"iz	c #623C24",
"jz	c #603C28",
"kz	c #875839",
"lz	c #5C3924",
"mz	c #492D1E",
"nz	c #563322",
"oz	c #7C523A",
"pz	c #8F654C",
"qz	c #754F39",
"rz	c #74503B",
"sz	c #7F634F",
"tz	c #806653",
"uz	c #472C1E",
"vz	c #715C4D",
"wz	c #816754",
"xz	c #806552",
"yz	c #563D30",
"zz	c #5D4739",
"Az	c #806754",
"Bz	c #806854",
"Cz	c #624D3E",
"Dz	c #57453A",
"Ez	c #7F6A5A",
"Fz	c #734E3B",
"Gz	c #724D3A",
"Hz	c #AD7350",
"Iz	c #86563B",
"Jz	c #774A2F",
"Kz	c #5A3522",
"Lz	c #4A2C1E",
"Mz	c #865536",
"Nz	c #0B0A0A",
"Oz	c #38231A",
"Pz	c #21150F",
"Qz	c #150D0B",
"Rz	c #1A0D09",
"Sz	c #885236",
"Tz	c #69371B",
"Uz	c #804421",
"Vz	c #6E3A1E",
"Wz	c #733B1D",
"Xz	c #80421F",
"Yz	c #5A301A",
"Zz	c #643E25",
"`z	c #643620",
" A	c #4D2816",
".A	c #6E381C",
"+A	c #82441F",
"@A	c #7C411F",
"#A	c #8C4C25",
"$A	c #391E11",
"%A	c #271A15",
"&A	c #45291A",
"*A	c #73452A",
"=A	c #5D3A23",
"-A	c #603C23",
";A	c #613C24",
">A	c #51311F",
",A	c #613D28",
"'A	c #855538",
")A	c #5E3D29",
"!A	c #5D3923",
"~A	c #4B2D1D",
"{A	c #764E38",
"]A	c #CC885B",
"^A	c #D78C5B",
"/A	c #DE9E6F",
"(A	c #EBB98D",
"_A	c #D7B291",
":A	c #F2C499",
"<A	c #876A55",
"[A	c #A28266",
"}A	c #F1C499",
"|A	c #F1C79C",
"1A	c #B49577",
"2A	c #452C1E",
"3A	c #EAB082",
"4A	c #E0925C",
"5A	c #E18E58",
"6A	c #D98C5A",
"7A	c #764A2F",
"8A	c #442C1E",
"9A	c #342017",
"0A	c #352018",
"aA	c #3B241A",
"bA	c #7F4C34",
"cA	c #69361B",
"dA	c #834523",
"eA	c #6B381C",
"fA	c #492917",
"gA	c #5F311A",
"hA	c #804320",
"iA	c #562D18",
"jA	c #60331E",
"kA	c #663822",
"lA	c #482513",
"mA	c #703A1C",
"nA	c #824420",
"oA	c #773F1D",
"pA	c #8E4E26",
"qA	c #32190D",
"rA	c #251A14",
"sA	c #67402A",
"tA	c #0D090A",
"uA	c #6B4228",
"vA	c #673F25",
"wA	c #5D3A22",
"xA	c #835537",
"yA	c #513220",
"zA	c #603B23",
"AA	c #503121",
"BA	c #B57750",
"CA	c #DA8E5D",
"DA	c #D78D5B",
"EA	c #D3A984",
"FA	c #F0BE92",
"GA	c #EEC096",
"HA	c #826550",
"IA	c #A18267",
"JA	c #EEBE93",
"KA	c #EEBA8C",
"LA	c #AF8A6B",
"MA	c #885D41",
"NA	c #E3925B",
"OA	c #E5945D",
"PA	c #BC764B",
"QA	c #673F28",
"RA	c #432C1E",
"SA	c #865636",
"TA	c #593722",
"UA	c #221510",
"VA	c #1F0F0A",
"WA	c #7D4322",
"XA	c #67351A",
"YA	c #68361C",
"ZA	c #4B2A18",
"`A	c #59301A",
" B	c #582F19",
".B	c #4B2B1A",
"+B	c #633D24",
"@B	c #9E5D2D",
"#B	c #693820",
"$B	c #643721",
"%B	c #542D19",
"&B	c #6F3A1C",
"*B	c #814420",
"=B	c #733D1E",
"-B	c #8F5028",
";B	c #2D170A",
">B	c #442A1A",
",B	c #573725",
"'B	c #794D32",
")B	c #633E2A",
"!B	c #422919",
"~B	c #362216",
"{B	c #754B33",
"]B	c #BB7E55",
"^B	c #492D1F",
"/B	c #C78B61",
"(B	c #E6A372",
"_B	c #E6A675",
":B	c #795740",
"<B	c #9A6E4F",
"[B	c #E39B67",
"}B	c #E0915A",
"|B	c #A76D48",
"1B	c #8E6044",
"2B	c #C78052",
"3B	c #8A5739",
"4B	c #7A4A2D",
"5B	c #663E27",
"6B	c #0D0808",
"7B	c #673E27",
"8B	c #482B1C",
"9B	c #814523",
"0B	c #854722",
"aB	c #67361C",
"bB	c #763D20",
"cB	c #592F1A",
"dB	c #59301B",
"eB	c #4D2A18",
"fB	c #5E321C",
"gB	c #9F5D2E",
"hB	c #63381F",
"iB	c #6A3820",
"jB	c #61321C",
"kB	c #78401F",
"lB	c #925329",
"mB	c #2B160B",
"nB	c #3D281D",
"oB	c #64422E",
"pB	c #7C5238",
"qB	c #7A5137",
"rB	c #785036",
"sB	c #764E35",
"tB	c #754E36",
"uB	c #795037",
"vB	c #7B5036",
"wB	c #754C32",
"xB	c #6F482F",
"yB	c #6E462E",
"zB	c #6B432B",
"AB	c #68422B",
"BB	c #66422D",
"CB	c #462D1D",
"DB	c #563929",
"EB	c #6D4631",
"FB	c #714830",
"GB	c #734A31",
"HB	c #744A30",
"IB	c #71492F",
"JB	c #724B31",
"KB	c #5A3A26",
"LB	c #492F1F",
"MB	c #B27751",
"NB	c #DE8F5B",
"OB	c #DD8E57",
"PB	c #754C31",
"QB	c #925D3D",
"RB	c #DE8E57",
"SB	c #E0915C",
"TB	c #A36B48",
"UB	c #392217",
"VB	c #7F4E30",
"WB	c #2E2017",
"XB	c #6C4730",
"YB	c #6D4831",
"ZB	c #6F4831",
"`B	c #714931",
" C	c #724932",
".C	c #4F3425",
"+C	c #5C3925",
"@C	c #5D3D29",
"#C	c #6A442E",
"$C	c #704831",
"%C	c #754A31",
"&C	c #794D33",
"*C	c #7A4E33",
"=C	c #7B4F33",
"-C	c #7E5033",
";C	c #7F5033",
">C	c #805134",
",C	c #7E5134",
"'C	c #1B0E09",
")C	c #824624",
"!C	c #67371E",
"~C	c #5F321A",
"{C	c #6B3921",
"]C	c #62331C",
"^C	c #67371F",
"/C	c #6B391F",
"(C	c #6A371B",
"_C	c #94552C",
":C	c #2B150A",
"<C	c #3C281D",
"[C	c #553827",
"}C	c #5F3C28",
"|C	c #5A3926",
"1C	c #452C1D",
"2C	c #5D3A27",
"3C	c #624029",
"4C	c #623F29",
"5C	c #66412A",
"6C	c #66412B",
"7C	c #805338",
"8C	c #593B28",
"9C	c #784D34",
"0C	c #5E3926",
"aC	c #693F29",
"bC	c #7F5135",
"cC	c #684129",
"dC	c #3C271C",
"eC	c #503423",
"fC	c #563725",
"gC	c #553725",
"hC	c #472D1D",
"iC	c #503221",
"jC	c #553623",
"kC	c #563724",
"lC	c #190C08",
"mC	c #844724",
"nC	c #68381F",
"oC	c #57301A",
"pC	c #713B1D",
"qC	c #7F4423",
"rC	c #4C2817",
"sC	c #592E18",
"tC	c #633921",
"uC	c #4E2816",
"vC	c #66361E",
"wC	c #91542D",
"xC	c #241713",
"yC	c #573625",
"zC	c #462C1F",
"AC	c #19100D",
"BC	c #6A442F",
"CC	c #70452C",
"DC	c #6C422A",
"EC	c #603B27",
"FC	c #3C271B",
"GC	c #231812",
"HC	c #221711",
"IC	c #593723",
"JC	c #100C0A",
"KC	c #844726",
"LC	c #884822",
"MC	c #412314",
"NC	c #4F2B19",
"OC	c #522C19",
"PC	c #542B17",
"QC	c #5E3820",
"RC	c #A05D2E",
"SC	c #482515",
"TC	c #693920",
"UC	c #6B3920",
"VC	c #6C3A21",
"WC	c #6C391E",
"XC	c #90542E",
"YC	c #2A160A",
"ZC	c #0E0A09",
"`C	c #432B1C",
" D	c #563726",
".D	c #3B251B",
"+D	c #3E271A",
"@D	c #2F1F16",
"#D	c #492E20",
"$D	c #4C2F21",
"%D	c #342117",
"&D	c #130F0E",
"*D	c #694027",
"=D	c #844828",
"-D	c #693A1F",
";D	c #4F2B1B",
">D	c #4D2A19",
",D	c #4D2918",
"'D	c #4D2919",
")D	c #522B18",
"!D	c #A15D2D",
"~D	c #472718",
"{D	c #6A3921",
"]D	c #6D3A21",
"^D	c #8E542E",
"/D	c #29150B",
"(D	c #67412A",
"_D	c #0D0908",
":D	c #653F2B",
"<D	c #593827",
"[D	c #4D301F",
"}D	c #7B4C2E",
"|D	c #50311E",
"1D	c #120E0D",
"2D	c #4F2F20",
"3D	c #0A0909",
"4D	c #79492C",
"5D	c #1F1410",
"6D	c #814627",
"7D	c #683820",
"8D	c #3D2114",
"9D	c #4F2B1A",
"0D	c #502B1A",
"aD	c #502B19",
"bD	c #141011",
"cD	c #643C23",
"dD	c #A25D2E",
"eD	c #402315",
"fD	c #633520",
"gD	c #8E532F",
"hD	c #2A160C",
"iD	c #573726",
"jD	c #40291B",
"kD	c #804F2E",
"lD	c #3B2518",
"mD	c #291C16",
"nD	c #120D0D",
"oD	c #4E2F20",
"pD	c #0A0808",
"qD	c #1F130F",
"rD	c #67381F",
"sD	c #3C2115",
"tD	c #4B2917",
"uD	c #42291E",
"vD	c #151012",
"wD	c #A25E2E",
"xD	c #5C351F",
"yD	c #3D2012",
"zD	c #683922",
"AD	c #6A3A21",
"BD	c #915630",
"CD	c #0C080A",
"DD	c #482A1C",
"ED	c #5F3A23",
"FD	c #7F4F2F",
"GD	c #4C2E1D",
"HD	c #312119",
"ID	c #120C0A",
"JD	c #593620",
"KD	c #130E0E",
"LD	c #41281D",
"MD	c #74462A",
"ND	c #3F281A",
"OD	c #7C4222",
"PD	c #4C2B13",
"QD	c #604A16",
"RD	c #1A1312",
"SD	c #653C23",
"TD	c #A35F30",
"UD	c #552E19",
"VD	c #693A20",
"WD	c #6B3A21",
"XD	c #915731",
"YD	c #2A160B",
"ZD	c #2A1B12",
"`D	c #372215",
" E	c #613D2A",
".E	c #583B2B",
"+E	c #37261E",
"@E	c #3D2617",
"#E	c #1F140D",
"$E	c #4A2F1D",
"%E	c #17110D",
"&E	c #251711",
"*E	c #492E1E",
"=E	c #2A1B11",
"-E	c #1A110C",
";E	c #844420",
">E	c #68391F",
",E	c #4D2A16",
"'E	c #543617",
")E	c #4E2B1A",
"!E	c #4C2919",
"~E	c #392016",
"{E	c #171112",
"]E	c #A35F31",
"^E	c #442617",
"/E	c #663922",
"(E	c #693A21",
"_E	c #6B3B21",
":E	c #6C3C20",
"<E	c #6E3C20",
"[E	c #925933",
"}E	c #29150A",
"|E	c #3A2519",
"1E	c #533725",
"2E	c #5F412D",
"3E	c #5D3E29",
"4E	c #5B3C27",
"5E	c #63412B",
"6E	c #684530",
"7E	c #6B4730",
"8E	c #6B4831",
"9E	c #6E4A32",
"0E	c #704D33",
"aE	c #734F35",
"bE	c #775136",
"cE	c #795136",
"dE	c #785237",
"eE	c #724E34",
"fE	c #65442E",
"gE	c #62422D",
"hE	c #61412C",
"iE	c #63422D",
"jE	c #65432D",
"kE	c #65422D",
"lE	c #63422C",
"mE	c #64422C",
"nE	c #66442C",
"oE	c #66432C",
"pE	c #65412C",
"qE	c #61402A",
"rE	c #5F3E28",
"sE	c #613F29",
"tE	c #613E29",
"uE	c #613E28",
"vE	c #623F28",
"wE	c #67442C",
"xE	c #6C482F",
"yE	c #583A26",
"zE	c #5C3724",
"AE	c #5D3E2C",
"BE	c #3A2920",
"CE	c #6A462D",
"DE	c #714A30",
"EE	c #784F34",
"FE	c #7E5337",
"GE	c #7D5236",
"HE	c #794F33",
"IE	c #754B31",
"JE	c #633E29",
"KE	c #613F2A",
"LE	c #65432E",
"ME	c #62402C",
"NE	c #5E3D2A",
"OE	c #5D3D2B",
"PE	c #603E2B",
"QE	c #6F4930",
"RE	c #704931",
"SE	c #724A31",
"TE	c #774D33",
"UE	c #774E33",
"VE	c #744D33",
"WE	c #714A31",
"XE	c #6F4830",
"YE	c #6E482F",
"ZE	c #754D32",
"`E	c #774F33",
" F	c #724C32",
".F	c #7C4324",
"+F	c #7F4222",
"@F	c #442414",
"#F	c #1B1312",
"$F	c #A46032",
"%F	c #452818",
"&F	c #6A3B21",
"*F	c #6D3C20",
"=F	c #935B35",
"-F	c #29170B",
";F	c #442A1F",
">F	c #593924",
",F	c #69452F",
"'F	c #69452E",
")F	c #6B462F",
"!F	c #6D472F",
"~F	c #6F472E",
"{F	c #70482E",
"]F	c #734A2F",
"^F	c #754D31",
"/F	c #784F33",
"(F	c #7B5134",
"_F	c #7E5336",
":F	c #7D5235",
"<F	c #6E462D",
"[F	c #6F462E",
"}F	c #70472D",
"|F	c #70472E",
"1F	c #71482D",
"2F	c #6F462C",
"3F	c #6A4128",
"4F	c #673E25",
"5F	c #633A22",
"6F	c #5E361E",
"7F	c #663B22",
"8F	c #68412A",
"9F	c #60402E",
"0F	c #6D482F",
"aF	c #70452B",
"bF	c #72462A",
"cF	c #754A2D",
"dF	c #754A2E",
"eF	c #794D31",
"fF	c #7D5133",
"gF	c #805234",
"hF	c #71482E",
"iF	c #6B452E",
"jF	c #6E4831",
"kF	c #6D4630",
"lF	c #6C452F",
"mF	c #6C472F",
"nF	c #6C462E",
"oF	c #6A452D",
"pF	c #6D462D",
"qF	c #70472C",
"rF	c #71492E",
"sF	c #6F472D",
"tF	c #71482F",
"uF	c #7A5135",
"vF	c #764E33",
"wF	c #7B4426",
"xF	c #7D4223",
"yF	c #381E11",
"zF	c #4C2B18",
"AF	c #381F12",
"BF	c #3D2113",
"CF	c #191212",
"DF	c #A35F32",
"EF	c #643820",
"FF	c #6B3C20",
"GF	c #6D3C21",
"HF	c #8D5530",
"IF	c #2A170C",
"JF	c #462D20",
"KF	c #4F3121",
"LF	c #442919",
"MF	c #845638",
"NF	c #61402D",
"OF	c #3A281F",
"PF	c #2D2119",
"QF	c #573A27",
"RF	c #5E3822",
"SF	c #492F20",
"TF	c #482E1E",
"UF	c #513324",
"VF	c #533525",
"WF	c #523525",
"XF	c #513424",
"YF	c #442C1F",
"ZF	c #7B4527",
"`F	c #361D10",
" G	c #4C2A18",
".G	c #492716",
"+G	c #331C11",
"@G	c #0F0E0F",
"#G	c #9E5B2F",
"$G	c #65381F",
"%G	c #532E18",
"&G	c #8A532E",
"*G	c #29160C",
"=G	c #39261C",
"-G	c #462F22",
";G	c #4B3225",
">G	c #4C3225",
",G	c #4D3225",
"'G	c #523626",
")G	c #573927",
"!G	c #573825",
"~G	c #553423",
"{G	c #553523",
"]G	c #5E3A27",
"^G	c #5F3B28",
"/G	c #5B3925",
"(G	c #4C301F",
"_G	c #865738",
":G	c #3B291F",
"<G	c #2E211A",
"[G	c #603C27",
"}G	c #553724",
"|G	c #503524",
"1G	c #503424",
"2G	c #4F3424",
"3G	c #4E3323",
"4G	c #513426",
"5G	c #533626",
"6G	c #503525",
"7G	c #533627",
"8G	c #553828",
"9G	c #543826",
"0G	c #553826",
"aG	c #4E3324",
"bG	c #493023",
"cG	c #4C3224",
"dG	c #2A1D15",
"eG	c #7B4528",
"fG	c #7F4223",
"gG	c #3B1F11",
"hG	c #4C2917",
"iG	c #482716",
"jG	c #2F1A0F",
"kG	c #100E0F",
"lG	c #181212",
"mG	c #9D5A2E",
"nG	c #592F19",
"oG	c #462413",
"pG	c #6C3C21",
"qG	c #89532F",
"rG	c #2B170C",
"sG	c #3C271A",
"tG	c #392519",
"uG	c #1E120E",
"vG	c #835536",
"wG	c #543526",
"xG	c #4C3022",
"yG	c #613E2C",
"zG	c #3B2920",
"AG	c #2C2019",
"BG	c #493426",
"CG	c #4E3223",
"DG	c #523222",
"EG	c #4B3121",
"FG	c #4B3122",
"GG	c #4A3021",
"HG	c #7C462A",
"IG	c #61351F",
"JG	c #4D2917",
"KG	c #4A2817",
"LG	c #2E170B",
"MG	c #321B10",
"NG	c #161112",
"OG	c #5A3823",
"PG	c #9D5C2F",
"QG	c #502D1B",
"RG	c #482615",
"SG	c #6F3E21",
"TG	c #8B5633",
"UG	c #2E190F",
"VG	c #19110F",
"WG	c #18100E",
"XG	c #160F0D",
"YG	c #1A1110",
"ZG	c #1B1210",
"`G	c #1A120F",
" H	c #19100E",
".H	c #190F0E",
"+H	c #18100D",
"@H	c #1A110E",
"#H	c #835335",
"$H	c #563626",
"%H	c #623E2B",
"&H	c #3C281F",
"*H	c #1E1511",
"=H	c #1F1512",
"-H	c #1F1511",
";H	c #1E1411",
">H	c #1C1210",
",H	c #7C472B",
"'H	c #894925",
")H	c #32190E",
"!H	c #4B2817",
"~H	c #3C1E11",
"{H	c #331C0F",
"]H	c #50311D",
"^H	c #442417",
"/H	c #6C391D",
"(H	c #6D391C",
"_H	c #885532",
":H	c #321D12",
"<H	c #201713",
"[H	c #221915",
"}H	c #231815",
"|H	c #231816",
"1H	c #221716",
"2H	c #221815",
"3H	c #271B17",
"4H	c #291C18",
"5H	c #2A1D18",
"6H	c #2C1E18",
"7H	c #2C1E17",
"8H	c #2B1E17",
"9H	c #2A1D17",
"0H	c #2D1F18",
"aH	c #2E1F19",
"bH	c #2F1F19",
"cH	c #2E1E18",
"dH	c #231814",
"eH	c #1A120D",
"fH	c #1B110E",
"gH	c #815234",
"hH	c #5A3726",
"iH	c #603B28",
"jH	c #3B281F",
"kH	c #2B1E19",
"lH	c #281C17",
"mH	c #281B17",
"nH	c #271C16",
"oH	c #2B1D18",
"pH	c #2C1E19",
"qH	c #2C1D18",
"rH	c #291D17",
"sH	c #291D18",
"tH	c #281D17",
"uH	c #281C16",
"vH	c #281C15",
"wH	c #251915",
"xH	c #7C482B",
"yH	c #8A4B27",
"zH	c #351D12",
"AH	c #371D11",
"BH	c #482717",
"CH	c #7F4A2A",
"DH	c #7F4E2C",
"EH	c #2F1B11",
"FH	c #A26135",
"GH	c #442518",
"HH	c #522C1A",
"IH	c #743E1D",
"JH	c #763F1D",
"KH	c #85512F",
"LH	c #41291E",
"MH	c #352119",
"NH	c #5B3927",
"OH	c #5B3926",
"PH	c #36241C",
"QH	c #1B120F",
"RH	c #241814",
"SH	c #3E281E",
"TH	c #422A1E",
"UH	c #492E21",
"VH	c #4A2E21",
"WH	c #452B1F",
"XH	c #39241B",
"YH	c #3D261C",
"ZH	c #7A4629",
"`H	c #894B27",
" I	c #2D180C",
".I	c #432414",
"+I	c #4F2916",
"@I	c #844E2C",
"#I	c #915932",
"$I	c #4C3120",
"%I	c #A36337",
"&I	c #452519",
"*I	c #452618",
"=I	c #8A5835",
"-I	c #623820",
";I	c #79401D",
">I	c #7D4827",
",I	c #432C20",
"'I	c #583826",
")I	c #472B1F",
"!I	c #1B110F",
"~I	c #513323",
"{I	c #4A3020",
"]I	c #5C3926",
"^I	c #4D3022",
"/I	c #4E3123",
"(I	c #503223",
"_I	c #37221A",
":I	c #784427",
"<I	c #894C28",
"[I	c #5D3520",
"}I	c #2B170D",
"|I	c #3C2012",
"1I	c #412113",
"2I	c #814D2A",
"3I	c #74492D",
"4I	c #161012",
"5I	c #A26439",
"6I	c #47261A",
"7I	c #754B2D",
"8I	c #482918",
"9I	c #7A421E",
"0I	c #361F12",
"aI	c #2E1F17",
"bI	c #3D251A",
"cI	c #3D251B",
"dI	c #442B1F",
"eI	c #523323",
"fI	c #75482E",
"gI	c #482E22",
"hI	c #764327",
"iI	c #8A4C28",
"jI	c #2B180E",
"kI	c #402314",
"lI	c #3C1F12",
"mI	c #5A2E18",
"nI	c #613C26",
"oI	c #3B2415",
"pI	c #9D6239",
"qI	c #3F2416",
"rI	c #4B2B1B",
"sI	c #47271A",
"tI	c #754B2F",
"uI	c #7A411E",
"vI	c #472C20",
"wI	c #472B20",
"xI	c #3D281B",
"yI	c #492E22",
"zI	c #472C21",
"AI	c #482D21",
"BI	c #4D3024",
"CI	c #4F3225",
"DI	c #503325",
"EI	c #4E3222",
"FI	c #533424",
"GI	c #744930",
"HI	c #5A3B28",
"II	c #543623",
"JI	c #36221B",
"KI	c #754225",
"LI	c #8A4C29",
"MI	c #2A180E",
"NI	c #532E1B",
"OI	c #442516",
"PI	c #452414",
"QI	c #391E12",
"RI	c #5A2F1A",
"SI	c #130F11",
"TI	c #372113",
"UI	c #9B6139",
"VI	c #3F2415",
"WI	c #4B2B1C",
"XI	c #7A4B2C",
"YI	c #7B411F",
"ZI	c #361E12",
"`I	c #452C20",
" J	c #472D21",
".J	c #482D22",
"+J	c #4A2F23",
"@J	c #4B2F22",
"#J	c #482C20",
"$J	c #4D3222",
"%J	c #744A31",
"&J	c #573928",
"*J	c #38241E",
"=J	c #513325",
"-J	c #4F3224",
";J	c #462B20",
">J	c #3E281B",
",J	c #734023",
"'J	c #8B4E2A",
")J	c #2A170D",
"!J	c #462616",
"~J	c #351B10",
"{J	c #592E1A",
"]J	c #99623B",
"^J	c #8A522B",
"/J	c #341D12",
"(J	c #110D09",
"_J	c #4C2F23",
":J	c #221612",
"<J	c #503425",
"[J	c #4E3122",
"}J	c #593A29",
"|J	c #37241D",
"1J	c #4D3023",
"2J	c #4C3023",
"3J	c #744023",
"4J	c #8C4D29",
"5J	c #2C180D",
"6J	c #432415",
"7J	c #452514",
"8J	c #4F2B18",
"9J	c #572D19",
"0J	c #915F3C",
"aJ	c #412317",
"bJ	c #65381E",
"cJ	c #341C12",
"dJ	c #4A2E22",
"eJ	c #4A2F22",
"fJ	c #492D22",
"gJ	c #513224",
"hJ	c #523325",
"iJ	c #533524",
"jJ	c #3E271D",
"kJ	c #643E29",
"lJ	c #4A3122",
"mJ	c #523425",
"nJ	c #5B3C2A",
"oJ	c #36231C",
"pJ	c #4D3025",
"qJ	c #4F3124",
"rJ	c #4E3125",
"sJ	c #4E3124",
"tJ	c #4D3124",
"uJ	c #4D3125",
"vJ	c #4B2F23",
"wJ	c #251814",
"xJ	c #8A4B26",
"yJ	c #683C21",
"zJ	c #2F190E",
"AJ	c #4A4819",
"BJ	c #56411A",
"CJ	c #4A2816",
"DJ	c #311A10",
"EJ	c #582D18",
"FJ	c #543120",
"GJ	c #48281B",
"HJ	c #482C21",
"IJ	c #40291F",
"JJ	c #4C2F22",
"KJ	c #40271D",
"LJ	c #5B3B2A",
"MJ	c #4B2E21",
"NJ	c #3F271D",
"OJ	c #6D4226",
"PJ	c #2E190E",
"QJ	c #382012",
"RJ	c #4F2C19",
"SJ	c #502C1A",
"TJ	c #2A170E",
"UJ	c #5B301A",
"VJ	c #5A3523",
"WJ	c #432618",
"XJ	c #2B1D17",
"YJ	c #3A241B",
"ZJ	c #40281E",
"`J	c #724A32",
" K	c #4B3022",
".K	c #553727",
"+K	c #1F1411",
"@K	c #35231B",
"#K	c #36221A",
"$K	c #764425",
"%K	c #31190C",
"&K	c #5B2F1B",
"*K	c #422517",
"=K	c #371E12",
"-K	c #49281A",
";K	c #49291B",
">K	c #351D10",
",K	c #422A20",
"'K	c #432A1F",
")K	c #442D20",
"!K	c #734C34",
"~K	c #4C3124",
"{K	c #39251D",
"]K	c #422A1F",
"^K	c #422C1F",
"/K	c #261814",
"(K	c #140D0B",
"_K	c #764426",
":K	c #864B28",
"<K	c #301B10",
"[K	c #4E2B1B",
"}K	c #30180B",
"|K	c #542C17",
"1K	c #6C4129",
"2K	c #361B10",
"3K	c #422417",
"4K	c #452718",
"5K	c #4B3023",
"6K	c #4C3123",
"7K	c #513526",
"8K	c #4F3325",
"9K	c #4D3223",
"0K	c #573926",
"aK	c #744D36",
"bK	c #4A3024",
"cK	c #472E22",
"dK	c #492E23",
"eK	c #492F22",
"fK	c #4B3123",
"gK	c #4D3224",
"hK	c #824625",
"iK	c #65391F",
"jK	c #301A0F",
"kK	c #311B10",
"lK	c #4E2C1B",
"mK	c #33180C",
"nK	c #2C180F",
"oK	c #6F3D22",
"pK	c #381C10",
"qK	c #442616",
"rK	c #0D0A08",
"sK	c #503426",
"tK	c #4A3022",
"uK	c #472E20",
"vK	c #1A130E",
"wK	c #724C35",
"xK	c #472E21",
"yK	c #452E20",
"zK	c #4E3126",
"AK	c #4F3226",
"BK	c #774226",
"CK	c #311B0F",
"DK	c #341D10",
"EK	c #402414",
"FK	c #4C2C1A",
"GK	c #34190E",
"HK	c #2E1910",
"IK	c #3D2013",
"JK	c #703F24",
"KK	c #492B1C",
"LK	c #452717",
"MK	c #0C0908",
"NK	c #2C1D17",
"OK	c #412B1F",
"PK	c #402B1F",
"QK	c #3F291F",
"RK	c #40281F",
"SK	c #3F281F",
"TK	c #3D291E",
"UK	c #5E3C2A",
"VK	c #18120D",
"WK	c #41291F",
"XK	c #442B20",
"YK	c #6F3E23",
"ZK	c #321A0E",
"`K	c #4F2D1A",
" L	c #351B0F",
".L	c #3C2014",
"+L	c #371D12",
"@L	c #3A1F14",
"#L	c #201714",
"$L	c #271A17",
"%L	c #271B16",
"&L	c #261B16",
"*L	c #251916",
"=L	c #251815",
"-L	c #251816",
";L	c #241916",
">L	c #251A16",
",L	c #291C17",
"'L	c #291D16",
")L	c #261915",
"!L	c #241712",
"~L	c #734327",
"{L	c #64361D",
"]L	c #381D12",
"^L	c #3B1F12",
"/L	c #472717",
"(L	c #321B11",
"_L	c #693921",
":L	c #3D2014",
"<L	c #3B1F14",
"[L	c #3B2014",
"}L	c #301B0F",
"|L	c #130C0A",
"1L	c #110D0B",
"2L	c #110D0A",
"3L	c #1C110F",
"4L	c #1D1210",
"5L	c #180F0D",
"6L	c #190F0D",
"7L	c #7F4726",
"8L	c #331A0E",
"9L	c #361C10",
"0L	c #502D1C",
"aL	c #351C12",
"bL	c #391F13",
"cL	c #321C10",
"dL	c #3E2216",
"eL	c #432417",
"fL	c #130B09",
"gL	c #4B3223",
"hL	c #523524",
"iL	c #533423",
"jL	c #4E3322",
"kL	c #412C1F",
"lL	c #442D21",
"mL	c #472E1D",
"nL	c #76492F",
"oL	c #723F21",
"pL	c #834822",
"qL	c #351C11",
"rL	c #603621",
"sL	c #321B12",
"tL	c #3F2116",
"uL	c #623F2A",
"vL	c #613E27",
"wL	c #5F3C26",
"xL	c #603D27",
"yL	c #623E27",
"zL	c #633F28",
"AL	c #644029",
"BL	c #69422B",
"CL	c #6A432B",
"DL	c #6D452D",
"EL	c #65402A",
"FL	c #63402A",
"GL	c #66422C",
"HL	c #66412C",
"IL	c #65412B",
"JL	c #64402A",
"KL	c #65402B",
"LL	c #66422B",
"ML	c #553622",
"NL	c #68432D",
"OL	c #6D432B",
"PL	c #391B0F",
"QL	c #502B17",
"RL	c #2E180F",
"SL	c #2E180E",
"TL	c #371F15",
"UL	c #341C11",
"VL	c #100A08",
"WL	c #4C2E20",
"XL	c #45291C",
"YL	c #43281C",
"ZL	c #432A1B",
"`L	c #3B1E12",
" M	c #3A1E12",
".M	c #371C10",
"+M	c #1B100B",
"@M	c #3D2115",
"#M	c #402317",
"$M	c #0E0808",
"%M	c #301910",
"&M	c #3B1F13",
"*M	c #331A0F",
"=M	c #2A170F",
"-M	c #2F1910",
";M	c #140F0E",
">M	c #0F0C0C",
",M	c #0C0C0C",
"'M	c #251612",
")M	c #20130F",
"!M	c #1D120F",
"~M	c #0E0D0C",
"{M	c #32211A",
"]M	c #271A16",
"^M	c #130E0D",
"/M	c #130E0C",
"(M	c #1C110D",
"_M	c #18100F",
":M	c #110F10",
"<M	c #111112",
"[M	c #111013",
"}M	c #111113",
"                                                                                                                                                                                                                                                                ",
"                                                                                                                                                                                                                                                                ",
"                                                                                                                                                                                                                                                                ",
"                                                                                                                                                                                                                                                                ",
"                      . + @                                                                                                                                                                                                       # $ % & *                     ",
"                    = - ; > , '                                                                                                                                                                                                 ) ! ~ { ] ^ /                   ",
"                  ( _ : < [ } |                                                                                                                                                                                               1 2 3 4 5 6 7 8                   ",
"                  9 0 a b c d e f                             g h i                                   g j k                                         l m n                                 o p q                         r s t u v w x y z A B C                 ",
"                E F G H I J K L M N O P Q R S   T U V W     X Y Z `  .                              ..+.@.#.$.                                    %.&.*.=.-.                            ;.>.,.'.).        !.~.{.].^./.(._.:.<.[.}.$.|.1.2.3.4./                 ",
"                5.6.7.8.9.;.0.a.b.c.d.e.f.g.h.i.j.k.l.m.n.o.p.q.r.s.t.u.v.w.x.y.z.z.A.B.z.z.C.D.E.F.G.H.I.J.K.L.M.N.O.P.O.O.Q.R.S.T.U.V.W.X.Y.Z.`. +.+++@+#+$+y.%+%+&+z.%+z.*+*+C.=+-+;+>+,+'+)+!+~+{+]+^+/+(+_+:+<+[+}+|+1+2+3+4+0.5+6+7+8+9+0+                ",
"                a+b+6.c+d+e+f+g+h+i+j+k+l+m+n+o+p+q+r+s+t+w u+v+w+x+o y+z+A+B+C+D+E+F+G+C+C+H+6 I+J+K+L+M+N+O+P+Q+R+S+T+U+V+W+X+Y+Z+`+ @.@+@@@#@$@%@&@*@=@-@;@>@,@'@)@!@~@{@]@^@/@(@_@:@<@[@}@|@1@2@3@4@5@6@7@8@9@0@a@b@c@d@e@f@g@0.h@i@j@k@l@m@                ",
"              n@o@p@q@r@s@t@t@u@v@w@x@y@z@A@B@C@D@E@F@G@H@I@J@K@L@M@e+N@O@P@Q@R@S@S@T@U@V@W@X@Y@Z@`@ #.#+#<@@###$#%#%#T@&#*#=#-#*#;#>#,#'#)#!#~#{#]# +^#/#(#_#:#<#[#}#|#1#2#3#4#5#6#7#8#9#0#L@a#b#c#d#e#f#g#h#i#j#k#l#m#n#o#p#q#r#s#t#M@u#v#w#x#                ",
"              y#z#A#B#C#D#E#F#G#H#I#J#K#L#M#N#O#P#W@Q#R#S#p@T#U#V#W#X#Y#[@z@Z#`# $ $.$+$`#Z@@$#$$$%$&$*$=$-$;$>$,$ $R#'$)$!$~${$]$i#^$/$($_$:$<$[$}$|$0 1$2$3$4$5$+$5$6$7$6$8$9$0$a$b$c$d$e$f$g$h$i$j$k$l$l$m$n$o$p$q$r$s$t$u$v$w$x$E#y$z$A$m#B$C$              ",
"              D$E$F$G$H$).F#I$F#H$2 J$K$L$M$N$O$P$Q$$#T@R$S$T#V@T$U$F#V$W$X$Y$Z$`$V# %.%+%@%#%$%%%&%*%<#{$=%-%;%>%[ [ ,%'%,%)%!%>%~%{%]%^%/%(%_%:%<%[%L@}%|%1%2%3%y+y+4%5%6%7%X$8%9%0%/$a%b%W$a#c%d%e%f%V#g%K$g%h%h%i%[ j%k%l%m%n%o%p%q%r%s%l#t%u%              ",
"              v%w%x%3 y%z%F#F#E#p%F#A%B%y+C%C%C%;%;%D%'%`@+%E%F%G%H%F#F#I%J%K%d#L%L%i%M%L#V#N%V#F$O%F$P%Q%=%R%S%T%U%V%V%V%V#V%l#U%U%U%l#F$W%X%Y%y+D#|$Z%`% &=%t..&+&@&#&$&%&&&$&*&*&=&B%-&;&>&L@,&9#'&)&!&~&C%{&]&A%^&t@t@t@/&x$(&p%F#_&]&:&<&[&}&              ",
"                |&1&2&3&4&5&6&G#7&F#F#-%G#F#F#8&0.9&G#p%0&).a&e%b&v%F#F#F#-%F#F#F#G#G#F#F#F#7&^&c&o d&e&f&g&h&F#]#]#i&i&i&i&j&k&l&j&m&n&c&^&^&^&F#F#o&l$p&q&r&s&7&G#G#G#G#G#G#G#G#G#F#-%I$t&u&v&w&x&y&I$G#-%G#G#G#G#G#-%G#t@t@z&A&B&C&D&3&:&E&F&                ",
"                G&H&I&J&K&L&M&N&O&P&F#h&e+Q&;.R&S&$%T&U&V&W&X&Y&Z&`&G#F#F#F# *.*+*@*#*#*C&$*0.%*G#[%&*I#**W&G#F#t@r&=*d$-*;*>*,*+*G#F#F#F#F#F#F#F#F#=%'*<@)*!*~*{*]*^*/*F#G#G#G#G#P&F#F#%*(*_*:*<*[*4&}*C&9&G#F#F#G#t@/*/*e+|*1*2*3*4*5*6*7*>*8*                ",
"              9*0*a*-*b*c*d*e*f*g*1*0.G&h*i*j*k*l*l*m*n*o*p*Y&q*r*s*G#t*u*v*w*x*y*z*A*B*C*D*E*F*9*G*H*I*&*J*<%u.K*L*M*%# $ $ $N*O*P*9&F#F#F#F#F#F#0.Q*R*Q@S*T*U*V*W*X*Y*Z*/*G#F#G#F#F#`* =.=+=@=#=$=%=&=*===}*-=t#0.A&+*C&O&;=>=,='=)=!=~={=]=^=/=              ",
"              (=_=e$:=<=d*[=}=|=1=2=3=| R&4=h%5=5=5=m*6=7=K*8=9=0=a=9*b=c=d=e=f=g=h=i=j=k=l=m=l=n&n=o=p=q=8=r=s=t=u=v=w=w=w=w=x=y=z=A=B=C=D=4&9=9=8=E=F=G=U*U*U*H=I=J=K=L=M=N=O=Q&#*P=Q=R=S=T=U=V=#=W=X=Y=Z=`= -p=.-+-3&+*@-#-$-#-%-&-*-=---;->-,-              ",
"              '-)-!-~-{-]-[=}=^-/-(-_-:-<-Y#[-}-5=5=|-1-2-V&G#G#G#G#+-3-4-5-5-6-7-7-8-9-0-a-b-c-d-e- -^*^*9&f-j&g-h-Z#i-i-i-i-j-j-k-l-t@t@t@<%/*m-n-o-p-q-U*U*U*U*r-s-J=t-u-X#9&0.6&9&_&X#v-w-x-w-y-X=z-A-B-C-D-[%/*/*/*E-F-G-H-I-J-&-*-K-L-M-N-O-P-            ",
"            R-e$l$S-T-T-U-V-W-X-1=N=s#t.Y-n$Z-w=m*`- ;.;+;1%G#G#G#G##*@;d=#;$;%;7-8-7-&;*;=;-;;;>;,;1 ^&';f+);!;~;{;y=i-i-];y=^;/;];(;t@t@t@<%<%e+e+_;:;<;U*U*U*U*[;};|;1;2;3;D#(&D#E-4;`*5;X=6;7;8;z-9;0;a;b;c;d;/*/*E-';Z*e;f;g;J-&-*-*-h;i;j;k;,-            ",
"            l;R&m;n;o;p;q;r;s;t;u;v;w;x;-*y;l*$#O@z;A;B;5-6&G#G#G#F#d;C;D;E;F;G;H;7-I;J;K;L;M;N;O;,;P;Q;D#R;S;T;U;V;y=i-i-i-^;V;i-w=W;t@<%t@t@R;$.$.X;Y;Z;H=U*r-U*[;`; >.>+>J }$@>R;R;#>$>%>&>X=8;*>=>#=X=->;>>>9*/*}$,>,>8&'>)>!>J-K-*-*-k;O-~>{>]>^>          ",
"            (>_>:><>r;[>}>o;|>1>2> =3>4>5>6>$#7>O@`#8>9>0>/*-%G#F#F#a>b>c>d>e>f>g>h>e#i>j>k>l>m>;;n>o>t@}$)-p>q>r>P%w=i-i-i-w=s>t>`#u>%*D#t@t@t@.*v>w>x>y>r-U*U*U*[;H=z>A>B>C>y$D#@>^&D>E>F>*>G>8;8;X==>H>I>J>K>P;/*d$L>x;d&s#M>N>K-O>*-*-P>k;Q>J-R>0>          ",
"          S>T>U>V>W>X>Y>Z>`>H- ,.,o*8#+,@,#,$,%,&,*,9>=,-,t@-%;,>,/*,,',),!,~,{,],{$L;L;^,/,(,_,:,q c#a*!-<,[,},|,w=w=w=i-w=1,2,3,4,5,6,;,t@<%<%7,8,9,0,a,r-q-r-U*U*b,c,d,e,c#f,t@R;%./*g,h,8;i,W=G>X=X=7;j,k,l,m,Z*d$+%n,!-3&o,p,q,r,*-s,J-k;t,u,v,w,          ",
"          x,y,z,A,B,C,D,E,F,G,H,I,J,K,L,z;S@Q#M,N,^-t;O,u*t@t@P,Q,R,S,T,U,V,W,F$X,Y,^,Z,y;`, '.'+'@'Y#!-!-z$#'$'%'&'*'y=y=='-';'>','Z*Z*;,^&}$@>0.P-'')'!'~'U*U*U*U*{']'^'/'('_'t@D#<%%*:'<'['}'#=&>z-8;|'1'2'3'4'I&D#t.5'6'7'8'9'0'a'b'c'd'K-e')=f'g'          ",
"          h'i'j'V-k'l'm'n'o'p'q'r's't'u'v'w'x'y'5*Y*z'A'B'C'D'Q,E'F'G'H'I'J'K'L'M'N'O'P'Q'R'S'T'D=D'U'V'W'X'Y'O&Z'`' ).)+)@)#)$)%)&)C=5+f,l$2%d$(=*)=)-);)>),)')))!)~){){)V&])^)/)t@;,%*()g&_):)<)X=[)})|)1)2)3)4)7,Q;5)6)7),>o 1*8)9)0)a)b)c)d)e);=f)          ",
"          g)h)i)j)k)l)m)n)o)p)q)r)s)(-t)u)v)w)x)y)z)A)B)C)D)E)F)G)H)I)J)K)L)M)N)O)O)P){=Q)R)S)T)U)V)S$W)X)Y)Z)`) !x*.!+!@!#!$!U;s=*)j&%!&!*!=!-!J ;!_&$.>!,!7)'!)!j#!!D>~!G*{!]!^!n,{)(=/!(!_!$.:!<![!}!|!1!2!3!4!(*D#3;5!6!@%9#7!8!9!0!a!b!c!d!e!w,f!          ",
"          g!v;h!i!j!k!l!m!n!o!p!<,q!`)r!s!t!u!v!w!x!y!z!A!B!C!D!E!F!G!H!I!J!z)K!L!M!N!N!O!P!v;Q!R!S!T!U!V!W!X!Y!Z!U;Z!`!7, ~B'=*.~+~@~9*#~$~%~&~*~=~-~.=;~>~,~h@+-3&[%' v*'~)~!~~~{~]~'$^~/~(~_~:~r=4'<~[~}~|~1~2~+-3~4~5~6~7~8~9~0~a~b~c~d~e~f!f~g~h~          ",
"        i~j~k~l~m~n~o~p~L*q~r~s~t~U'u~v~w~x~y~z~A~B~Z'C~D~^#E~F~ )G~H~I~J~K~L~M~N~I,O~P~Q~R~S~T~u*g%U~V~W~X~w~%@Y~Z~`~ {.{m'+{@{#{;;${%{w+&{*{W)%%@>3!={-{;{>{,{'{){!{~{{{]{@>^{/{({_{:{<{[{}{|{1{2{3{3{4{1{5{6{7{8{9{0{a{b{c{d{e{f{g{h{i{d!d!j{k{l{m{n{        ",
"        o{p{q{r{s{t{u{v{v~w{z%x{y{e>z{A{B{C{D{E{F{G{H{I{ =J{K{L{M{N{P-c-J~O{P{Q{R{R{S{T{U{V{W{X{Y{y~Z{`{ ]c;P,y).]+]@]#]$]%]&]*]=]-]M;;]>],]'])]`*Q& =!]~]{]]]^]/](]_]:]<][]}]|]1]2]3]4]5]6]7]8]9]0]a]b]c]d]e]f]g]h]i]j]k]R*l][@m]n]o]p]q]r]s]t]u]v]w]W'        ",
"      x]y]z]A]G=B]C]D]E]F]G]H][%I]-$I&C>%$J]~)~)K]L]M]9>N]O]K.[%Z*g&P]Q]R]S]T]U]V]W]X]Y]Z]`] ^O-.^u*+^@^P-#^$^%^&^$]*^=^-^;^;^>^,^'^)^x~`*!^!^!^V&4;[,~^{^]^^^/^(^_^:^<^[^}^|^1^r&('n-#>7,2^3^4^4^4^5^6^7^8^9^0^0^a^b^c^d^e^e^P-f^g^h^i^j^k^l^m^n^o^p^q^+*      ",
"      s^t^u^v^w^x^T@H=y^z^A^B^p>f^C^D^E^F^S*S*G^H^I^J^K^L^K.M^(=Q;%@N^O^P^Q^R^S^T^U^V^W^X^Y^Y^Z^#{`^ /(*./+/@/#/$/%/&/*/=/-/;/>/,/'/)/!/!^!^`*!^!^u.5,~/{/]/^///(/_/:/</[/}/|/1/!^`*!^t@t@2/3/4/5/4^5/6/7/8/9/0/a/b/c/!-+%R&R&d/e/f/g/h/j^i/l^l^l^j/k/l/I)      ",
"    m/n/o/p/q/r/s/t/u/v/w/z;x/y/z/A/B/t{H^H^S*H^C/D/E/F/..G/s)H/Q;I/J/K/L/M/N/T^S^O/P/Q/R/S/S/T/U/V/;.(=./W/%!X/Y/Z/;/-/-/`/ (.(+(@(#($(!^!^!^!^!^[,%(&(*(=(^/-(-(;(>(,('()(!(~(`*f+M^D%C#C={(](^(/(((_(9^:(<([(4/}(|(r%_'c^m;1({)2(3(4(4(i/l^5(6(7(8(9(r)3&    ",
"  0(a(b(c(d(e(f(g(h(i(j(%#k(4&l(m(A]n(o(S*S*S*p(q(r($-2^s(;$t(u(n$7!y,v(w(x(y(z(A(B(C(Q/D(D(T/E(F(G(('d$H(';=%Y)I(J(-/-/-/K(L(M(N(O(P(m~C'%*%*j&z&V&Q(R(S(T(U(V(W(;(X(Y(Z(`(]=3$ _S%!!._D%o +_@_^(#_$_6/%_<(<(&_*_}(=_-_X'J{Y';_>_,_z~'_)_k^)_5(6(!_~_{_]_t@    ",
"  ^_ )/_(___:_<_1$[_}_|_1_Z!2_-.*@3_4_5_6_n(7_8_9_0_a_b_r!c^c_d_e_a=O%f_g_h_i_j_k_l_m_Y^n_o_p_O>q_r_D#J ';d$J s_t_u_v_w_x_y_z_A_B_C_Y{+^Y#R,D#D_`*M^|*;_E_F_G_H_I_I_J_K_L_M_-%;.N_O_!&P_Q_/!R_S_T_U_v-V_W_X_Y_Z_`_ :.:O%_'+:@:>%#:$:%:&:*:=:-:;:>:,:'$B*':t*    ",
"  ):!:~:{:]:^:/:(:_:::<:A&[:}:|:1:2:3:4:5:6:7:8:T{9:0:-.3$J x;a:U)b:c:d:e:f:g:h:i:j:k:l:m:%-%-n:o:p:./';q:C'r:s:t:C~u:v:w:x:y:z:h{A:B:-.H(;!c#/!s(C:2^D:E:F:G:H:I:J:K:L:M:N:5&O:+%P:P_Q:R:S:T: .U:V:W:X:Y:Z:`: <.<+<@<W'_'d/u>B^#<-*$<6,S-%<&<*<5:=<-<;<><,<    ",
"'<)<!<~<^*{<]<^<<:K)/<(<_<:<9_<<[<}<|<1<2<3<4<z)5<N~6<7<8<8<8<9<9<9<0<a<@;b<c<d<e<f<g<h<i<j<k<l<m<)+n<o<p<q<r<s<7<t<O,u<M:v<w<e!x<y<z<A<y/9<B<B<9<C<S;D<E<^<F<U{6&.* *-%y)G<H<I<J<K<L<5+M<N<O<P<O:Q<R<7,q:#'S<T<U<V<}*W<X<r!+:Y<Z<`<@^ [0:S,/*/*/*8&>*.[+[@['<#[",
"'<$[%['<&[l!l(*[=[-[;[>[,['[)[w,L^![9=()|*2^[< .!&~[{[][1 1 $^B=o ^[/[([_[@<:[.~<[[[}[|[1[2[.{3[4[5[6[7[8[9[0[ +=%$&$&a[O]b[p)E-Q%c[J*m,,*d[e[f[D-g[h[i[j[L#`)k[l[m[n[o[p[q[r[s[t[m,9=u[v[ .O+w[x[}&u[y[z[G*A[B[_&C[0=*)s(G&#^e[D[E[F[G[)[H[I[/[}[<<l)J[K['<L['<",
"Y{/-M[N['<O[P[%*Q[R[S[T[U[V[@{;=W[H%X[@>Y[Z[Z#`[ }.}+}@}%: ~`*%*Q;%@#}$}%}&}:=*}=}5]f,-};}>}_,,}'}(*$')}!}~}O%{}$:]}^}/}S##,(}_}6_^}:}<}L*>]>])][}}}|}1}2}3}4}5}6}7}5~8}9}0}a}b}C'!^`*D>G&c}d}e}f}g}h}i}j}k}l}m}n}{*e+o}f+>]3;R<p}q}q(r}s}t}u}v}w}x}y}s}z}A}B}C}",
"D}E}F}G}H}I}#';$J}r;K}L}T[M}R'5*N}O}!%/!v=P}Q}R}o(z{S}T}U}6,!^t@Q;I&V}W}X}Y}Z}`} |.|+|@|@|#|$|%|Y~&|a<K*<@G&q'*|=|A/-|6_;|>|,|'|)|!|~|<}>]>]>]>]{|]|^|/|(|_|:|<|[|[|}|||1|2|3|4|s)o}/*/*g&5|6|7|8|7|9|7|0|a|b|c|d|e|A&J f,-!W#I&f|g|h|r}i|i|i|j|k|l|m|n|o|p|q|r|",
"s|t|u|v|l(('D<w|T-o;x|y|z|A|B|C|4'D|E|F|G|H|I|J|K]K|L|M|N|;!s=C'Q;e[O|P|Q|R|S|T|U|V|V|@|W|X|Y|Z|`| 1.1l~q&s@+1@16:6_6_6_6_;|6}#1)|o($1]<>]>]>]./%1&1*1=1-1_|;1}|}|;1;1>1,12|'1)1#'!^/*/*c#!1~1{1]1^1/1(10|0|_1:1<1[1e+C'}1|1112131415161r}7181r}9101a1b1c1v|d1e1",
"f1g1h1i1$.j1k1l1m1X>n1o1p1q1r1N}o>s1t1u1v1/}w1x1y1z1A1B1C1;!n:=)M^,*D1E1F1G1H1I1U|@|@|J1K1L1M1N1O1P15,Q1R1V'S1T1U1V16_6_6_W1X1Y1)|Z1`1 2>]>].2+2@2#2$2%2&2*2=2-2}|}|_|;2>2,2e~'2=)!^/*t@.1)2!2~2{2]2^2/20|d_(2_2:2<2^*C'[2|1}2|212223242r}52r}62j|72829202s|a2b2",
"c2d2e2f2g2h2i2j2k2l2m2n2o2F[p2[<q2r2s2t2u2v2w2x2y2z2A2B2C2>* 2D2 <E2F2G2H2G1I2J2K2L2M2N2O2P2Q2R2/[b=&!@#>_&!k<S2T2U2V2>|]~W2X2Y2Z2`2 3])>]<}.3+3@3#3$3%3&3*3=3-3;3>3,3'3)3!3~3{3]3o}/*t@#*^3/3(3_3:3<3[3}3|3 %1323U&33(=4353|16373839303a3b3c3m|42d3e3f3K[g3h3i3",
"j3k3l3=)V$m3n3m1o3p3q3r3s3t3u3,_v3w3x3y3z3A3B3o|C3D3M|E3F3C>W<G3E)H3I3J3K3L3M3N3O3P3Q3R3S3T3U3V3W3X3U'>_>_@%I&G'Y3Z3`3 4.4+4@4#4$4%4&4o>*4=4-4;4>4,4'4)4!4~4{4]4^4/4(4_4:4<4[4k~{! 2z& *k<}4o$|4142434d_G@4454@^64748'C'84t~94*404<<a4b4c4d4e4f4g4h4i4j4k4l4m4n4",
"c;o4o4p4q4r4s4t4u4v4&}w4L!x4y4$'T&z4A4B4C4D4E4F4G4H4I4J4K4L4J#M4N4O4P4V3Q4R4S4T4U4O3V4W4X4Y4Z4`4 5.5+5D)@5>_#5b=r'$5%5&5*5=5m*-5;5v!>5P;@#H/,5'5)5!5~5{5]5^5/5(5_5:5<5[5}5%:|5152535456,Z*55b%6575859505a5f#b5$^e[%{7*c5F|d5e5j1f5g5h5i5j5k5l5m5n5o5p5K[q5r5n4s5",
"t5u5,-v5%@w5x5o5y5Z4j<z5A5B5C5D5E55,u!F5G5H5I5J5K5L5M5N5O5P5Q5G^R5W)S5T5U5I5V5W5X5Y5Z5`5 6f~R_.6+6@6#6$67%%6&6*6B=q_=6-6;6>6,6-6'6t[w;)6q$0 :#W|!6~6{6]6^6/6(6_6:6<6[6C>G&9<}6|6162636f{m]4656@^R<6676e/8696K 06a6a~b6c6d6e6f65>g6h6i6j6k6l6m6n6n6o6p6q6r6u5s6u5",
"t6u6D<;%43*6v6w6x6y6z6A6B6C6D6E6c;F6G6H6I6J6K6L6M6N6O6P6Q6R6S6T6U6V6W6@/X6Y6Z6`6E: 7f~2(.7+7)* .@7#7$7%7&7*7=7-7/~+-k[w!;7K6>755)*,7,706'7)7!7~7{7]7^7/7);W[(7_7P;:7<756[7}7|7172737475767+:5677879707(!a7b7c7d7e7f7P]g7h7i7j7k7l7m7n7o7R_R_s_p7q7v3r!r7C)s7Z't7",
"u7u7v7 5v721r7z%w7Q=q'u.X<x7y7z7k~A7B7C7:=D7H6E7F7G7H7I7J71#K7L7M7N7O7f[P7Q7R7S7T7U7[<V7W7X7d[Y7{*Z7B4`7 8.8+8@8#8Q<d[J6Y7Y7Q*$8X7%8%8P;&8*8=8-8;8>8,8#8'8Q*)8!8!8~8{8)*)*t[]8^8/8(8_8:8<8Y)k[Q*Q<z%;.;.Q*)*[8P-}8%{|818283848586878p>[8'8Q<'8'8,_,_{*88}<|2D~98",
"08a8b8c8d8e8f8g8]%+&d#h8n*94u!i8j813s]k8l8m8n8x/o8p8q8r8W$s8t8l{u8v8w8x8 %y8z8._._._[ A! % %A8x/m8B8C8D8E8F8G%G8H8I8J8K8L8M8N8O8P8Q8Q8R8S8T8U8V8~*W8X8i2Y8Y8Z8`8`8z,`8 9.9+9@9#9$9%9&9*9=9-9;9n;>9,9'9'9Z8Y8)9!9~9{9]9^9/9/9(9_9:9<9[9;9}9|9,9|9`8|919293949d859",
"697989699909a9b9c9d9e9f9g9h9i9j9k9l9m9n9o9Q3p9<|q9r9s9t9u9v9w9x9y9z9A9B9C9D9E9p8F9F9w]G9H9I9U2J9K9L9M9N9O9P9Q9R9S9T9U9V9W989X9Y9Z9`9 0.0+0@0#0$0%0&0*0=0a1-0-0-0;0>0-0=0,0'0)0!0~0{0]0^0/0(0_0:0<0[0}0|0|010|02030405060/:70809000>0a0b0c0d009e0e0f0g0h0i0j0k0l0",
"m0n0o0p0q0r0s009t0u0A]v0[|P}/}w0x0%<y0z0A0B0C0D0E0F0G0H0I0G0J0K0L0M0N0O0P0Q0R0{~S0T0U0V0W0X0v^v^v^Y0Z06~`0 a.a+a@a#a$a%a&a*a=a-a;a>a,a'a)az]!a~a{a]a^a/a(a_av_:a<a[a}a|an0B0J0K01a2a#63a4a5a6a6a7a8a9a0a0aaa9aba7acaaadaeafagahaiajakalamanaoapaqarasataua89vawa",
"P%t>xa`[ya^$zaI;I;}3|3}3]$}3AaBaCak*Da];EaS*FaGaHaIaJaKaLaMaNaNaOaPaQaRaSaTa7~E=UaE=Va4 4 u(Waz=XaX$YaR*ZaF'`a]%E$ b %e^./././q:./J >+;*r#4=Y-.b.b2%b%+bU:@b+b#bZ<j}#5$b%b&b*b&b=b-b;b:%W%[&e&h%>b,bO*'b)$)bA^!b=$~b{by;]b^b/b(b_b:b<b[b}b|b1b2b3b4b5b6b7b`[E%8b",
"g%9b0bn*)&abbbbbcbbbbbbbp&B#p&dbdbdbeb%%z;l*fbDa6>gbhbi#z=ibjbkblbmbnbobpbqbrbsbtb2 0#ubP:vbvb,%._wby80#._cbB#3 Q%G$xbp&._ybO_zbg!cbB#p&AbxbBbBb&&CbCbB#ubDbDbEbEbFbEbEbGbHbIbJbJbGbFbFb,!FbGbKbW%LbMbNbObPbQbO@c[RbZ$Sb`$#%z$>&._Q%eb3 Q%Q%dbdbQ%dbQ%L%TbUb1]s>",
"Vbc Dbabn$%&f&WbEbk9WbGbWbWbEbEbWbGb>&,%Xb<&<&YbL%54A!Zb`b c.c+c@c#c$c%c&c*c=c-c;cubA!A!._._>cO_Db,c.%t6t6'c)c!c~c{c]c^c/c(c_c_c_cP]M@m$d+d+d+d+d+v>:c!-V'b&Jb<c[c[cGbGbGbGb>&JbJbDbDb}cDbDbx[2 |cw%1cx%2c3c4c5c95956c95|%~&FbGbt$N_N_DbN_ybybVbVbN_ybyb0#._7c8c",
"x&9cx&x&x&W/x&0cacac/~bccc):cc[{dcecfcgchchcicgcgcgcjcfcfckckckclcgchchcfcmcmchcncecncjcncicicgcgchcocpcococqcrcsctcucscscq*vcwcxcvcxcxcucucocycycycuczczcycucoclclcAclclcococycycycycyczcyclczcocycAcgclcycucucucycBcCcDcEcFcGcHcHcHc/~'*x&s#IcIcIcIcIcx&x&x&-~",
"JcJcKcLcMcNcNcOc_&PcQci W&4'RcScTcUcUcUcVcUc4!m<m<m<UcUcWcWcUcVcVcVcXcVcVcYcYcWcZcVcVcVcVcVcUcUcVcZcVcVcVcVcYcYcYcYcScScZc`c d.d+dSc.d.d.dZcZcZcZcSc+d@dScVcVcScSc.dZcScSc.d.dZc d d#d#d#d#d$d$d%d&d$d*d=d-d-d;d>d;d,d'd)d!d~d{d]d^dZc.dVcVcVcn[/dm[m[Kcr=(d_dJc",
"JcJc:dJ*(*'*J*/~<d[d}&r#v&>!}dSce-[*|d1dr_,~,~2d,~3d|d4dW&W&#>#>W&o&W&W&n=>~5d6d7do:8d9dH&0d0d0do:adn -~-~bdEcEcDccd7dddedfdgdhdidjdkdldmdndodddpdqdrdsdDcDcDcEcrd6dtdudvdwdwdxdydzdAdBdCdsdDcDcDd6dDdEdFdGdHdIdJdGdKdLdMdNd6]OdPdn=3)o&<~McPcQd<~ .).).G&>!RdJc",
"JcJc^[Sd+%,>s@j%t.H/z8#&TdDbUdVd6dWdsdXdt*Ydt*8&t#Zdrdi6`dH%Z&Z&v%H%j$d% eddj$.e7d+e@e#e$e%ey&o%&e*eC$l l =eyc-e:!=e;e>e,e'e)e!e~e{e]e^e/e(e_e:e.e<e[e}eq*|e1e2eY&[{3e4e5e6e7e8en=X&yc9e1eX&1er*Ydt*>!0eaebe`&R%ce1ecegcdeeedefegeK..!#%V$+/heheief[}&}&.1#%2dJc",
"JcJcGcjekelex%h#`$3,meA^neoetdZcpeqeId![<%![R%X#reserdj$'&v%C#teZ&U$;*ue4').vey%wexdxeyev%ze&*s&Ae*e)cY&BezeCeDeEeFeGeHeIeJeDeKeLeMeNeOePeY&@eQeReSezdjcq*q*2'2e@eTeUeVeXdXdWeXeYe.bZeu[r*2'`er*X#X#E- f.f+f&*@f#fY&$fedde%fde&f*f=fF'F'+6-f;f>f,f'f)f!f=%~&r=Jc",
"~fJcr=@^D-{f]f^f/f(f]3_f:f-$<f[f}fvdmds&|f|f%.|f1f2f3f4f5f6fa%7fvete.bd% e<%3'|.ad+e8f9fve$fy&(&Ae*e!c0f8d;eafbfcfHedfSe<eefffze#fgfhfifjfkfMeGelfmfnfGdR=1el ofBepfqfrfsfE#tfufvfs@7fB=lfa%'&0fYd%.X#wf.fxf]#R%yfZelf[{zf%fAfBfl( =m,CfDfEfFfGfHfIfJfKfLf_7MfJc",
"JcNf@^5>OfPfQfRfSfTfUfVfWfXfYf7<Zf`fqd![pd|f![ze8d g.g+g@g_'#g| B%)-!!Y#dde%g!b&n=$gB%@#B%H#P[;,Aeh@%gE-&g*g=gcf-g;g@f>g,g'g)g!g~g{g]g^g/gxe(gze!e_g0f}e:g-=U$u&'&We<grf[g%*6e}ge-|g1g%!2g3g+f4gd$<%t*5g6g7gA%X#&*B%;*(&8d8g`fUeg29gd/0g]fagbgn,y+e^&%>&e/r&vfJc",
"JcJccgdg(2egfggg<-hgigjgjgkglgmgngogrda%GbJbx[g@pgqg0dk(rg##sg&,tgtg6>Xa#>s.ugvgwgwdu@{bxg|3Xat)ygzgO}AgBg;er*CgDgEg1(:cFgGgHgIgD}JgKgLgMg{cNgOgPg3'T;Qg0fec';Rgp&vezdh!Sg]%z8TgUgVgWgo D}XgYgPbM#Zg&*`g7& h.hY-Fb%6)&+hZglfa%N=@h#hg8p8$h%h &]%J%&h*h];43F*=hJc",
"NfJc-h;h>h,h'h)h!h~&~hU:{h]h^hg2Ddcdrd2eAbG$/h3 H&(h+-~%_h:hfb<htgtgxgXa[%[hx%}h|h4'h#1h(}H@2h._,;I%3h(:4hX#5h6h7h8h9h0hahbhbhchdhehfhghhhihjhkhlhmhnhohphqhceo&DbrhEcshthuhe_vhG&whF&4;xh|%yhzhM#)-s&AhA%Bh95)->&[$f&Vb9fy%H%ChDhj*U*v^EhFhGhZ2|#HhIhJh%$S,KhJc",
"JcLhMhNhOhPhQhRhShTh#bUhVhWh^hXh e*eqeYhheZh`h i.i+i@i#i$i%i&i*i=i-i4h;i>i,i'i)i!i.i~i{i]i^i/iu643(iR0f$k%_i:i<i[i}i|i1i2i3i4i5i6i7i8i9i0iaibicidieifigihiiijiki.=Y&@i/climinioipiN%qi:d:!Zh irisiS:tiuiviwixiyiziAiBiCi(eDiEizdDhFiGiHiW|IiJi}|3}]'z3KiB@S,KhLi",
"JcMiNiOiPiQiRi!$SiTiUiViWiXiYi@hZi[e`i&i j|&.j+j@j#j$j%j&j*j%j*j=j-j;j>j,j'j)j!j*i~j{j*j]j^j/jQ_(j_jN$7,:j<j[j}j|j1j2j3j4j5j6j7j8j9j0jajbjp:cjdjejfjgjhjijjjkjljX&>imjnjojAgpjafqjx%rj4dsjtjujvjwjxjxjyjzjAj)jwjwjBjpjBbx2CjDjEjFjGjHjIjJjKjLjLjMjNjf9u0OjS,KhLi",
"JcJc'*PjQjRjSjTjUjVjE&WjXjYjYiYiog9dxeZjZjZjQe`j k.k.iEiQe+k@k.iph#k$k%kLe&k*k=kxc-k.i]c@i]c7f`-;k>k;$,k'k_:)k!k~k9h{k]k^kD}/k(k_k:k<k[k}k|k:k1k2ki@3k4k5k6ke<]c^eFc7kSe1ezc=emf8k9kdh8=wc0kxe0kakmfbkakckPedkekljEi.i.i{cfkgkhkl!ik!1jkkklkf9Ljmknk>1okK%66pkqk",
"JcJcrksktkp&ukvkwkA/J1xkykzkYiYiwdUevdAk![![![pdBkCk*e.e:-M@Dk _u&Eku&v%r=FkGkHkIkydJkJkl-H%43KkLkg>MkNkOkPkQkRkSkTkUkVkWkXkYkZk`k l.l+l@l#l$l%l&l*l=l-l;l>ls%,l'l)l(d*f!lX#0f~l]c{l#5f-piZ&]lJky%^lGd/l(lH%o%WeWeWe1fR=9d_lWe}*Fj:l<l[l}l|l!_1l2l3l4lU|U'0h5lqk",
"JcJc%@6l4%U'7l8lq89l0l0lalblYiYingclmd`&dld+M@<c`felChj%f$Rbflgl%%g%*&P:+-hlil,lFdvf%&f%E&@5>$jlkljjllmlnlolplqlrlsltlulvlwlxlylwlzlAlBlClDlElFlGlHlIlJlKlLlMlF&}hNlOlPlQlVb} Rl kSlTlUlP]E$VlF:WlXl$fYlqdZl} 6frhu&d+{c`l2eZeUgl! m<l.m+m@m#m$mSb%m&mu1*m.2r&qk",
"JcJc+/=m:>-ms>;m>m9l0l0l,m'mYi^hngAfmd'&D})mJ$t%.g(h.fL%!m~m{m]m^m/m(mc[K.Bj_m:m6de-QbT@<m[m}m|m1m2m3m4m5m|k6mql7m8m9mD{0mambmbmcmdmemfmgmhmimjmkmlmmmnmompmqmrmsm]l`i /tmum.hvmfdyawmD-I xm1hymkezmy%Am.*BmCmDm _P]EmhiJk|.te.-FmGmHmImJmKmLm-<MmNm_|OmVbPmF*Qm",
"JcJcRmSmTmk(Y[U'UmVmWm0lXmYmYi^h8gAfZm`m=l`=*& ns*2f-=T%.n+n@n#n$n+$%nL@$*&n*n=nbd-n&,;n>n58,n'n)n!n~n{n]n^n/n(n_n:n<n[n}n|n1n2n3n1n4n|n5n6n7n8n9n0nanbncndnenfnCjphgn+ghninCmjnkdknln@*q!Nbmnnnon_''&el^*pn9b{& _I I _c9fv&+fP=qnmf++rn0%sntnunvnwnxnynVb7*Ugzn",
"MiMifcAn*!*!Bn_'CnVmDnEnFnGnYi^hZmAfHn`m1kInJ$Jn%:2fKnLnMnNnOnPnQny0RnM$7,hlSnTnGd9ei9xg6%UnVnWnXnYnZn`n o.o+o@o#o$o%ov~&o2n*o*o*o=o-o2n;o>o,o'o{k)o/k!o!o1k~o{o{&sm=l'l]o^oBbjn/o(ox  !_o:o<o.$[o}o|oAm$*1ooe!!{c{cI 2ou&terh@*qnjf++3o4o.55o$mE{6o4lw]n$/b7o8o",
"9oMi%.0oXn!%,'_'Cnao37bocodoYi^heofoZmgohof&J$pl$f`gioL%@njokolomo4$5$noD>oopoqoro.=)!noCnsoto{_uovowowoxoK#yozoAoBoCoDoEoFoGoHoHoIoJoFoKoLoMoNoOoPoQoRoSoToUoVoh2TnhiWo~gXo#5vh iYoQbe[EbZ)<hZ-M$.!Zo`o p.p+pZgM@b&/cP]%grh@p5el!xe#p$p|@%po8&p*p=p;1-pyb;p0.qk",
">p,pH6'pXnr:Ub_'4%)p!p~p{p]pl!@h^pZf/p(pve|.7f_phk:p<p=~plh#[p3c3cN%)!7cQ&}pS2T>cdp=*&|p1p2p3p4p5p6p7p8p9p0pyoapbpcpdpepHofpfpgphphphpfpipjpkplpwlmpnpopppqprpsptpl}upNl0c'jvpwpxpypzpo>ApBpCpE$DpQ;R%Ep.=T$~c>,I*R;o%ze&*X#]#h@Fj&*Fp.mGpHpo825IpJpKpp80#LpMpqk",
"Mi9oa>Vhm9NpOp#%}2Ppz>Qpv:]pYi^hpiRp$kSpTpUpVpWpXpYpN^Zp`p q.q+qSg@q{j#q$q!j%q[h&q*q=q-q;q!a>q,q'q)q!q~q{q]q+j^q/q|n=oGofpgp(q_q:q:q:q<qfp[q}q1n|q1q2q3q4q5q6q7q8qN#)i9q[d0qaqbqcq]:dqeqfq%jgqcg$jhqiqjqkqlqmqnqSpInabIn>&8joqpql!d$qqrqsq$mo8o8tquqvqu(5%wqM^8o",
"LhLiW7xq!% &yq#%}2zqAqBqCqv;l!l!cfqhDqV}Eqmq|iTnFqqilnGql}5c3coeplHqIqxjhl-iDj,i4hJqKqdhLqMqNqOqPqQqRqSqTqUqNbVqWq|n-oJoXq_qYqZqZqZqZq:q(qfp}q1n|q`q r.r+rpp@r#r7qN$Cj$rZj~gHqJq%r&r*rbeDq=rSlF:Mbl}qoZlx%E$1c;b-r-r-r-r-rz#;rpiYi6,>r,r'runo8)r!r~r{r3>5%]r-=^r",
"Lh/rH6(r[ ~%w~_r}2:r<r[r}r|rl!Fmtd1r2rwg3r`fDdrd4r7<-n3rEc9d9d_l9d9d5rzd56#i6rsme-q~Fcr!7r8r9r0rarbr8p9pTqcrdrerWqfr-ogrXq_qhririrjrkr_qlrmrnrorprqrrrsrtrppurvrwrxryrzrfdB50dPlfkArBrLfCrDrErR%.g7dUdFr;~Id3eGrGrHrYfUd}f1rtdn~YiIr>rJrKrunLr8(MrNrOrPr_bQrM^qk",
"9o/r%@Rr!&SrL{TrUrVr{7WrXrYrYi@h) GdZr`rHe sr*C$9d.sqd=eve+s@s_c(cd+r@Ze+-#s$s)i%s(l&sV$*s=s-s;s>s,sRq9p's)s!s~s{s]s=o^sgp:qkr/sirirhr_qlrfpGoor|q(s_s:s<s[sur}s|s1s2s3s k%g4s5s6s7sL;2d8s9s} 0sphGdasRlR=)ibsQgBe1eAcxe!ecs=eddYidsesfs~rungshsisjsksIpr8lsMpqk",
"msqknsosI%=s|lpsqsrssstsusvs^h@hws5e8gxsho|!zrIq)cysm-I G$zsAsxmBsCs%b-bs#DsEsFscsqeGsJ$Hs1lIsJsKsLs8p9pTqMsNsOswlPsQsHoXq_qkriririrRs_qlrfpFoorSsTsUsVsWs[sXsYsZs`s tTn.t&&+t5s8k@t<hg&I (k#t$t%tD>&t*tv>lo=thiq!C$/c-tT;`eofo&l!=f;t>t,tun't)t!t~t{t]t^t/t8'qk",
"LhQm(t_t#<u1:t:t8r<t[t}t|t1t^hv;ws2trdxs<cJk3t4t2kjnMp0#9bmnOn5tOb^o6twm%*7t8t|gedh@Rbl#9t0tatbtctdtet9pftNsgthtitdp2nJoXq_q:q/s/s/s_q_q(qfpFo1nfmTsjtktWs[sbhltmtntotqo@kpt3cqtrtst4>o M@ttttuti9^*&t5sP]ymvthi_oM@b&hiih5]of-~^hK6wtxtytunztAtBtOrCtDtEtFt pqk",
"qk/rwbGt#<]!:tHt'tItJtKt8[qh^h^hLtXdt*xsM@|.Cb4tMtNt0.OtPt<hObtgmnYgQtyoM^6iRtStdc_&Aa0%Tt@nUtVtWtXtYtppZt`t3s u.uPsep+u[q(q_qRslr_qlr(qfp[q+ufr@u(shm#u$u[s%u&u*u=u-u;uX&.hE$5s4s>u,uo )c'u)uR$i9K.!u`oRk$nQk2o2oI sihijj5]ofrd^h~u{u]u^u/u(u3l_u:u<u[u}u)t pqk",
"qkqke&I0k(|uHtHt1u2u3u4u5u6u^h@hZiE#2t1eDb|.Cmh#7uNtD>M#<hsgF:8u9u~buhx%Z*Dq0uauedB=buc[U%cuduk3eufu6qguhuiupljukulu|nmunumrXqou(qou(qfpgrnupuquwlru9rsutuuuvuwuxuyuzuAun 3cBu5sCuDuEue['-{:8uFu<bs*Gu5s2oHuh#t)c _p_c-tIu;<verd^h'*JuKuLuMu'r25NuOuPuQuUmRu pqk",
"qkqkSuTuUu'3VuHtWuXuYuZu`u v^h@hLtcsZi9s.v9fol)u8c2f8&%%+v@v#v$v%vtge&w%n-6+&vCs*vC:=v-v_r;v>vx2,v'v)v!v~v:b{v]v^v/v(v_v:vHo[q[q[q[qJoJo<v[v}v|v1v2v3v4v5v6v7v8v9v0vav0kdcbvcvjn-kdvev#*fvz#gv3vhvo&ivjn<cjvAskv1kt)hi_clvXl'&bd^h>!mvnvovpv-:qvNurvsvtvuvvv3fqk",
"Lhqk]$wvxvyvzv3lAv'3~pYuBvCvFm^hDv1!sckf@i@k#k_c8s_e:lEvFvGvHvIvJvKvLvLvMv|pNvxjI>OvPvKvZe+nQv7c:cRv|iSvTvVl:bx5'i3cUvVvWv*o*o-o-o-o*o}qXvYvUvZvc[Rb.hCsau=khoc `v wwm.wck+w@w#wvp$w)u';%w&w*w*w=w-w;w=w>w,w'w)wbsEk!w)-'cz84hWd^h3$~wnvLu{whsKm]w^w/w(w_w:w3f/r",
"Lhqk[bwvNp<w[w}wAv|w1w2w3w4w^hv;5wZj6w}p7w)!)!8w9w6c0wawe{V;bw~bmn:@cwdwcgJ%V#ew1cfwgwgwwjc[`#V#>]hwiwjwkwlwg!mwnwowy+)spwqwqwdprwrwdpkpswtwuwvwwwxwywzwAwBwCwDwEwFwGw).HwIwJwKwLwMwZvNw#~OwdrcrcgPwQw4>h#j>Rwc[[oSw[o[o8wzhTwUw^hVwWwXwYwZw`w x.x^w+xgs*h@x3f/r",
"Lhqk#x$x%xh9[w&x]r6oXwBq|a*xXhXh1!re=x-xFbFbNwD<;%.%x;+%H/;xD)>xZbZb3%Q,GbCm<bgty$NwNwD%D$,x'xL%!!)x!x~x{x]xDp^x/x(x9.at_x:x<x<x<xcpamcp[x9t}xit|x1x4s2x3x4x5x$s*nTl6xqedc9fe$)-| dr^oS<u$2%P,l$&@;%7x3%@%@%@%8l8x`<`<`<8xH/2%0d^h9x0xboaxbxNrcxdxexfxgx*hhx3f/r",
"qkqkixjxXakx`}lxmxvvnxoxpxqx)<m<rxzfsdJd5esxyf=etxux`fze0k{cveve7f'-#eAc4'v&3s@szgvx1eBe@eYdwxTbg!=)xxyxzxAxBxCxDxEx~gFxGxbpHxHxHxHxIxbpJxUqKxIxLxMx.kNxOxPxQx5tRx-ro% e|!ofceSxTxb){lG&pfUxY&VxlfvdJdWxbd&sqhGdXxXxR=:!ErGdYxZx@h`x y.y+y^wax@y#y$y%y&y_b*y p/r",
"qkqk=y-y;y>y,y[w#1'y)y!y~y{ym<N]]ysd2t1e>&^y/y1g=ijnH&D_p:'u1c(y;bTl1&vg#>;u_y:y<yo=9s[y}ykj|y1yI%2y3y4y5y6yvg7y8y9y0yaybyapcydycyeyeyfygyhvhyiyjykylymynyoypytw0wqyddD=ryoe} syt#ty8u+-ycriT$E$I `fuy*tj$ttcvof+frhZgte^c2'ce9e^hvywyxyyyOuzyxv)nAyByCy_wDy p/r",
"qkqk=yEyh#FyC7`}WuGy)yHyIyJyXhXhKycdXd^yeb2oLybvTpMy^*:=h#Ny-v[$2cOyxm[&%*ewPyQy6e9*CbBsRydh~oSym7whH#TyUyVys.WyXyMt} 7uYyZy`y z.z+z@z#z$zLyRkEm%z%z&z*z=z-z;zV%3s+-G#>zEwJn,zjnW/ty#tu.@eCpLbYgeb3fqhjn| 'zNbq!z$I hi'cph)z sa<@h!z~z{z]z^z/z(zG3_z:z<z[zlsm-/r",
"Lhqk}z|z1z2z3z,y4z5zBq6z7z8z3dXhUecd@fd+*m9z0zazbzcze+V)dzeztgfzgzhziz.h;,jzkz>jhk /(ylzLn1cmzk%nz0#dhQ;ozpzqzrzsztzD_uzvzwzxzyzTnzzAzBzCz<cDzEz4vFzGzHzIzJz|c1gY-.*':v3$vKzLzjnR;MzNbG&2e1cLb8u$'s*|.Nze$Qw'uM@M@hiEmv>hiOz#fPzQzRzSz2wTzUzVzQuHpWzXzAt>mYzMp/r",
"qkqkZz|zg#2zC8`z A.A+A@A#A$Am<)<Ue%Acs7fu&|o@s4cNscz$*&A4t*A:@=A^$-A;A>AD#,A'A)A>!1 Cm!A~A3c>A~c5,<cIns./){A]A^A/A(ANw3t_Agu:A<A)>[A}A|A1A2A(v3A4A5A6A8v7Aw%ri8As#9A0A{*tg8-O_Nt>+$w9mG&xenqLbyhP: paANt=~Cag(M@D_EmEmj%~c1e%ePzXhRzbA~pcAdAeAr8fAgAhAls2@iAMpqk",
"qkqkZz|z*~jAC8kAlAmAnAoApAqAm<m<rAId|fJku&Z&@sp:sAtA^*TmRbuAvA-AwAiz[bJ$D#lqxAjq>!3=yAzA*&wm[$>c:*W&AA_plyZoi@BACADA[ ugEAFAGAHAbzIAJAKALA/yMANAOAPA5tQAg@RAujD>hiF#y%3$mn95[cMyZjSA%v[%qh-bTA8u!& p+fNt)-fb0%b&b&M@M@Zg{c`&y&UA3dVAWA2wXAXzYAr8ZA`AhA B.Bgx0.qk",
"qkqk+B@B*~>y#B$B%B&B*B=B-B;Bm<)<wgBk3ft#0c#>8&Y#hoshr_O%FbDb>Bt$N_e_,ca*Q&,B'B)B,~-.s@$%+%!Bx;~B(dvx#>xhjjr@'-7'{B]B~&^B/B(B_B:B:m<B[B}B|B1k1B2B3B4B5B-tfvI@|*a%Q;Q&[%*)P:N@q:6BEipo7B@*g&t.8l*!+:,_5,q'q&h%8B|.|.|.|oP,r'r&s*p*3d&49B0BaBbBdg_w[zcBxydBeBfBr%qk",
"qkqkf#gBhBcBiBjBQ3eAkB/zlBmBm<m<txnB|!oBpBqBrBsBtBuBvBwBxB%j]jyB$s]jzBABBBCBhq6iDBEBFBGBHB+qIBIBJBKBnBr_'&Bg3tLB2AU$D>H#MBNBOBPBs.QBRBSBTBUBVbG~VB*%DpgcWBEc0k=iuoXBYBZB`B%qGB C.C+C<&2'@CBB#C$C%C&C*C*C=C-C@t-C;C-C-C-C;C>C,Ckdm<'C)C2w=p!C~C_wO4}lbo4z]bCyl9/r",
"qkqk[3gBhBw8{C]C^C/CGy(C_C:Cm<m<yc<C|![CQy}C&n|CF&1ce&2c^$'ikeke'ix5keg( n1C2C)l_c;uxj,i+j3C3C4C5C6CbskiWd(*/yBpAA-rdhu%C#Hk7C8CY-,B9C0CaC*nbCcC3 C$dcBkKdscdCeCfC,BgCpjyr}yCm2&9f4cF$RphC}cYy}chomzbbiCyrjCT>le/i/i/ifCkCkCvjpdm<lCmC)ynCeBoC_wO4pCqCrCD{sCTmQm",
"qkqke{gBtCuC{CvCu]8(t]/CwCmBm<m<td<*/pwdBk^pxC`fErmgad6d8dDrrdpgzdzdqdzd|ddCyCzCBkAC1!qd3r`fcdqd2rpey&zdrdrddd%.zC4h'lx2|gBbBx%g+sBCCCG~DCECEbFCTeGCHCcdbd3r`f`fqdddddvft#8dDd*d+-ICyA4'sxDcDr6e.g eBkJCdd&*R=Dd8g8g`f6dBkwgpe(dm<doKCLCU1MCNC_wr8'rOCA7B8PC':/r",
"qkqkQCRCV;SCu]TCTCUCVCWCXCYCm<m<de]yHd5ecs|f`&ve]eZC4'Z&uzhou%<c~c<c`Cl-Ad9s)B DGdFm&s!c#i/c.DBeHr1fcq}c+DqhOl@D<~reohFe*l#D$Dlviikj8s@knf)etx`fae@Dcelf+DhoDbJbS:7'%D3&Vlzb`&&D#>s%dh]y}ehoCbICJbs#r*MyD_*D.vZ&'-C$r@Ze2eAkpf-nm<v;=DLC-D#y;D;D>D,D'D(wIp)Dt)/r",
"qkqkP@!DQb~DTC{D^C8(]D<r^D/Dm<m<de]y6e1edC`lr@%g(D_D,~<,.hV#V#<&.v<&F$c _l1k:D<DDr..[D.vGq&&kv!wpe7f}DV%bbDp9fveY&.e3r.=:!lfxe8f.DQg$fDr=h4r3dH&9fU$2g)ceb3cg%oe|D| U$3&utflZo1D1fry2Dog1e|coec[zbE-ak3D^B4Dgle$C$P]I :-|.Ak5e5Dm<..6DZu7D8DeB9D0DNCNC9DaDaDM@bD",
"qkqkcDdDQbeDVuUCfDVC<r9lgDhDm<m<foCrWeBe|!`lu&r@Gkcz7on,>AL#g%q<q<.vF$InTxzr)BiDR=a=Cbg%j>*&u&9z*ejDkDf%`=>Ax%=&lD$fpd,;r=sdbd6d`fmD7e:*Xc*eFr+-Vb~&g!Dpp&<&g%F@<&Zgr#.1+#E&.DnDTxTnoDcdr*CbV#g(>c@>0kpD} ]mE&e$+D!c/ce$Z&(p5eqDm<q -:LCrDsDA7tDNC;D;D;DIpIpuDvD",
"qkqk8uwDxDyDzDAD,yVC<r9lBDmBm<m<%AmdYdJkr@%g/coflqCD1dDD.vA#V#.v$'>Ae&bbM^'-6+T;hk+^(yV#ED(y)c)cBk!cFD[pQ%3>5ckeGD@pBe|d>~<eTe7eAkwsHD6d/d3rIDn-wmW$<&3 Q_Q%l#JD%%<,v&.1Ca2crhKDr_} LDDdBe|cV%^$Jb}$Jkczt)MDl#B%9f+DNDlDU$5eR%-nm<)<OD[rrD_uPDQD#19D;D9DNC`2aA8o",
"qkRDSDTDUD(bHtVDADWDIt<rXDYDm<m<e-p=1dZDA=s#s#e+/cQz}*q&`)4=R&`D3;a*@#t.+-4'9d<~<~n>.bbe7fI*rehk<*Hd&iU$+gH$ve|.I*D>_lad;~Yy E#DphRk.E+Em[vdl[Pze$R&!-2%I#q&s@@E!-3;F-#E$ED$Ce%En>o&&E4r_l.b0*D$0cQcreod>!*Er#=EH*FcFcZDW&h@6d-Em<)<OD;E>Ec6,E'E#1#1)E9D!E4p~E/r",
"qk{EcD]E1u^E/E(EB/_E:E<E[E}Em<m<0f|Etj1E2E3E4Ezj5E6E7E8E9E0EaEbEcEcEdEeEfEgEhEhEiEjEkEiElEmEnEoEpEqErErEsEtEuEvEwExEyE.=;~zrzE7uX:} AEBEKcpdojAg+jblCEDEEEFEGEHEIEJEjqKEkELEMENEOEOEOEPEoEaq2sQERESE=qTEUEVEWEXEYEoqYEJBZE`E Fcc4!)<.F+FnCc6k]%xtD#1mxmx@Fgs~E/r",
"qk#FcD$FTr%F`}(EB/&F:E*F=F-Fm<)<;F}c>FZpzk,F'F)F!Fx1~F{F]F^F/F(F_F:FUEIByByByB<F[F}F}F}F|F1F1F2Fcg3F4FtgEu:@5F6F+|7F8F&E[*zr:&0s^e,z9FBEKcki0FaFbFcFdFeFfF>CgF-ChFABiF2sZBjFkFlFlFlFmFnF%j(#oF*jpF<F$sqFhFrF{FsF{FtFWEIwIEuFvFnc4!3dwFxFnCyFzFk]AF#19DeBBFMu~E/r",
"qkCF0 DFis9{h9R}lxEFFFGFHFIFm<)<ceAcQe.i%w@k+sJFii#Du66x)i[Dyw,z1.|p,z*E*E*EG%DpDpbbB#|p2&6rCsKF._,cLF7xFbD%,!NwD<Wbl-Pz[*T$MFiD6+T$NFOF(dPFQFTw;yRFg}|cBb7c`=7u*Ex+O_*ESF}h~g#iuz9s2A2A2A2A#iqy1g,B-rTFu64hUF]e^iVFWFXF`i;eYFDcm<0<ZF:u@m`F G GF|#1;D.G+GgsX3@G",
"qk{Ee{#G(2@:Om$G$G%GFFrs&G*Gm<)<jc=G-G;G>G,G,G,G>G>G'G)G!G!G DFsFspjyr^i^i`t^i~G~G{Gle]G^Gry/G n$b$bT>Wl1g!j(G,zvg1.ri.=[*&&_Gaf*gAAwi:Gad<G. [GObxm+C+C|i/G/G/G=n[h}GWF&g&g&g|G1G2G1G3Gbf8)4G'G5G5G'G6G7G8G[C9Gg,0G$>&qaGbGcGdGm<)<eGfG,ygGhGUr$1mx;DiGjGgsc}kG",
"qklGi>mGx/@:o8nG:EoGpGJpqGrGm<m<bdpfjcHeycr*}e=eSeyc0kVxljdC=GGe=GGeJeKeKeKeDeKemfGeak/c#ivp1C-tP]b&v>sGZe|EtG2eqhZ&%DuGn>ebvGwGxG9hyGzGygAGBGCGDG1gKFT$T$T$ywyw[Du69s&s`l`l`l]loh8sfdoh]lr@oh0ykjkj#k-krt`iEGFGujujGGSF.kfvnBcdm<0<HGXwIG$AJGKGLG9D9DiGMGAvX3kG",
"qkNGOGPGx/6'QGRGSGKm-DJpTGUGm<g2od+eVGVGVGWGvxvxvxvxXGVGYGZGZG`G`GVGVGn~ H H.H H H Hn~o:`cn[Xhvxod+eWGXG`c`cXh^hvxFj+H^h@Heb#H$H#D~G%H&H=h2r*H}fwgtd=H-H-H-H=H-H*H;Hygygygyg>H;H=HUd=H=H=H=H-H-H-Htd}f}f}f}f}f}f}f7de-(ln>qn^h^hg20<,H'Hkx>8hGKG)H!H(w~H{HMC/)kG",
"qkRD]HTux/u~v~^H^tqv/H(H_H:Hm<g2<H[H}H|H1H2H2HMdrxZr3H4H5H6H`r7H`r8H9HeoeoeoKdGd7H0HpfpfaHbH%sYxcH%spfKd/p/pGrqfdHdHrxeHfH7cgH,lt)hHiHjH=hNdZr`r`rkH5HlHmHlHnHHn9H`roHpH:gqHmDrH9H5H9H9HrHsHtHtHrHsHsHrHtHuHuHmdvHcdvdmd]yrxwH&em<)<xHyH>hzH,D!HAHBHWuCHDHEHGrkG",
"qk{E/hFHK%ZbUmGHHH({IHJHKH&hm<g2Md]yId2tLt[ejfxeIexemf0y8sLH@kkj(c(c(cd+d+d+d+d+kvkvd+d+Dkd+d+%g%g%gP]~o>gOz8fdC$fMH|fe-adLwpoNH_cOHkqPHQHRHcs|!SH_gljoh|!ohohljoh0yLHTHzCihiiUH`iVHiiWHLD`lakqhqhqhY&XH|ove`lr@0y8sfdphYHlf2tUem<)<ZH`H1l I9D,D_u.IIp+I@I#ITpkG",
"qk{E$I%IK%j*Vk&I*I=I-I;I>I:fm<mgngmdAk,IgkXF9qHkHkNlsmStStjCfC'IvjvjpjKFywzr=l)IzC&z)I&z<k<kIlIl_c(c)cJkJk]l'-kj|o8f$f5D!I~I*nNH{I]Iiqcs(dZryfSHqyLwBpywqyqyqylvzr^I/I(IDqDqStStStDqStFkBpu6Bx1kRkd+l-)cP]RkRk_cEm(cl-3'Jk_I2tAfm<)<:I<I[I}I9D#1|I.IIpKm1I2I3I@G",
"qk4I1C5IK%8xVk6I^)7I8I9IU*0IXcb_}fvdaIq*0kof]ldl%gRkIluz9s9s3'_phiP]/cd+M@d+r@r@l-bIrhrhcI]lr@r@r@8s{c+sdIzC/cphaAfvi6(l!IeIfI,B6x/ijq).o:rx2t`lgI(c]lFCFC`l]lkjIl&zzC/y~gii^Bjj=l1k9s3'ph-t$k/cb&+DB%:-)-9f7f2eqhqh1e@k.Dr*pfrx4!3dhIiIvnjI-8IpkI.IPraDlImInIkG",
"qk4IoIpIK%qIrIsI^)tIsmuIU*84m<b_UdWdEr=GfdTHvIwILD'-Vxr@xI7ftete|.Z&Z&qhvek Ze(cyIzIvIvI*lAIyI*l*lyIBI4GCIDI5GEI9f8s2'zg!IFIGIStidsmHIzd(d^p%sbkCukj@k@k8s`l]l@sWH&z&z*l*lihzC+s@sUHCGbfNlII j4hujIu#DzCzCzC8sof%g0yqh]lqhJIHdKy4!3dKILI0wMI>mNIOIPIIpIpQIRIw~kG",
"/rSITIUId#VIWIsI6IXIKHYIVjZI3d7<}fvd1!0kVx&sAI@sTHTH#k#k+sWH@s+s{c(c/ckjkjkj]cTH`I JAI.JAI=g+J@JAIvI#JVHjjupIu$JZg.k8fpe!IVF%JHkGGVF&JH&o:HrKd*J@k]c'e+sdI@s@s&zIl9.IuiixG=J{e@s@sVH-J{eDIXFlvzCzCzCzCzC;JT;kj'-]l0yr@zC>Jr*DrMd)<)<,J'JyG)JBHNI!JKGaDaD~J{J!hkG",
"kGqke[]JOtiu.&ulO9W)^J;3F^/Jm<(JUebdEr|!8s8sWH&zly*l*lT;yI_J-J/IEIujT; JT;JF*l*l`I*l*lJF JAIUHUHT;VHIujjIuIujjHk%g.kI}:J!I<J*q[JFG5G}JGd(dHrmd|Jlj@kEi8s8s+f6f&z9.jjii#J/Ign8)1J2JUHyIUH3kUHAIAIvIzC*lvIT;vIT;TH8s/yph#i8AFChk3em<m<3J4JF{5J6JaD7JUraD8Jl89J!hkG",
"/rqkn-0JOtiurIsIsI^)aJbJv1cJm<(Jfo9H%s@k#Diic<[J*g1JdJeJdJfJ_JgJhJUHlydITHTHTHLD%g%g%g+sih@J&z+sUHxGlvIuIuBg9qiJ$k;JjJGr HVHkJ`ilJmJnJpf)<zgvHoJ|!TH+s3k'lIu@sWHT;*ldJpJqJrJrJrJsJtJuJ2J+JvJ_JvJ@J@JAIT;dITH(ckjohr@+i-tTH`lAkwJm<m<A/xJyJzJAJBJCJ9DNC#1DJEJA*kG",
"qkqk('3>[n;pFJGJGJ*I$!(2C]F|m<7<fo9HbH!ldIVH|gsm~IxG*l;JAIHJ;J;JWHkjLH[g[g[gkjTH(c+s{c+sWHdILH!lIJLH+sWHiilvJJeI9.HJKJ^pWG9qZBT;u6UFLJwsb_-HvH sjJ.k$D[J[JKFMJzCT;WH0yNJzC&z+s+s@sphdILHoh[g;e@kkj8sTHTH*l=g J*lly*ldIkjLH0fXxwJm<)<E|`HOJPJQJRJSJmxeB.ITJUJBnkG",
"qkqky%(zeDF|VJGJm9k~;pWJne>8m<7<zfXJbH!lYHYJ@siiJFohohLH0y]ldl0ykjkj[g[g[g0y0y@s&z&zWH&zdl^y[g!lZJ_g[gIJ8skjLD/yWHAIZJHr+e)l`J=g Kmi.K6eb_+KvH@K[g.k&z&z@sTH+suDLDof#KlfxeI}I}`lFCak.DOz#K#KMHj$`&1e.Doh+sdI*l*l*l*l+sr@LHceDrDd0<0<$K<IYoUG/JPrSJ2@[z%K~h&KiskG",
"qkkGd/*K=K~Jyo-K;KGHf{4%i9>Km<7<HnqHro'eVHqyzC,K'KTHLHLH(cT;ti4s+s]cVxJk7f'-0yWHzCT;T;vIWH+s+s+sYFCu)K.kkjdlu6af+s.k`ltdn~4G!KX:T;uD~Khkn[wgmD{K]KZoqhqhqhakdC`ljJ|!dCmf|!nBnBnBjJ`l`l]lfdfdfdTH^K.k@kI}8fXHXHXHxe8fxeI}LH#Ksx/K(KQz_K:K)bUG<Kmx9D;D[K}KjI|Kw~kG",
"qkkG#gx{1K2K~G3Km9k~;p4Kptn]Xh&|Zm6H) @k!GSt*g2Jmibf~g0y4seC1G3G^e.k8skjUH5K6K$J6K`i5KmiDI7K4G<J8KaG9KaG<J&g0K0KdCfdtxIkn~vIaKeJ=gkjbKHD:~:Jsx=G|!|!|!|!Vxr@.kcKdKgIJFYFeKgdeJ K KfK6K^eFGfK^e9K1GgnWF&g8)CGgK^eGG=g.kTH]Kr*<y.gUc)<UhhKiKjKkKdx)ED5lKmKnKcBv~/r",
"qkkG2g+5oKpKBb=|O9qK#:@:r:5)QzrKmD%s%sq*=e=eT;sK2J3kAIbskd]c k;eYF`I`I=g2J5K KtKuKsjJFIuVHVHeK=gYF;e;e.kdI.k;efdjfmfcevKn~IlwKxKGG8scKldKc^pGdce;eyKdCfvfdEiFezKAK*==g~etihdxKjdeKgd`ieK`igdtJ<J<JCGHk5G'G3GlJsjsj.i+i8sfd=e2t<y4!3dn}BK]'CK$1DKEKFK]%GKHK>y2@/r",
"qk/rQ;IKJKc6KKH}UuLK8x@:5%P,I,MKmdNKaIr*txwc)e'e]K]KTH@kfvdCdC`l|!VxVxfd@kOKOKOK-k;e.k.k;eOKOKPK!l!lEiQKRKSK)eTK}e sJdydVGLDUK;FjdI}xK@KVKUe:gtxdCdk@exebkdCohWKXKbsOKEiEiEiEiEiEi@kOKOK'eEi[g@koh8fxe|ewcroHdGdWe7eAkEraIpfaIrdVc3dFuYK|wZK>8ZIMG>m`K L<Kzt)E/r",
"qkqk7,.LA@+L:>@LH}NuO}%FVkr%I,MK#L|HfepHsH$L$L%L&L$Lfo*LAf*L=L-L-L;L;L*LwH>LZrwHHnlH,L,L9H5H9H9H5HeoeoZmmdIdsd'LuH3e)Lo:n~NJ3y1kAuYJ@Jjc(d(l8gId%A3evd8g8gng:Jwgwgwgwgwgpe*ewdwd!LB5qd<y<yGdcHAkpfbHbHws%smDmdmdmdmdmDmdmD9HGdcdZc3d~L.${LZK]LZIF|^L/L2K(L_L9D/r",
"qk/rR=:L+h]L<L[L[LAH}L.5Vkf,|LMK1L2LFr7<sh[fFrFrIDmgm<mgmgg2IDIDPlg2g2mgg2g2m<g2g2IDmgg2mgmgL^mgg2g2g2g2g2g20<m<3d3d3d3d+H3L*ecd7Hrx%A7dXh|L!I>H>H>H4L4L4Lygn~+HlgUcUcVcVcYiVcvx+H+H+HWGWGWGWGWGWGWGWG HWGWGWGWGWG+HDh5L5L6LACl!VcXcFu7Lv08L]LZIF|~J2K9L8,nk0L/r",
"qkkG3f%paLbL$!$!$!QIcLdLeLUBfLcz[{zei6gLAu9KCG3G3G3G$J$JEICGgkgkeCeCNl jhLDqDqiLsmNlNlk}sm jiL j jsmiLsmk}|g$i$i&ijL=ku6hoOKkLlL-GtigdidBxmLhCCBtjzC/y/yT;uKSFGGGGGGtKFG9K3G2GeCeCeC&i=k6x1C~c~cHb1C1C1C1C-tHbhi<c~cHbJbJbu%6xZDTcm<nLoLpL8L]LZIqLV8=|=|HKrLsL/r",
"qk/rk<tLx7c}$!$!$!=|$1iuG!/)@<cz1e#k#DC;C;hquLC;uLuLC;hqiqC;7t4CuE,AuEhqiqz#EqmqOHxjxj}p=nyj+j@j8j8j5ClqvLwL6r7wxLyLzLuE+Cs%ALBLCLDL~F~Fx1~F~F~F<F(#ELFLALEL6C6CGLGLHLILJLJLKLHLGLLLALz#OHIIML1&T>le$b;ulekCT>kC3s/i1&pjWl=nNL%.mgm<OLPLQL9L]L=K>8<4[L[LRLSL]*qk",
"qk/ra>~:=*TL$!$!$!@LUL~:G!63VLMK@fl r@Bg9.}c^Bqy'l[J[J'lWL^B} uz} } } uz&zRkRkd+9fI t)_pJbt)_p2kuzc t)XLhihiI YLYL2o2oYLkv _kv1k0z} }cVb^B^e)iqy#D4s3'ph$k-t9s#Dqy)i9q)lHk[J'l=k=kxG9.9.uz-tZLP]/c>J9fC${c$kP]r@r@&sv>v>jD@ie%H&m<VcLy`L M.M]L]L>8ZK]wf{~hRL]*/r",
"qkkG+M<L@H/'@M$!$![L=K#MG!h6$MczAkRpakly]cr@'-l-%g{c_cI RkP]u&u&r@r@b&)cu&'-C$d+d+d+hi9s9suzuz9s3'_cu&9fte|.'&U$U$tevete`ll-r@/ckvP]kvd+/c%g%gu&'-9f9f7f9fe%'-'-9f7f7f7f7f7frhteveveveveqh2e|E|EY&l tGJk#k#k/oC$l-'-'-+Dl->Jv&$.)<3d%M&M Mc6QIH}AH*M<L[L=M-M/=/r",
"qkqk;M>M,M fqD'M,<)M!M&eKh+K>M~MDdvH7H syf{Myfyfceeccecececeyfecld#fecze|f[{<e<eAkrehkAkAkWe<yrdmdmdHnmdmdmdzfmdzfmdmdzfmdmdmdHnHnmdmdHnmdzfzfzf%Afofo%Acd%A]M%A%A]M%Azfzfzffo%Acd%Azf%AmdzfHnzfzf%A%AmdKdDcIdcd8g]y]yfo%A%A%AwH^M/M(MD=c:E<(MA5p*A5A5A5n>5D_Mqk",
"/rmsms/r/r/r/r/r:Mms/r/r:M/r:MkG<M<MNfNfNfNf<MNfNf[M[M[M}M}M}M[M}M[M}M[M<M}M}M}M}M}M}M}M[M}M}M}M[M}M}M}M}M}M}MNf[M}M}M[M}M}M}M}M}M}M}M}M}MNf[MNfNf<M}M}M}M}M<MNf<M[M[MNf}M[M}M}MNfNf}MNf}M[M[MNf<M[M<M<M}MNfNf}M}M}M}M}M}M}M}MNf:Mmsqk/rmsms/r/rkGkG/rmsms:M:M/r"};
