/* XPM */
static char * kawara_E_xpm[] = {
"128 128 8062 2",
"  	c #FF00FF",
". 	c #523928",
"+ 	c #533B2B",
"@ 	c #4D3B2F",
"# 	c #38271F",
"$ 	c #523A28",
"% 	c #533823",
"& 	c #533926",
"* 	c #211814",
"= 	c #895F42",
"- 	c #A97249",
"; 	c #B2794C",
"> 	c #885A39",
", 	c #5C4030",
"' 	c #22160F",
") 	c #2F2019",
"! 	c #694935",
"~ 	c #8A5E3B",
"{ 	c #AD7649",
"] 	c #AB7548",
"^ 	c #8A603F",
"/ 	c #322417",
"( 	c #6E4D37",
"_ 	c #825536",
": 	c #8D5D3B",
"< 	c #92613C",
"[ 	c #492B1B",
"} 	c #482C1E",
"| 	c #3C2519",
"1 	c #180F0A",
"2 	c #472C1C",
"3 	c #4E301E",
"4 	c #52301C",
"5 	c #A46F44",
"6 	c #97643D",
"7 	c #8F5E3A",
"8 	c #5A3F2C",
"9 	c #A2714C",
"0 	c #623B22",
"a 	c #8E5E3C",
"b 	c #64412B",
"c 	c #472B1D",
"d 	c #3A2517",
"e 	c #393A13",
"f 	c #262F11",
"g 	c #3B291E",
"h 	c #473325",
"i 	c #261911",
"j 	c #724F34",
"k 	c #3A2619",
"l 	c #382419",
"m 	c #6F4D33",
"n 	c #2E1E15",
"o 	c #24160F",
"p 	c #4B3528",
"q 	c #150D0A",
"r 	c #2C3A19",
"s 	c #3C501B",
"t 	c #40561C",
"u 	c #324010",
"v 	c #3B3F15",
"w 	c #3F2819",
"x 	c #543220",
"y 	c #7D5336",
"z 	c #8C5D3A",
"A 	c #593C1F",
"B 	c #5F4326",
"C 	c #2D2115",
"D 	c #FE00FE",
"E 	c #624631",
"F 	c #865B3B",
"G 	c #5C3821",
"H 	c #956745",
"I 	c #43291C",
"J 	c #301D13",
"K 	c #2B1C11",
"L 	c #263905",
"M 	c #33500B",
"N 	c #557B1D",
"O 	c #52761C",
"P 	c #466518",
"Q 	c #385016",
"R 	c #273716",
"S 	c #10170A",
"T 	c #344419",
"U 	c #42561D",
"V 	c #38481A",
"W 	c #10130C",
"X 	c #34251A",
"Y 	c #8A6142",
"Z 	c #A3714A",
"` 	c #7B5439",
" .	c #25170F",
"..	c #150D09",
"+.	c #9F6F49",
"@.	c #A46F45",
"#.	c #603C26",
"$.	c #2B1B13",
"%.	c #311F16",
"&.	c #6D482E",
"*.	c #A77348",
"=.	c #946643",
"-.	c #130C09",
";.	c #21140D",
">.	c #7B5235",
",.	c #A8754B",
"'.	c #966946",
").	c #2A1B13",
"!.	c #181C0D",
"~.	c #3C4716",
"{.	c #52641E",
"].	c #54691C",
"^.	c #526B1E",
"/.	c #546E1E",
"(.	c #5A7922",
"_.	c #5A7C1E",
":.	c #54761B",
"<.	c #3F5D13",
"[.	c #324A0F",
"}.	c #473E1A",
"|.	c #3A2419",
"1.	c #4C2F1F",
"2.	c #956643",
"3.	c #54401E",
"4.	c #4F4A20",
"5.	c #815E45",
"6.	c #56351F",
"7.	c #59371F",
"8.	c #865C3F",
"9.	c #482D1F",
"0.	c #2D1B14",
"a.	c #654022",
"b.	c #3D3D0D",
"c.	c #345603",
"d.	c #406508",
"e.	c #3F6209",
"f.	c #415F0F",
"g.	c #4A6018",
"h.	c #425A18",
"i.	c #456517",
"j.	c #557616",
"k.	c #567719",
"l.	c #4C6A18",
"m.	c #304910",
"n.	c #463A19",
"o.	c #3E2515",
"p.	c #8A6141",
"q.	c #94633F",
"r.	c #75482B",
"s.	c #4B2F1F",
"t.	c #392316",
"u.	c #261710",
"v.	c #644833",
"w.	c #704F36",
"x.	c #704F35",
"y.	c #6F4E34",
"z.	c #6E4E34",
"A.	c #6D4E34",
"B.	c #6E4D34",
"C.	c #6E4F34",
"D.	c #6E4F35",
"E.	c #6E4F36",
"F.	c #684B33",
"G.	c #64452F",
"H.	c #A87349",
"I.	c #905C36",
"J.	c #755037",
"K.	c #291912",
"L.	c #573C28",
"M.	c #6C4B33",
"N.	c #6B4B32",
"O.	c #6C4C33",
"P.	c #6C4B32",
"Q.	c #6D4C33",
"R.	c #6D4D32",
"S.	c #6C4E34",
"T.	c #675034",
"U.	c #5F5332",
"V.	c #545329",
"W.	c #4D5127",
"X.	c #3E4921",
"Y.	c #38441A",
"Z.	c #685337",
"`.	c #513A2A",
" +	c #281910",
".+	c #80583A",
"++	c #AA764A",
"@+	c #9D6A42",
"#+	c #593E2A",
"$+	c #6F5037",
"%+	c #6E4E33",
"&+	c #6E4D32",
"*+	c #6D4D33",
"=+	c #725137",
"-+	c #634530",
";+	c #422B1C",
">+	c #332015",
",+	c #68452C",
"'+	c #A87347",
")+	c #96633D",
"!+	c #6C4B35",
"~+	c #432615",
"{+	c #4C3A1A",
"]+	c #344713",
"^+	c #2E4212",
"/+	c #445716",
"(+	c #576D1A",
"_+	c #56701A",
":+	c #4B6716",
"<+	c #395611",
"[+	c #2D480E",
"}+	c #2E4A0E",
"|+	c #34530E",
"1+	c #35550E",
"2+	c #304C0B",
"3+	c #5F4521",
"4+	c #613D24",
"5+	c #21160F",
"6+	c #503222",
"7+	c #8D6242",
"8+	c #6C492B",
"9+	c #554120",
"0+	c #48321F",
"a+	c #79583F",
"b+	c #4F301C",
"c+	c #6A4C38",
"d+	c #41281C",
"e+	c #2A1A13",
"f+	c #2E1B14",
"g+	c #643E27",
"h+	c #583D1D",
"i+	c #243A04",
"j+	c #253E04",
"k+	c #333510",
"l+	c #5E3C21",
"m+	c #704629",
"n+	c #784D2C",
"o+	c #494418",
"p+	c #2C470A",
"q+	c #3F4113",
"r+	c #6D4825",
"s+	c #6E4724",
"t+	c #754728",
"u+	c #9A6946",
"v+	c #7D4928",
"w+	c #663E24",
"x+	c #482D1D",
"y+	c #412719",
"z+	c #794B2E",
"A+	c #8E5E39",
"B+	c #96633C",
"C+	c #98643C",
"D+	c #9B673F",
"E+	c #9C683F",
"F+	c #9C673F",
"G+	c #9A663D",
"H+	c #99653E",
"I+	c #915F3A",
"J+	c #835736",
"K+	c #8A5F3E",
"L+	c #8E5A38",
"M+	c #7A4829",
"N+	c #3C2415",
"O+	c #342115",
"P+	c #65432C",
"Q+	c #6D472B",
"R+	c #7A5033",
"S+	c #7D5132",
"T+	c #855837",
"U+	c #8B5C39",
"V+	c #8D5D39",
"W+	c #905F39",
"X+	c #906039",
"Y+	c #8D5E38",
"Z+	c #5D4A23",
"`+	c #445514",
" @	c #58741A",
".@	c #4E6C19",
"+@	c #2D4C0D",
"@@	c #3B5F0D",
"#@	c #5F6E23",
"$@	c #4F321D",
"%@	c #2B1A11",
"&@	c #3E2618",
"*@	c #724629",
"=@	c #7C4D2C",
"-@	c #7F583C",
";@	c #835A3A",
">@	c #94623B",
",@	c #96623B",
"'@	c #95623A",
")@	c #946139",
"!@	c #925F37",
"~@	c #8F5C36",
"{@	c #8D5B36",
"]@	c #8A5A35",
"^@	c #8A5B35",
"/@	c #876C34",
"(@	c #856C33",
"_@	c #7A4A29",
":@	c #683F26",
"<@	c #27180F",
"[@	c #502F1C",
"}@	c #835434",
"|@	c #7F4C2C",
"1@	c #684026",
"2@	c #4D2B1A",
"3@	c #7B4828",
"4@	c #634221",
"5@	c #634222",
"6@	c #634521",
"7@	c #4F431D",
"8@	c #4A4320",
"9@	c #4B3E1F",
"0@	c #573F21",
"a@	c #5D4023",
"b@	c #48391A",
"c@	c #2B3B0C",
"d@	c #29460A",
"e@	c #3E3B14",
"f@	c #53351F",
"g@	c #482D1C",
"h@	c #251811",
"i@	c #492C1E",
"j@	c #775239",
"k@	c #734F2F",
"l@	c #4F441C",
"m@	c #483620",
"n@	c #3D2E25",
"o@	c #6F4C35",
"p@	c #4F2F1C",
"q@	c #51321F",
"r@	c #3F281C",
"s@	c #382317",
"t@	c #311D16",
"u@	c #613B24",
"v@	c #6C4227",
"w@	c #614323",
"x@	c #634122",
"y@	c #673E23",
"z@	c #613821",
"A@	c #5C3520",
"B@	c #55311E",
"C@	c #4F331E",
"D@	c #402D18",
"E@	c #4B2F1C",
"F@	c #58351F",
"G@	c #5C371F",
"H@	c #5D3821",
"I@	c #432D20",
"J@	c #805030",
"K@	c #7C4828",
"L@	c #613A23",
"M@	c #41281B",
"N@	c #402618",
"O@	c #613922",
"P@	c #603920",
"Q@	c #653A20",
"R@	c #6A3D23",
"S@	c #6E4025",
"T@	c #714225",
"U@	c #7A4727",
"V@	c #794728",
"W@	c #764527",
"X@	c #734326",
"Y@	c #704125",
"Z@	c #6A3F24",
"`@	c #51301E",
" #	c #926544",
".#	c #7D4929",
"+#	c #704327",
"@#	c #3C2417",
"##	c #774629",
"$#	c #704225",
"%#	c #6E4024",
"&#	c #744426",
"*#	c #764526",
"=#	c #774526",
"-#	c #774627",
";#	c #724426",
">#	c #694224",
",#	c #5B4021",
"'#	c #563C20",
")#	c #373814",
"!#	c #415B14",
"~#	c #56581D",
"{#	c #55351F",
"]#	c #352017",
"^#	c #683F25",
"/#	c #774728",
"(#	c #6A442C",
"_#	c #331D11",
":#	c #7B492A",
"<#	c #7C4929",
"[#	c #7C4928",
"}#	c #7B4A29",
"|#	c #7C4A29",
"1#	c #7C492A",
"2#	c #6A4424",
"3#	c #553F1C",
"4#	c #636320",
"5#	c #5B741E",
"6#	c #6C5725",
"7#	c #7D4C2B",
"8#	c #76482B",
"9#	c #2E1C13",
"0#	c #472B1B",
"a#	c #814C2C",
"b#	c #7B4C2C",
"c#	c #291911",
"d#	c #4F2E1C",
"e#	c #5D3720",
"f#	c #613A22",
"g#	c #633B22",
"h#	c #623B24",
"i#	c #59351F",
"j#	c #55321D",
"k#	c #54331E",
"l#	c #54331F",
"m#	c #53341F",
"n#	c #48331A",
"o#	c #313210",
"p#	c #422C19",
"q#	c #3E2718",
"r#	c #372217",
"s#	c #2E1D14",
"t#	c #2E1D15",
"u#	c #5F4230",
"v#	c #734F33",
"w#	c #503D1A",
"x#	c #513A23",
"y#	c #473224",
"z#	c #603D28",
"A#	c #52311E",
"B#	c #4C2F1E",
"C#	c #392318",
"D#	c #311E15",
"E#	c #321F18",
"F#	c #321E17",
"G#	c #311E17",
"H#	c #362117",
"I#	c #352115",
"J#	c #3A2114",
"K#	c #4E2E1E",
"L#	c #53311F",
"M#	c #54311F",
"N#	c #5B3621",
"O#	c #4B3B1A",
"P#	c #58471F",
"Q#	c #6C3F23",
"R#	c #6B3E23",
"S#	c #6D4024",
"T#	c #7B4728",
"U#	c #794628",
"V#	c #553320",
"W#	c #3B2316",
"X#	c #301E16",
"Y#	c #3A2317",
"Z#	c #6E4126",
"`#	c #704126",
" $	c #6F4125",
".$	c #714227",
"+$	c #774729",
"@$	c #6E4227",
"#$	c #7F4C2E",
"$$	c #845131",
"%$	c #462818",
"&$	c #7B5337",
"*$	c #7A4728",
"=$	c #693E24",
"-$	c #25170E",
";$	c #331E14",
">$	c #76462A",
",$	c #724428",
"'$	c #6A3E23",
")$	c #653B22",
"!$	c #603820",
"~$	c #613A21",
"{$	c #5F3921",
"]$	c #5B361F",
"^$	c #593621",
"/$	c #56341F",
"($	c #55351E",
"_$	c #4F341C",
":$	c #3A3716",
"<$	c #52361F",
"[$	c #583621",
"}$	c #331F15",
"|$	c #271911",
"1$	c #764728",
"2$	c #5B3721",
"3$	c #291810",
"4$	c #704228",
"5$	c #78472A",
"6$	c #79492B",
"7$	c #7A492C",
"8$	c #704627",
"9$	c #50411B",
"0$	c #5E4420",
"a$	c #764929",
"b$	c #7F4D2C",
"c$	c #7E4E2F",
"d$	c #311E14",
"e$	c #3C2518",
"f$	c #593521",
"g$	c #834C2C",
"h$	c #7C4C2C",
"i$	c #301F13",
"j$	c #342217",
"k$	c #3D2416",
"l$	c #3B2417",
"m$	c #40281A",
"n$	c #462A1A",
"o$	c #4E2F1C",
"p$	c #50301C",
"q$	c #4A2D1B",
"r$	c #462918",
"s$	c #452A19",
"t$	c #462B1A",
"u$	c #402819",
"v$	c #2D1C12",
"w$	c #293A0F",
"x$	c #2F2514",
"y$	c #362116",
"z$	c #41271A",
"A$	c #6C4A31",
"B$	c #563723",
"C$	c #3F281B",
"D$	c #3A2518",
"E$	c #573522",
"F$	c #543320",
"G$	c #4C2F1D",
"H$	c #372117",
"I$	c #321E18",
"J$	c #4F301E",
"K$	c #54321E",
"L$	c #5E3722",
"M$	c #623A23",
"N$	c #653B23",
"O$	c #663E22",
"P$	c #724627",
"Q$	c #774628",
"R$	c #714327",
"S$	c #56321E",
"T$	c #4E3020",
"U$	c #382318",
"V$	c #382217",
"W$	c #53311E",
"X$	c #54311E",
"Y$	c #55311D",
"Z$	c #5B3520",
"`$	c #593420",
" %	c #4A2C1B",
".%	c #422819",
"+%	c #3F2618",
"@%	c #3D2517",
"#%	c #402619",
"$%	c #472A1A",
"%%	c #56331F",
"&%	c #382115",
"*%	c #694026",
"=%	c #271810",
"-%	c #311D17",
";%	c #43281A",
">%	c #492A1A",
",%	c #482B1B",
"'%	c #482B1A",
")%	c #472B1A",
"!%	c #472A19",
"~%	c #4A2B1A",
"{%	c #4B2C1A",
"]%	c #4E2D1B",
"^%	c #53311D",
"/%	c #53331E",
"(%	c #443F19",
"_%	c #563A1E",
":%	c #53331F",
"<%	c #311E16",
"[%	c #271811",
"}%	c #784728",
"|%	c #5A3520",
"1%	c #271711",
"2%	c #382216",
"3%	c #412718",
"4%	c #442719",
"5%	c #482A1A",
"6%	c #4C2C1B",
"7%	c #4D2C1A",
"8%	c #58351E",
"9%	c #59351E",
"0%	c #593520",
"a%	c #362218",
"b%	c #372114",
"c%	c #77492B",
"d%	c #352216",
"e%	c #3D271A",
"f%	c #583420",
"g%	c #54321F",
"h%	c #53321E",
"i%	c #50301D",
"j%	c #3F2619",
"k%	c #341F15",
"l%	c #292C0D",
"m%	c #263C09",
"n%	c #2D430F",
"o%	c #322017",
"p%	c #331F18",
"q%	c #2B1911",
"r%	c #3A2217",
"s%	c #5E3B26",
"t%	c #563521",
"u%	c #462C1D",
"v%	c #382418",
"w%	c #543421",
"x%	c #563421",
"y%	c #372218",
"z%	c #22140D",
"A%	c #362017",
"B%	c #3D2519",
"C%	c #44281A",
"D%	c #44291A",
"E%	c #764629",
"F%	c #77472A",
"G%	c #4A2E1E",
"H%	c #372318",
"I%	c #4C2D1D",
"J%	c #4E2E1C",
"K%	c #4E2D1C",
"L%	c #4F2F1D",
"M%	c #51301D",
"N%	c #563321",
"O%	c #362015",
"P%	c #6B3F26",
"Q%	c #4E2F1D",
"R%	c #301E17",
"S%	c #3D2418",
"T%	c #52301E",
"U%	c #55321F",
"V%	c #55331F",
"W%	c #543420",
"X%	c #503F1E",
"Y%	c #573B21",
"Z%	c #5C3721",
"`%	c #784729",
" &	c #482A19",
".&	c #4A2B1B",
"+&	c #4B2C1B",
"@&	c #4D2D1D",
"#&	c #4E2E1D",
"$&	c #4F2F1E",
"%&	c #50301F",
"&&	c #4F301F",
"*&	c #50301E",
"=&	c #4D2E1E",
"-&	c #342018",
";&	c #382215",
">&	c #452A1B",
",&	c #5E3923",
"'&	c #382319",
")&	c #4B2C1C",
"!&	c #4A2C1C",
"~&	c #472A1B",
"{&	c #40261A",
"]&	c #3B2318",
"^&	c #321E16",
"/&	c #2E2313",
"(&	c #321F16",
"_&	c #241710",
":&	c #623C27",
"<&	c #53321F",
"[&	c #553420",
"}&	c #342116",
"|&	c #543522",
"1&	c #563522",
"2&	c #533221",
"3&	c #281811",
"4&	c #1E120D",
"5&	c #281711",
"6&	c #2C1A14",
"7&	c #331E17",
"8&	c #2F1D15",
"9&	c #2E1C15",
"0&	c #341F18",
"a&	c #3C2619",
"b&	c #40281B",
"c&	c #321D15",
"d&	c #352116",
"e&	c #563420",
"f&	c #472B1C",
"g&	c #281911",
"h&	c #301D17",
"i&	c #341F16",
"j&	c #331E16",
"k&	c #341E16",
"l&	c #331D16",
"m&	c #331D15",
"n&	c #321D16",
"o&	c #271912",
"p&	c #4D2F1E",
"q&	c #331F14",
"r&	c #2A1912",
"s&	c #321F17",
"t&	c #3A2315",
"u&	c #3F271B",
"v&	c #3A2418",
"w&	c #3C2618",
"x&	c #2D1D13",
"y&	c #332018",
"z&	c #301C16",
"A&	c #2B1913",
"B&	c #281812",
"C&	c #261711",
"D&	c #1B110D",
"E&	c #573420",
"F&	c #553422",
"G&	c #251710",
"H&	c #291A13",
"I&	c #27170F",
"J&	c #49271C",
"K&	c #6A3828",
"L&	c #623223",
"M&	c #5B2F21",
"N&	c #3F2018",
"O&	c #25150F",
"P&	c #321D17",
"Q&	c #22150F",
"R&	c #3A2316",
"S&	c #482B19",
"T&	c #382014",
"U&	c #25150E",
"V&	c #2C1A13",
"W&	c #281A12",
"X&	c #372319",
"Y&	c #38241A",
"Z&	c #392419",
"`&	c #352118",
" *	c #2F1C16",
".*	c #2C1B14",
"+*	c #291812",
"@*	c #251610",
"#*	c #23150F",
"$*	c #2A1913",
"%*	c #301D15",
"&*	c #332017",
"**	c #362317",
"=*	c #23140E",
"-*	c #372115",
";*	c #362217",
">*	c #2D1B12",
",*	c #21130D",
"'*	c #2E1D13",
")*	c #22150D",
"!*	c #21120B",
"~*	c #26140C",
"{*	c #25140D",
"]*	c #261610",
"^*	c #2B1A13",
"/*	c #301D16",
"(*	c #2F1D14",
"_*	c #281A11",
":*	c #201610",
"<*	c #1F1610",
"[*	c #1B120D",
"}*	c #20140F",
"|*	c #1F130E",
"1*	c #271410",
"2*	c #2F1812",
"3*	c #341B15",
"4*	c #361B16",
"5*	c #381C16",
"6*	c #381C15",
"7*	c #341D14",
"8*	c #25140E",
"9*	c #1A100B",
"0*	c #3A2417",
"a*	c #362115",
"b*	c #703B29",
"c*	c #783E2A",
"d*	c #783E2B",
"e*	c #793F2C",
"f*	c #653426",
"g*	c #3D1E17",
"h*	c #2C1C11",
"i*	c #342014",
"j*	c #402617",
"k*	c #6E4226",
"l*	c #704226",
"m*	c #6F4226",
"n*	c #502E1D",
"o*	c #26150F",
"p*	c #1C120D",
"q*	c #38251B",
"r*	c #36231A",
"s*	c #281912",
"t*	c #2F1D16",
"u*	c #261611",
"v*	c #20120D",
"w*	c #22130E",
"x*	c #361E15",
"y*	c #47291B",
"z*	c #4C2B1C",
"A*	c #4F2D1D",
"B*	c #48281A",
"C*	c #41241A",
"D*	c #3F231A",
"E*	c #3A2017",
"F*	c #2B1912",
"G*	c #1A110B",
"H*	c #2B1C12",
"I*	c #322016",
"J*	c #2C1C13",
"K*	c #281710",
"L*	c #301B13",
"M*	c #4D2D1C",
"N*	c #693D24",
"O*	c #54311C",
"P*	c #27170E",
"Q*	c #21140C",
"R*	c #4E2D1A",
"S*	c #744325",
"T*	c #7A4627",
"U*	c #7B4626",
"V*	c #794424",
"W*	c #55281B",
"X*	c #472118",
"Y*	c #381D16",
"Z*	c #2B1A12",
"`*	c #2F1C15",
" =	c #1D120D",
".=	c #211510",
"+=	c #30251E",
"@=	c #372F28",
"#=	c #3C342C",
"$=	c #3D352E",
"%=	c #3C342D",
"&=	c #372F29",
"*=	c #4B3024",
"==	c #44281C",
"-=	c #271812",
";=	c #3E1E18",
">=	c #421F1A",
",=	c #411F18",
"'=	c #442019",
")=	c #46221A",
"!=	c #47231B",
"~=	c #46231A",
"{=	c #43221A",
"]=	c #41211A",
"^=	c #402019",
"/=	c #251510",
"(=	c #301D14",
"_=	c #3E2719",
":=	c #48291B",
"<=	c #773D2B",
"[=	c #79402C",
"}=	c #7A402C",
"|=	c #5F3124",
"1=	c #44221A",
"2=	c #2D1610",
"3=	c #18100B",
"4=	c #382316",
"5=	c #704326",
"6=	c #47271B",
"7=	c #42221A",
"8=	c #1F150E",
"9=	c #1E130D",
"0=	c #1E130E",
"a=	c #160E09",
"b=	c #1D110B",
"c=	c #3D2119",
"d=	c #3C1E19",
"e=	c #3A1D18",
"f=	c #512D1E",
"g=	c #5C3522",
"h=	c #5C3422",
"i=	c #5B3421",
"j=	c #573120",
"k=	c #512A20",
"l=	c #502A20",
"m=	c #502B21",
"n=	c #1B130E",
"o=	c #170F0B",
"p=	c #20150F",
"q=	c #201410",
"r=	c #1D140E",
"s=	c #311C15",
"t=	c #371E17",
"u=	c #381F17",
"v=	c #623922",
"w=	c #6F4225",
"x=	c #6F4124",
"y=	c #6E4124",
"z=	c #57331E",
"A=	c #2D1C13",
"B=	c #20140E",
"C=	c #20130D",
"D=	c #1F120D",
"E=	c #51301B",
"F=	c #7C4724",
"G=	c #7A4525",
"H=	c #7B4625",
"I=	c #703D22",
"J=	c #59291D",
"K=	c #59291E",
"L=	c #55291E",
"M=	c #2B1710",
"N=	c #1C110C",
"O=	c #22140F",
"P=	c #241510",
"Q=	c #170F0A",
"R=	c #2C1C15",
"S=	c #342921",
"T=	c #37312A",
"U=	c #36312A",
"V=	c #3A342B",
"W=	c #3B342C",
"X=	c #3A332B",
"Y=	c #543829",
"Z=	c #6C3D29",
"`=	c #4D2E1F",
" -	c #19110C",
".-	c #231510",
"+-	c #261811",
"@-	c #382119",
"#-	c #421F19",
"$-	c #401E19",
"%-	c #5B3022",
"&-	c #623626",
"*-	c #613626",
"=-	c #5C3223",
"--	c #5A3122",
";-	c #552F20",
">-	c #572F21",
",-	c #49281C",
"'-	c #3D271B",
")-	c #3E2619",
"!-	c #3D2518",
"~-	c #613423",
"{-	c #763C29",
"]-	c #773D2A",
"^-	c #552B1F",
"/-	c #45221A",
"(-	c #261510",
"_-	c #20150E",
":-	c #3D2619",
"<-	c #3A2416",
"[-	c #663D24",
"}-	c #6F4326",
"|-	c #6C4025",
"1-	c #3E1E17",
"2-	c #49231C",
"3-	c #281712",
"4-	c #40211A",
"5-	c #3D1E18",
"6-	c #593321",
"7-	c #5A3421",
"8-	c #593421",
"9-	c #573020",
"0-	c #532B20",
"a-	c #532B21",
"b-	c #4F2820",
"c-	c #512921",
"d-	c #43241C",
"e-	c #1E140F",
"f-	c #1B120C",
"g-	c #371F17",
"h-	c #3F2317",
"i-	c #6E4225",
"j-	c #6E4224",
"k-	c #663C22",
"l-	c #3E271B",
"m-	c #2A1A14",
"n-	c #2A1A12",
"o-	c #5C351D",
"p-	c #894F29",
"q-	c #7C4625",
"r-	c #7B4624",
"s-	c #64331F",
"t-	c #572920",
"u-	c #3C1F17",
"v-	c #382F26",
"w-	c #37312B",
"x-	c #35302A",
"y-	c #39332B",
"z-	c #3A332A",
"A-	c #47352A",
"B-	c #6B3E28",
"C-	c #653B28",
"D-	c #23160E",
"E-	c #301E15",
"F-	c #2C1B12",
"G-	c #4A2921",
"H-	c #3F1E18",
"I-	c #49251C",
"J-	c #643627",
"K-	c #633526",
"L-	c #613525",
"M-	c #5E3423",
"N-	c #633826",
"O-	c #643727",
"P-	c #26160F",
"Q-	c #FC00FC",
"R-	c #1E140E",
"S-	c #412518",
"T-	c #753B29",
"U-	c #773C2A",
"V-	c #793F2B",
"W-	c #7A3F2C",
"X-	c #47221A",
"Y-	c #392317",
"Z-	c #6F4127",
"`-	c #704227",
" ;	c #673C24",
".;	c #47211A",
"+;	c #46221B",
"@;	c #2F1A14",
"#;	c #3D1E19",
"$;	c #45241A",
"%;	c #5D3623",
"&;	c #5D3620",
"*;	c #603B22",
"=;	c #5D3721",
"-;	c #4D251F",
";;	c #4A241E",
">;	c #45231C",
",;	c #1D130E",
"';	c #301E14",
");	c #150F09",
"!;	c #311C16",
"~;	c #371E16",
"{;	c #54301E",
"];	c #6E4125",
"^;	c #6D4124",
"/;	c #6F4224",
"(;	c #352013",
"_;	c #63381E",
":;	c #91552B",
"<;	c #7C4624",
"[;	c #7C4725",
"};	c #784324",
"|;	c #59281E",
"1;	c #57281E",
"2;	c #422119",
"3;	c #321E14",
"4;	c #23160F",
"5;	c #3A3028",
"6;	c #39322B",
"7;	c #38312A",
"8;	c #39322A",
"9;	c #3B342A",
"0;	c #3B332A",
"a;	c #673D2A",
"b;	c #6A3C28",
"c;	c #44271A",
"d;	c #20130E",
"e;	c #4B2D21",
"f;	c #401E18",
"g;	c #512A1F",
"h;	c #633727",
"i;	c #5F3324",
"j;	c #653828",
"k;	c #653727",
"l;	c #473226",
"m;	c #3A2216",
"n;	c #5D3121",
"o;	c #793C2A",
"p;	c #773B2A",
"q;	c #6E3626",
"r;	c #7A3C2A",
"s;	c #703829",
"t;	c #401F19",
"u;	c #3F1F18",
"v;	c #160D0A",
"w;	c #342015",
"x;	c #402718",
"y;	c #5C3620",
"z;	c #6F4126",
"A;	c #5F3521",
"B;	c #4A231C",
"C;	c #623F2B",
"D;	c #45221B",
"E;	c #43201A",
"F;	c #58321F",
"G;	c #663B23",
"H;	c #5D3622",
"I;	c #5B3620",
"J;	c #5E3921",
"K;	c #603A22",
"L;	c #5E3821",
"M;	c #4F261F",
"N;	c #4B241F",
"O;	c #48241E",
"P;	c #1A100A",
"Q;	c #321E15",
"R;	c #311F15",
"S;	c #170F09",
"T;	c #472D20",
"U;	c #341C15",
"V;	c #643A22",
"W;	c #392012",
"X;	c #764525",
"Y;	c #93562A",
"Z;	c #7F4825",
"`;	c #7D4725",
" >	c #6D3922",
".>	c #58281F",
"+>	c #48221A",
"@>	c #321F15",
"#>	c #291A12",
"$>	c #563827",
"%>	c #3C3128",
"&>	c #3B332B",
"*>	c #3A322A",
"=>	c #3B342B",
"->	c #5C3928",
";>	c #6B3D29",
">>	c #5D3624",
",>	c #3C2517",
"'>	c #553928",
")>	c #623C28",
"!>	c #542B20",
"~>	c #5B3122",
"{>	c #653627",
"]>	c #5B3123",
"^>	c #1B100C",
"/>	c #FD00FD",
"(>	c #5B3F2E",
"_>	c #381F13",
":>	c #45281A",
"<>	c #713928",
"[>	c #6C3425",
"}>	c #75392A",
"|>	c #5C2D21",
"1>	c #3F1F17",
"2>	c #2E1712",
"3>	c #52301D",
"4>	c #673D24",
"5>	c #321D11",
"6>	c #693E25",
"7>	c #734526",
"8>	c #532C1F",
"9>	c #49221B",
"0>	c #2F1712",
"a>	c #1C100B",
"b>	c #9A6742",
"c>	c #552A21",
"d>	c #522822",
"e>	c #613623",
"f>	c #623722",
"g>	c #633922",
"h>	c #603921",
"i>	c #5E3922",
"j>	c #603A23",
"k>	c #5E3721",
"l>	c #52271F",
"m>	c #4F2520",
"n>	c #1A110D",
"o>	c #1E120C",
"p>	c #1D110A",
"q>	c #865B3D",
"r>	c #4D2B1B",
"s>	c #563220",
"t>	c #6E4026",
"u>	c #3A2215",
"v>	c #3F271A",
"w>	c #8E542C",
"x>	c #915529",
"y>	c #824A26",
"z>	c #774123",
"A>	c #5C2A1E",
"B>	c #4E241C",
"C>	c #2C1B11",
"D>	c #2E1C14",
"E>	c #784E33",
"F>	c #5E432F",
"G>	c #3A322B",
"H>	c #38322A",
"I>	c #442F23",
"J>	c #6F402B",
"K>	c #6B3E2A",
"L>	c #402818",
"M>	c #9C6844",
"N>	c #5C3122",
"O>	c #623526",
"P>	c #633627",
"Q>	c #552E21",
"R>	c #643526",
"S>	c #4B3324",
"T>	c #563623",
"U>	c #4F2C1D",
"V>	c #5E3221",
"W>	c #773B29",
"X>	c #783B29",
"Y>	c #5D2C1F",
"Z>	c #7D3E2E",
"`>	c #74392A",
" ,	c #381C17",
".,	c #170D0A",
"+,	c #724225",
"@,	c #58341F",
"#,	c #6C3F26",
"$,	c #6D4025",
"%,	c #95623B",
"&,	c #663C25",
"*,	c #6D3E26",
"=,	c #42201A",
"-,	c #24140F",
";,	c #311D15",
">,	c #352117",
",,	c #22120C",
"',	c #B0754A",
"),	c #613324",
"!,	c #552822",
"~,	c #532822",
"{,	c #4D231D",
"],	c #57311F",
"^,	c #5F3A21",
"/,	c #5A3120",
"(,	c #50261F",
"_,	c #522620",
":,	c #43211C",
"<,	c #42271A",
"[,	c #291811",
"},	c #8E5E3B",
"|,	c #79482A",
"1,	c #8B5632",
"2,	c #482516",
"3,	c #6D3F26",
"4,	c #6C3E26",
"5,	c #2D1A12",
"6,	c #2E1B13",
"7,	c #2D1B13",
"8,	c #321C11",
"9,	c #93562D",
"0,	c #95562B",
"a,	c #8C5028",
"b,	c #714023",
"c,	c #794325",
"d,	c #622C1E",
"e,	c #4B221A",
"f,	c #3B2317",
"g,	c #543727",
"h,	c #815538",
"i,	c #3B332C",
"j,	c #332922",
"k,	c #663C2A",
"l,	c #6B3F2B",
"m,	c #1F130C",
"n,	c #422719",
"o,	c #8E5E3D",
"p,	c #815034",
"q,	c #563022",
"r,	c #633827",
"s,	c #653929",
"t,	c #5A3123",
"u,	c #5A2F21",
"v,	c #653526",
"w,	c #3B1D17",
"x,	c #5F3F28",
"y,	c #67422A",
"z,	c #633423",
"A,	c #743B28",
"B,	c #743A28",
"C,	c #733A28",
"D,	c #411E17",
"E,	c #72372A",
"F,	c #54281E",
"G,	c #381B17",
"H,	c #251410",
"I,	c #140C0A",
"J,	c #26130A",
"K,	c #97633E",
"L,	c #714224",
"M,	c #8F5E3C",
"N,	c #522C1D",
"O,	c #2F1913",
"P,	c #372116",
"Q,	c #412818",
"R,	c #372016",
"S,	c #2B1812",
"T,	c #8E5B39",
"U,	c #74432C",
"V,	c #522721",
"W,	c #532821",
"X,	c #5C4020",
"Y,	c #603721",
"Z,	c #5D3820",
"`,	c #422219",
" '	c #43201B",
".'	c #44201B",
"+'	c #361C18",
"@'	c #130C07",
"#'	c #311D13",
"$'	c #4B2D1C",
"%'	c #905C37",
"&'	c #794929",
"*'	c #6C4023",
"='	c #754526",
"-'	c #A0673C",
";'	c #3F1E13",
">'	c #6B3D25",
",'	c #502D1D",
"''	c #794726",
")'	c #9A5A2D",
"!'	c #96572B",
"~'	c #804925",
"{'	c #6A3D21",
"]'	c #63371E",
"^'	c #653520",
"/'	c #351E15",
"('	c #2C1A12",
"_'	c #402519",
":'	c #150C07",
"<'	c #68442D",
"['	c #3A3128",
"}'	c #3D342D",
"|'	c #383129",
"1'	c #352E27",
"2'	c #362319",
"3'	c #452B1E",
"4'	c #211610",
"5'	c #432919",
"6'	c #442819",
"7'	c #342016",
"8'	c #341E15",
"9'	c #65412D",
"0'	c #553221",
"a'	c #9C6843",
"b'	c #653928",
"c'	c #673C2B",
"d'	c #643828",
"e'	c #5D3124",
"f'	c #50271C",
"g'	c #3E1F19",
"h'	c #402516",
"i'	c #AC7146",
"j'	c #9B603E",
"k'	c #723A28",
"l'	c #5E2F21",
"m'	c #361A15",
"n'	c #45201A",
"o'	c #351A16",
"p'	c #301915",
"q'	c #180E0A",
"r'	c #362016",
"s'	c #23130D",
"t'	c #784F32",
"u'	c #9F6940",
"v'	c #8E5B35",
"w'	c #976137",
"x'	c #A46C40",
"y'	c #795033",
"z'	c #381D17",
"A'	c #24130F",
"B'	c #291711",
"C'	c #311D14",
"D'	c #352015",
"E'	c #462A19",
"F'	c #492A19",
"G'	c #331C14",
"H'	c #371C16",
"I'	c #4D2A1E",
"J'	c #6C3C25",
"K'	c #663624",
"L'	c #582B20",
"M'	c #582C1F",
"N'	c #5B3121",
"O'	c #5C3421",
"P'	c #5B3120",
"Q'	c #572D20",
"R'	c #43211B",
"S'	c #321A15",
"T'	c #331B17",
"U'	c #402518",
"V'	c #3E2518",
"W'	c #3D2318",
"X'	c #3F2518",
"Y'	c #3E2418",
"Z'	c #3D2217",
"`'	c #875836",
" )	c #9D663D",
".)	c #895631",
"+)	c #7D4C2C",
"@)	c #935C35",
"#)	c #9B623A",
"$)	c #3A1D14",
"%)	c #391F16",
"&)	c #341D15",
"*)	c #22140E",
"=)	c #331D13",
"-)	c #714324",
";)	c #8E532B",
">)	c #8D5329",
",)	c #844F28",
"')	c #854D28",
"))	c #864C27",
"!)	c #894F27",
"~)	c #724224",
"{)	c #372015",
"])	c #2D1A11",
"^)	c #462619",
"/)	c #351F16",
"()	c #1B110B",
"_)	c #37271D",
":)	c #3C3229",
"<)	c #3D352D",
"[)	c #3A3129",
"})	c #45372C",
"|)	c #4C392C",
"1)	c #50372A",
"2)	c #19140F",
"3)	c #271A12",
"4)	c #1E150E",
"5)	c #341F14",
"6)	c #432918",
"7)	c #452918",
"8)	c #503324",
"9)	c #B47B4C",
"0)	c #A56E46",
"a)	c #8D5B3A",
"b)	c #815133",
"c)	c #895435",
"d)	c #845237",
"e)	c #401F18",
"f)	c #3C1E17",
"g)	c #27130A",
"h)	c #9B6743",
"i)	c #422217",
"j)	c #4F2E24",
"k)	c #42231B",
"l)	c #341A15",
"m)	c #341B16",
"n)	c #351C18",
"o)	c #2A1713",
"p)	c #1D100D",
"q)	c #3C2318",
"r)	c #43261A",
"s)	c #321D14",
"t)	c #452A1D",
"u)	c #6B452B",
"v)	c #7D5233",
"w)	c #6D472D",
"x)	c #371C13",
"y)	c #321B15",
"z)	c #311B15",
"A)	c #281510",
"B)	c #180E0B",
"C)	c #301C11",
"D)	c #422617",
"E)	c #422616",
"F)	c #4A2A18",
"G)	c #56311B",
"H)	c #5E341D",
"I)	c #3E2419",
"J)	c #22120E",
"K)	c #301A14",
"L)	c #3C2118",
"M)	c #4E2A1C",
"N)	c #47241A",
"O)	c #48251C",
"P)	c #46241C",
"Q)	c #3C1E18",
"R)	c #301A15",
"S)	c #2A1712",
"T)	c #160C09",
"U)	c #0E0A06",
"V)	c #46281A",
"W)	c #633A21",
"X)	c #412517",
"Y)	c #3E2317",
"Z)	c #643E26",
"`)	c #372216",
" !	c #25160F",
".!	c #3F2519",
"+!	c #613F28",
"@!	c #734C32",
"#!	c #6F4B31",
"$!	c #3B2015",
"%!	c #1F130D",
"&!	c #3D2417",
"*!	c #462919",
"=!	c #56341E",
"-!	c #412618",
";!	c #2E1C12",
">!	c #2F1E15",
",!	c #42291A",
"'!	c #53311C",
")!	c #5D3822",
"!!	c #3C2418",
"~!	c #2C1B13",
"{!	c #371F14",
"]!	c #65371F",
"^!	c #6A3C21",
"/!	c #311E13",
"(!	c #1D140D",
"_!	c #271A11",
":!	c #2C1D15",
"<!	c #2E221A",
"[!	c #4C3427",
"}!	c #513528",
"|!	c #3E281D",
"1!	c #2B1D15",
"2!	c #221911",
"3!	c #20160F",
"4!	c #130F0A",
"5!	c #4E2D19",
"6!	c #56321C",
"7!	c #22150E",
"8!	c #23120D",
"9!	c #6E4931",
"0!	c #391C14",
"a!	c #503123",
"b!	c #593625",
"c!	c #5B3727",
"d!	c #411F17",
"e!	c #3E2019",
"f!	c #2B1610",
"g!	c #4A2D1E",
"h!	c #100B0A",
"i!	c #180E0D",
"j!	c #1E1110",
"k!	c #1E1210",
"l!	c #170E0C",
"m!	c #090807",
"n!	c #070707",
"o!	c #663823",
"p!	c #57301D",
"q!	c #42271B",
"r!	c #2C1A11",
"s!	c #2C170F",
"t!	c #2B160E",
"u!	c #2D1710",
"v!	c #2C1710",
"w!	c #22130D",
"x!	c #1F110C",
"y!	c #2E1911",
"z!	c #301A12",
"A!	c #492C1B",
"B!	c #905B35",
"C!	c #7E4C2A",
"D!	c #734021",
"E!	c #824E2D",
"F!	c #935E39",
"G!	c #402418",
"H!	c #1F110D",
"I!	c #1E100C",
"J!	c #291712",
"K!	c #311B16",
"L!	c #2F1A15",
"M!	c #2F1914",
"N!	c #2E1A15",
"O!	c #2D1914",
"P!	c #1F120F",
"Q!	c #2C1A16",
"R!	c #110B06",
"S!	c #94613C",
"T!	c #87512C",
"U!	c #824C28",
"V!	c #7B4927",
"W!	c #86522F",
"X!	c #7C4F2F",
"Y!	c #2B1B10",
"Z!	c #2D1913",
"`!	c #2C1912",
" ~	c #2D1A13",
".~	c #2D1712",
"+~	c #41221A",
"@~	c #46271D",
"#~	c #694229",
"$~	c #945D35",
"%~	c #965F36",
"&~	c #784627",
"*~	c #623920",
"=~	c #3D2618",
"-~	c #291B13",
";~	c #1C130E",
">~	c #1C140E",
",~	c #221610",
"'~	c #301914",
")~	c #523521",
"!~	c #A06437",
"~~	c #7F4A27",
"{~	c #734122",
"]~	c #6F3F22",
"^~	c #784A2B",
"/~	c #2E1E14",
"(~	c #141310",
"_~	c #110F0D",
":~	c #16100B",
"<~	c #241811",
"[~	c #251A13",
"}~	c #1F1710",
"|~	c #16120D",
"1~	c #141413",
"2~	c #181818",
"3~	c #5A3A25",
"4~	c #794B2B",
"5~	c #6D3E21",
"6~	c #653A1F",
"7~	c #53301A",
"8~	c #5B3922",
"9~	c #6E472D",
"0~	c #28170E",
"a~	c #1D100B",
"b~	c #1F100C",
"c~	c #21110C",
"d~	c #29140F",
"e~	c #2C1610",
"f~	c #2D1711",
"g~	c #3B1E15",
"h~	c #3B1F16",
"i~	c #64442E",
"j~	c #915E3A",
"k~	c #442517",
"l~	c #2D1912",
"m~	c #22130F",
"n~	c #19110E",
"o~	c #1A100D",
"p~	c #24150F",
"q~	c #180F0B",
"r~	c #562E1C",
"s~	c #61341F",
"t~	c #422518",
"u~	c #432719",
"v~	c #4C2B1B",
"w~	c #4D2C1C",
"x~	c #1E110C",
"y~	c #2E1A12",
"z~	c #311B12",
"A~	c #371E14",
"B~	c #3E2217",
"C~	c #3A1E16",
"D~	c #2E1B11",
"E~	c #986037",
"F~	c #A96D40",
"G~	c #6E442B",
"H~	c #3A2219",
"I~	c #401F1A",
"J~	c #4F2620",
"K~	c #3E1E19",
"L~	c #2B1613",
"M~	c #180D0C",
"N~	c #140C09",
"O~	c #0C0706",
"P~	c #160D0C",
"Q~	c #251311",
"R~	c #351D18",
"S~	c #3F221D",
"T~	c #3D211C",
"U~	c #8C5935",
"V~	c #9A623A",
"W~	c #925D36",
"X~	c #754A2C",
"Y~	c #3B1F1A",
"Z~	c #43221D",
"`~	c #44221C",
" {	c #40201A",
".{	c #391C17",
"+{	c #3A1C16",
"@{	c #43211A",
"#{	c #49241D",
"${	c #4A261E",
"%{	c #1B0F09",
"&{	c #9F6338",
"*{	c #9D643A",
"={	c #3C1D18",
"-{	c #4E241F",
";{	c #46201C",
">{	c #3E1D1A",
",{	c #361A17",
"'{	c #331A17",
"){	c #361A16",
"!{	c #411E1A",
"~{	c #4D231F",
"{{	c #552623",
"]{	c #502520",
"^{	c #845231",
"/{	c #9B6137",
"({	c #9B6037",
"_{	c #975E35",
":{	c #8E5A35",
"<{	c #694228",
"[{	c #302017",
"}{	c #171818",
"|{	c #191A1C",
"1{	c #18191A",
"2{	c #171718",
"3{	c #161617",
"4{	c #161717",
"5{	c #1A1C1E",
"6{	c #1C1D1E",
"7{	c #1A1B1D",
"8{	c #1A1310",
"9{	c #462819",
"0{	c #955D35",
"a{	c #A06538",
"b{	c #8D5933",
"c{	c #885733",
"d{	c #794C2C",
"e{	c #5E3720",
"f{	c #3B2114",
"g{	c #301811",
"h{	c #432019",
"i{	c #442119",
"j{	c #432219",
"k{	c #452319",
"l{	c #532B1C",
"m{	c #432519",
"n{	c #271610",
"o{	c #90623E",
"p{	c #9E643A",
"q{	c #7C4626",
"r{	c #6B3C21",
"s{	c #5B331D",
"t{	c #59321D",
"u{	c #5C341D",
"v{	c #613921",
"w{	c #3B2118",
"x{	c #412316",
"y{	c #5B311F",
"z{	c #5C3220",
"A{	c #522C1C",
"B{	c #321C12",
"C{	c #381F14",
"D{	c #452617",
"E{	c #55301C",
"F{	c #613820",
"G{	c #59311E",
"H{	c #452119",
"I{	c #47221B",
"J{	c #311D12",
"K{	c #4D2A1A",
"L{	c #522D1B",
"M{	c #4F2D1F",
"N{	c #3B2218",
"O{	c #4D2520",
"P{	c #4D2521",
"Q{	c #4E2520",
"R{	c #512621",
"S{	c #47241E",
"T{	c #3D201B",
"U{	c #3D201A",
"V{	c #45251D",
"W{	c #552D21",
"X{	c #512B20",
"Y{	c #3F211A",
"Z{	c #3C2117",
"`{	c #452619",
" ]	c #4B291B",
".]	c #46231C",
"+]	c #43211D",
"@]	c #44211C",
"#]	c #4C231C",
"$]	c #56271F",
"%]	c #602A21",
"&]	c #662D22",
"*]	c #652C22",
"=]	c #622B22",
"-]	c #5E2920",
";]	c #1F100B",
">]	c #301C13",
",]	c #5F3821",
"']	c #774B2E",
")]	c #311C13",
"!]	c #401F1B",
"~]	c #542520",
"{]	c #572622",
"]]	c #562523",
"^]	c #532422",
"/]	c #502421",
"(]	c #4F2420",
"_]	c #512421",
":]	c #572623",
"<]	c #572523",
"[]	c #582724",
"}]	c #411F1B",
"|]	c #3F2318",
"1]	c #512F1F",
"2]	c #5E3624",
"3]	c #48291E",
"4]	c #40261B",
"5]	c #362118",
"6]	c #221913",
"7]	c #2F2720",
"8]	c #332A23",
"9]	c #302923",
"0]	c #2A2521",
"a]	c #22201E",
"b]	c #1B1C1D",
"c]	c #1B1C1C",
"d]	c #202120",
"e]	c #292824",
"f]	c #352F27",
"g]	c #22211F",
"h]	c #1B1B1C",
"i]	c #2F1B14",
"j]	c #4E2918",
"k]	c #4C2B19",
"l]	c #502F1A",
"m]	c #472919",
"n]	c #331C12",
"o]	c #61321E",
"p]	c #69351D",
"q]	c #68351F",
"r]	c #66341E",
"s]	c #65341E",
"t]	c #6C3920",
"u]	c #6A3920",
"v]	c #713F21",
"w]	c #57311C",
"x]	c #523826",
"y]	c #A76C3F",
"z]	c #87502D",
"A]	c #7B4525",
"B]	c #7C4827",
"C]	c #734225",
"D]	c #754323",
"E]	c #804B29",
"F]	c #704025",
"G]	c #43261B",
"H]	c #3C2219",
"I]	c #130E09",
"J]	c #663A21",
"K]	c #754425",
"L]	c #613421",
"M]	c #50231D",
"N]	c #150E0A",
"O]	c #1D110D",
"P]	c #42291C",
"Q]	c #744530",
"R]	c #4C2520",
"S]	c #4C2421",
"T]	c #542821",
"U]	c #663226",
"V]	c #633225",
"W]	c #502B20",
"X]	c #4C2B20",
"Y]	c #522E21",
"Z]	c #5D3425",
"`]	c #663928",
" ^	c #693B29",
".^	c #47241D",
"+^	c #170E0A",
"@^	c #26170F",
"#^	c #28180F",
"$^	c #1C120C",
"%^	c #381E16",
"&^	c #49231D",
"*^	c #713025",
"=^	c #793427",
"-^	c #7C3428",
";^	c #7C3528",
">^	c #783326",
",^	c #7D3629",
"'^	c #83382A",
")^	c #612C23",
"!^	c #301C15",
"~^	c #71422A",
"{^	c #9A5D38",
"]^	c #82402D",
"^^	c #732F24",
"/^	c #6D2D23",
"(^	c #6B2D24",
"_^	c #6B2E24",
":^	c #6E2F25",
"<^	c #5C2823",
"[^	c #552523",
"}^	c #562624",
"|^	c #572824",
"1^	c #28170F",
"2^	c #140D09",
"3^	c #4A392D",
"4^	c #392F26",
"5^	c #382F25",
"6^	c #302D26",
"7^	c #2E2C27",
"8^	c #2C2C26",
"9^	c #2C2B26",
"0^	c #362E26",
"a^	c #1E1E20",
"b^	c #1C1716",
"c^	c #331E13",
"d^	c #2B190F",
"e^	c #301D12",
"f^	c #1E120B",
"g^	c #402216",
"h^	c #753C20",
"i^	c #753D1F",
"j^	c #783E20",
"k^	c #7A3F22",
"l^	c #794022",
"m^	c #7A4122",
"n^	c #6C391F",
"o^	c #6C3B20",
"p^	c #733E24",
"q^	c #44251A",
"r^	c #FB00FB",
"s^	c #966640",
"t^	c #A96C3E",
"u^	c #7D4525",
"v^	c #774223",
"w^	c #925A33",
"x^	c #9D6237",
"y^	c #AA6D41",
"z^	c #7F4B2B",
"A^	c #6B3E24",
"B^	c #59341F",
"C^	c #5A341E",
"D^	c #5A341F",
"E^	c #432718",
"F^	c #754326",
"G^	c #744324",
"H^	c #754325",
"I^	c #562B1F",
"J^	c #4F241E",
"K^	c #3D1D17",
"L^	c #120D09",
"M^	c #2F1C14",
"N^	c #734C31",
"O^	c #8B5736",
"P^	c #4B231F",
"Q^	c #5F2E24",
"R^	c #71392A",
"S^	c #733A2A",
"T^	c #753C2B",
"U^	c #814D36",
"V^	c #865537",
"W^	c #683927",
"X^	c #683929",
"Y^	c #683A28",
"Z^	c #6A3A29",
"`^	c #271612",
" /	c #190F0B",
"./	c #2F1D13",
"+/	c #2F1E13",
"@/	c #1E130C",
"#/	c #724831",
"$/	c #6F3B2B",
"%/	c #6D2F25",
"&/	c #7E3628",
"*/	c #7C3628",
"=/	c #7B3628",
"-/	c #7B3627",
";/	c #7D3628",
">/	c #743327",
",/	c #723227",
"'/	c #803729",
")/	c #6C3025",
"!/	c #241410",
"~/	c #9E623A",
"{/	c #A4653A",
"]/	c #84412B",
"^/	c #7B3225",
"//	c #7C3325",
"(/	c #7C3326",
"_/	c #7C3427",
":/	c #793226",
"</	c #5E2923",
"[/	c #512523",
"}/	c #572725",
"|/	c #592824",
"1/	c #2D1811",
"2/	c #1A0F0B",
"3/	c #835A3E",
"4/	c #3B3027",
"5/	c #3A3026",
"6/	c #332D26",
"7/	c #2D2B26",
"8/	c #2B2A25",
"9/	c #2C2A26",
"0/	c #2A241E",
"a/	c #3D3229",
"b/	c #2A2724",
"c/	c #131313",
"d/	c #392216",
"e/	c #2E1A11",
"f/	c #2E170F",
"g/	c #713B20",
"h/	c #773D20",
"i/	c #7A4022",
"j/	c #62331E",
"k/	c #7C4426",
"l/	c #57311E",
"m/	c #583D28",
"n/	c #AA6E40",
"o/	c #A36739",
"p/	c #995E34",
"q/	c #A1663B",
"r/	c #AA6C3E",
"s/	c #7E5030",
"t/	c #854D2D",
"u/	c #9C6037",
"v/	c #A4693F",
"w/	c #6C3E23",
"x/	c #502E1C",
"y/	c #0D0906",
"z/	c #392215",
"A/	c #754224",
"B/	c #693B21",
"C/	c #6E3E25",
"D/	c #4C221C",
"E/	c #4D241E",
"F/	c #25130F",
"G/	c #311C14",
"H/	c #3E2517",
"I/	c #291910",
"J/	c #764B2F",
"K/	c #8C5637",
"L/	c #5D2A22",
"M/	c #74382B",
"N/	c #733B2A",
"O/	c #84543A",
"P/	c #935E3C",
"Q/	c #6B3B29",
"R/	c #693A29",
"S/	c #693928",
"T/	c #6A3929",
"U/	c #522A1F",
"V/	c #231310",
"W/	c #2F1E14",
"X/	c #73482F",
"Y/	c #884631",
"Z/	c #713024",
"`/	c #7C3627",
" (	c #7F3729",
".(	c #733227",
"+(	c #6B2D23",
"@(	c #7E3529",
"#(	c #6A2F25",
"$(	c #25140F",
"%(	c #2B1811",
"&(	c #A4653C",
"*(	c #A56539",
"=(	c #8D4B2F",
"-(	c #7D3426",
";(	c #7E3427",
">(	c #7B3326",
",(	c #602922",
"'(	c #502423",
")(	c #562725",
"!(	c #582823",
"~(	c #301A13",
"{(	c #895D3E",
"](	c #3C2E24",
"^(	c #393026",
"/(	c #3A3127",
"((	c #3A3027",
"_(	c #352E26",
":(	c #2E2A25",
"<(	c #2E2B26",
"[(	c #26231D",
"}(	c #322C25",
"|(	c #151615",
"1(	c #3B2217",
"2(	c #27140E",
"3(	c #552C1B",
"4(	c #7A3F21",
"5(	c #7A4023",
"6(	c #7B4123",
"7(	c #60311B",
"8(	c #6B3A20",
"9(	c #683B22",
"0(	c #3F2B1D",
"a(	c #825736",
"b(	c #AA6B3C",
"c(	c #AA6B3B",
"d(	c #AB6D3D",
"e(	c #AD6F3F",
"f(	c #AA6D40",
"g(	c #5C3822",
"h(	c #804A2A",
"i(	c #B07243",
"j(	c #955C34",
"k(	c #46291A",
"l(	c #100B09",
"m(	c #835433",
"n(	c #744224",
"o(	c #714124",
"p(	c #703E23",
"q(	c #5E2E20",
"r(	c #4B211C",
"s(	c #21140E",
"t(	c #442818",
"u(	c #54311D",
"v(	c #8F593A",
"w(	c #6C3328",
"x(	c #76392B",
"y(	c #753B2A",
"z(	c #743B2A",
"A(	c #773E2B",
"B(	c #784F35",
"C(	c #925F3C",
"D(	c #693A28",
"E(	c #693929",
"F(	c #46261C",
"G(	c #140B09",
"H(	c #301E13",
"I(	c #7B3C2C",
"J(	c #803829",
"K(	c #7D3627",
"L(	c #87412B",
"M(	c #6D3625",
"N(	c #612A1F",
"O(	c #7D3729",
"P(	c #51261E",
"Q(	c #2A1812",
"R(	c #824E2F",
"S(	c #A46539",
"T(	c #9A5A35",
"U(	c #7B3124",
"V(	c #7C3426",
"W(	c #7D3326",
"X(	c #7D3527",
"Y(	c #692E21",
"Z(	c #4C2320",
"`(	c #562724",
" _	c #41271B",
"._	c #492C1C",
"+_	c #66452F",
"@_	c #614531",
"#_	c #3B3127",
"$_	c #3B3128",
"%_	c #2D2A25",
"&_	c #272420",
"*_	c #2D251D",
"=_	c #171716",
"-_	c #361F15",
";_	c #3C2217",
">_	c #3C2317",
",_	c #24140D",
"'_	c #773E23",
")_	c #7B4022",
"!_	c #713D21",
"~_	c #422315",
"{_	c #6D3F24",
"]_	c #412419",
"^_	c #583C2A",
"/_	c #9F643B",
"(_	c #A86A3B",
"__	c #A96C3C",
":_	c #AE6F3E",
"<_	c #885633",
"[_	c #8B5531",
"}_	c #AD7043",
"|_	c #915D38",
"1_	c #5E3A25",
"2_	c #050506",
"3_	c #AA6A3C",
"4_	c #834D2B",
"5_	c #714024",
"6_	c #724123",
"7_	c #764226",
"8_	c #572B1F",
"9_	c #44211B",
"0_	c #3C1F19",
"a_	c #2E1914",
"b_	c #120C09",
"c_	c #55321E",
"d_	c #5A361F",
"e_	c #472C1B",
"f_	c #9A603D",
"g_	c #9C5C39",
"h_	c #81422C",
"i_	c #753928",
"j_	c #723828",
"k_	c #8F5738",
"l_	c #5C3C29",
"m_	c #926140",
"n_	c #6A3A28",
"o_	c #6B3A29",
"p_	c #6C3A29",
"q_	c #2E1A13",
"r_	c #231610",
"s_	c #1B0E0A",
"t_	c #4B251B",
"u_	c #965C3A",
"v_	c #965B38",
"w_	c #84422C",
"x_	c #7C3526",
"y_	c #7E3626",
"z_	c #A05F38",
"A_	c #683725",
"B_	c #4F251D",
"C_	c #53261D",
"D_	c #42281B",
"E_	c #945B35",
"F_	c #A5653A",
"G_	c #8B482C",
"H_	c #7B3525",
"I_	c #7B3425",
"J_	c #7E3824",
"K_	c #733720",
"L_	c #4A241D",
"M_	c #4F2621",
"N_	c #462B1B",
"O_	c #482C1D",
"P_	c #4C2D1B",
"Q_	c #4C2E1C",
"R_	c #160C08",
"S_	c #3F2B1F",
"T_	c #503526",
"U_	c #3B2E24",
"V_	c #2C2924",
"W_	c #2B2823",
"X_	c #2C2822",
"Y_	c #2F2922",
"Z_	c #2C2620",
"`_	c #1F1914",
" :	c #302A23",
".:	c #111110",
"+:	c #351F13",
"@:	c #452819",
"#:	c #3C2216",
"$:	c #2D1A10",
"%:	c #2A1911",
"&:	c #5C321D",
"*:	c #9A5B34",
"=:	c #8D502C",
"-:	c #7E4323",
";:	c #783D20",
">:	c #783F21",
",:	c #8B502B",
"':	c #341F17",
"):	c #2D1F15",
"!:	c #7C5335",
"~:	c #3F2216",
"{:	c #623D27",
"]:	c #74482B",
"^:	c #73482C",
"/:	c #3E2015",
"(:	c #683E25",
"_:	c #5E3823",
"::	c #4E2F21",
"<:	c #361E17",
"[:	c #060608",
"}:	c #11090A",
"|:	c #211412",
"1:	c #351C14",
"2:	c #653C24",
"3:	c #996037",
"4:	c #9A5F36",
"5:	c #865331",
"6:	c #532E1D",
"7:	c #4A271C",
"8:	c #3B1F17",
"9:	c #3C201B",
"0:	c #190E0A",
"a:	c #2B1A10",
"b:	c #0B0806",
"c:	c #1E110D",
"d:	c #42261A",
"e:	c #885434",
"f:	c #A5673F",
"g:	c #965937",
"h:	c #995E3C",
"i:	c #B2784D",
"j:	c #401E13",
"k:	c #7D5035",
"l:	c #593023",
"m:	c #522C1F",
"n:	c #321C15",
"o:	c #18110D",
"p:	c #563422",
"q:	c #2F1C13",
"r:	c #482919",
"s:	c #4B2F1E",
"t:	c #2A1611",
"u:	c #6D452B",
"v:	c #935F3A",
"w:	c #A1663C",
"x:	c #A2653D",
"y:	c #8D5935",
"z:	c #4C261C",
"A:	c #412019",
"B:	c #281611",
"C:	c #1D120C",
"D:	c #241610",
"E:	c #331B14",
"F:	c #653D26",
"G:	c #7E472A",
"H:	c #723B24",
"I:	c #6A351F",
"J:	c #65321C",
"K:	c #67351F",
"L:	c #5C2F1C",
"M:	c #3C1F18",
"N:	c #3A1F17",
"O:	c #190F09",
"P:	c #4A2D1C",
"Q:	c #4C2E1B",
"R:	c #4B2D1B",
"S:	c #42291B",
"T:	c #0E0905",
"U:	c #341E12",
"V:	c #492B1D",
"W:	c #412C20",
"X:	c #4A2F21",
"Y:	c #593423",
"Z:	c #5B3422",
"`:	c #583422",
" <	c #341F13",
".<	c #1A140D",
"+<	c #2E2821",
"@<	c #110A08",
"#<	c #47291A",
"$<	c #140B08",
"%<	c #724529",
"&<	c #8A5632",
"*<	c #84502E",
"=<	c #7B4E2E",
"-<	c #54301D",
";<	c #372017",
"><	c #1B0F0C",
",<	c #261712",
"'<	c #060606",
")<	c #140E0A",
"!<	c #453122",
"~<	c #2D1F16",
"{<	c #2E1B15",
"]<	c #311B14",
"^<	c #351D16",
"/<	c #221411",
"(<	c #0B0708",
"_<	c #130A0A",
":<	c #45261E",
"<<	c #321813",
"[<	c #100A07",
"}<	c #27150E",
"|<	c #391E15",
"1<	c #3D2117",
"2<	c #391E16",
"3<	c #361D18",
"4<	c #341C17",
"5<	c #291612",
"6<	c #180C0A",
"7<	c #110C09",
"8<	c #0D0A06",
"9<	c #0E0A07",
"0<	c #140D0A",
"a<	c #21140F",
"b<	c #311A12",
"c<	c #4B2E20",
"d<	c #5E3D2C",
"e<	c #513223",
"f<	c #3E1D15",
"g<	c #3E1D17",
"h<	c #371A15",
"i<	c #351B16",
"j<	c #311A15",
"k<	c #21130E",
"l<	c #241311",
"m<	c #130E0A",
"n<	c #5F3B24",
"o<	c #311C11",
"p<	c #301B11",
"q<	c #52321E",
"r<	c #9F643C",
"s<	c #6F472C",
"t<	c #190D09",
"u<	c #3C2019",
"v<	c #3D1F18",
"w<	c #3E2018",
"x<	c #351B15",
"y<	c #190E0B",
"z<	c #080707",
"A<	c #0B0907",
"B<	c #0F0B08",
"C<	c #0D0A07",
"D<	c #42281A",
"E<	c #1D110C",
"F<	c #49261E",
"G<	c #2A1710",
"H<	c #100B07",
"I<	c #0C0905",
"J<	c #0D0905",
"K<	c #100A05",
"L<	c #1C130C",
"M<	c #21160E",
"N<	c #1E150D",
"O<	c #100D07",
"P<	c #0C0A06",
"Q<	c #23150D",
"R<	c #281810",
"S<	c #2F1D12",
"T<	c #291A10",
"U<	c #211811",
"V<	c #0F0D0B",
"W<	c #2F1B12",
"X<	c #2F1C12",
"Y<	c #432717",
"Z<	c #412617",
"`<	c #402517",
" [	c #130A09",
".[	c #1B0F0B",
"+[	c #1E0F0B",
"@[	c #100908",
"#[	c #090707",
"$[	c #0A0807",
"%[	c #0F0B09",
"&[	c #1F160F",
"*[	c #070505",
"=[	c #0F0808",
"-[	c #2F1B17",
";[	c #47251D",
">[	c #643527",
",[	c #763E2D",
"'[	c #6B3626",
")[	c #44201A",
"![	c #311F17",
"~[	c #5E3523",
"{[	c #49201A",
"][	c #331811",
"^[	c #24170F",
"/[	c #301812",
"([	c #331713",
"_[	c #0F0706",
":[	c #20120E",
"<[	c #311913",
"[[	c #351A15",
"}[	c #321914",
"|[	c #281411",
"1[	c #180E0C",
"2[	c #130908",
"3[	c #552821",
"4[	c #221511",
"5[	c #6C4428",
"6[	c #A86A3D",
"7[	c #9E6338",
"8[	c #A1653A",
"9[	c #A6683C",
"0[	c #74492B",
"a[	c #352016",
"b[	c #1C0F0C",
"c[	c #603923",
"d[	c #23140D",
"e[	c #23150E",
"f[	c #25160E",
"g[	c #191A0B",
"h[	c #422C18",
"i[	c #7F4826",
"j[	c #824C2B",
"k[	c #1C110B",
"l[	c #18100C",
"m[	c #17110C",
"n[	c #150F0B",
"o[	c #120C08",
"p[	c #25120E",
"q[	c #401C15",
"r[	c #301810",
"s[	c #291710",
"t[	c #20140D",
"u[	c #1E140D",
"v[	c #18110A",
"w[	c #3F2718",
"x[	c #462C1C",
"y[	c #0A0705",
"z[	c #18110B",
"A[	c #100B08",
"B[	c #070605",
"C[	c #17100C",
"D[	c #43251C",
"E[	c #3C1C15",
"F[	c #3D1C16",
"G[	c #52271E",
"H[	c #371B15",
"I[	c #2F1711",
"J[	c #47241B",
"K[	c #29110D",
"L[	c #0C0808",
"M[	c #36261A",
"N[	c #37271B",
"O[	c #3F271F",
"P[	c #331F17",
"Q[	c #663627",
"R[	c #793D2B",
"S[	c #7C3E2C",
"T[	c #80402C",
"U[	c #7E402C",
"V[	c #653326",
"W[	c #110C08",
"X[	c #321F14",
"Y[	c #53301E",
"Z[	c #6A3D22",
"`[	c #6D3E24",
" }	c #704124",
".}	c #633621",
"+}	c #4B201B",
"@}	c #472019",
"#}	c #2C1511",
"$}	c #411B17",
"%}	c #3A1A15",
"&}	c #381A14",
"*}	c #3E2318",
"=}	c #382118",
"-}	c #482A1B",
";}	c #522F1E",
">}	c #512B1E",
",}	c #552721",
"'}	c #2E1813",
")}	c #6F452A",
"!}	c #74482C",
"~}	c #512F1C",
"{}	c #170E09",
"]}	c #6C3D22",
"^}	c #734223",
"/}	c #704023",
"(}	c #6D4026",
"_}	c #6D3F23",
":}	c #351E11",
"<}	c #311B13",
"[}	c #2C2011",
"}}	c #1C1E08",
"|}	c #4A2F17",
"1}	c #985529",
"2}	c #8A4D27",
"3}	c #764122",
"4}	c #744123",
"5}	c #734224",
"6}	c #6F4023",
"7}	c #6C3D20",
"8}	c #623720",
"9}	c #50231C",
"0}	c #56241C",
"a}	c #391B13",
"b}	c #3B2117",
"c}	c #392015",
"d}	c #57341E",
"e}	c #5B381F",
"f}	c #583620",
"g}	c #55341F",
"h}	c #54341E",
"i}	c #523420",
"j}	c #50321F",
"k}	c #513422",
"l}	c #5C3723",
"m}	c #6A3C24",
"n}	c #744327",
"o}	c #301C14",
"p}	c #623C2A",
"q}	c #451E19",
"r}	c #723926",
"s}	c #693523",
"t}	c #5D2E20",
"u}	c #54291E",
"v}	c #542A1F",
"w}	c #52281D",
"x}	c #562A20",
"y}	c #653223",
"z}	c #250F0C",
"A}	c #431516",
"B}	c #3A231A",
"C}	c #372018",
"D}	c #4A2D1F",
"E}	c #5B2F22",
"F}	c #512E20",
"G}	c #58301E",
"H}	c #391E13",
"I}	c #3C261C",
"J}	c #723A29",
"K}	c #683324",
"L}	c #7F3F2C",
"M}	c #5D2E22",
"N}	c #130B07",
"O}	c #3B2418",
"P}	c #754324",
"Q}	c #774324",
"R}	c #683920",
"S}	c #491F1B",
"T}	c #401D18",
"U}	c #28220F",
"V}	c #603D26",
"W}	c #5F3422",
"X}	c #491F18",
"Y}	c #532719",
"Z}	c #67391E",
"`}	c #61351E",
" |	c #5F351E",
".|	c #5E351E",
"+|	c #5F361E",
"@|	c #61371F",
"#|	c #5C2F1D",
"$|	c #572721",
"%|	c #562621",
"&|	c #0E0B08",
"*|	c #563826",
"=|	c #3A1F13",
"-|	c #734123",
";|	c #724122",
">|	c #714022",
",|	c #6E3F22",
"'|	c #623921",
")|	c #714123",
"!|	c #724223",
"~|	c #392011",
"{|	c #27280E",
"]|	c #253409",
"^|	c #605118",
"/|	c #A15A2A",
"(|	c #884B26",
"_|	c #774021",
":|	c #774122",
"<|	c #764121",
"[|	c #774222",
"}|	c #784222",
"||	c #743F21",
"1|	c #57271C",
"2|	c #58241C",
"3|	c #371A13",
"4|	c #391F15",
"5|	c #82573A",
"6|	c #59351D",
"7|	c #59361F",
"8|	c #58361E",
"9|	c #59371E",
"0|	c #5A3720",
"a|	c #5B3820",
"b|	c #643921",
"c|	c #7B4325",
"d|	c #7B4427",
"e|	c #28150C",
"f|	c #9B6944",
"g|	c #471F17",
"h|	c #693423",
"i|	c #713925",
"j|	c #713926",
"k|	c #6F3A26",
"l|	c #602F20",
"m|	c #713825",
"n|	c #6D3624",
"o|	c #28110C",
"p|	c #58261C",
"q|	c #53241C",
"r|	c #55241C",
"s|	c #86482D",
"t|	c #894A2E",
"u|	c #83472C",
"v|	c #8A4B2E",
"w|	c #422317",
"x|	c #643123",
"y|	c #803F2C",
"z|	c #7F402C",
"A|	c #502820",
"B|	c #42211A",
"C|	c #281511",
"D|	c #57311D",
"E|	c #764326",
"F|	c #351D11",
"G|	c #693D25",
"H|	c #724124",
"I|	c #794425",
"J|	c #653922",
"K|	c #532A1D",
"L|	c #461E1B",
"M|	c #301711",
"N|	c #394A22",
"O|	c #84542F",
"P|	c #7F4B2C",
"Q|	c #59291B",
"R|	c #5C2D1B",
"S|	c #66391B",
"T|	c #5E321B",
"U|	c #61361E",
"V|	c #60371F",
"W|	c #62381F",
"X|	c #5F431D",
"Y|	c #582721",
"Z|	c #572621",
"`|	c #40211B",
" 1	c #060505",
".1	c #271710",
"+1	c #150A04",
"@1	c #A76F44",
"#1	c #4E2B18",
"$1	c #341C10",
"%1	c #20310B",
"&1	c #2D400D",
"*1	c #6E741A",
"=1	c #9A5628",
"-1	c #864924",
";1	c #784122",
">1	c #794122",
",1	c #652F1D",
"'1	c #331812",
")1	c #361D13",
"!1	c #A77046",
"~1	c #4F2A15",
"{1	c #4E2D17",
"]1	c #56331B",
"^1	c #5A4F19",
"/1	c #636A19",
"(1	c #5C421D",
"_1	c #5C341E",
":1	c #824526",
"<1	c #7E4427",
"[1	c #2A150D",
"}1	c #3E2417",
"|1	c #422618",
"11	c #3C2215",
"21	c #25150D",
"31	c #A26C41",
"41	c #7D472B",
"51	c #6E3725",
"61	c #703925",
"71	c #723A26",
"81	c #723A27",
"91	c #713A26",
"01	c #5C2E20",
"a1	c #713724",
"b1	c #653221",
"c1	c #2F150F",
"d1	c #894C2F",
"e1	c #783F28",
"f1	c #7E422B",
"g1	c #74422B",
"h1	c #7F452B",
"i1	c #884A2D",
"j1	c #351F14",
"k1	c #572F1F",
"l1	c #582C1E",
"m1	c #773A28",
"n1	c #5C2B1E",
"o1	c #81402C",
"p1	c #7B3E2C",
"q1	c #3D1B15",
"r1	c #3F1F1A",
"s1	c #703F25",
"t1	c #7F4725",
"u1	c #5D331E",
"v1	c #724125",
"w1	c #925D38",
"x1	c #6E472E",
"y1	c #7A4527",
"z1	c #4D231B",
"A1	c #421D19",
"B1	c #1F1A0E",
"C1	c #445B22",
"D1	c #936038",
"E1	c #955B34",
"F1	c #5A291C",
"G1	c #56261C",
"H1	c #50231A",
"I1	c #4A1E16",
"J1	c #60361E",
"K1	c #62411C",
"L1	c #5F541B",
"M1	c #582620",
"N1	c #572520",
"O1	c #3C1D17",
"P1	c #070504",
"Q1	c #321D13",
"R1	c #3B2216",
"S1	c #24120A",
"T1	c #B67C4D",
"U1	c #69391F",
"V1	c #704022",
"W1	c #744222",
"X1	c #8D532F",
"Y1	c #432112",
"Z1	c #693C23",
"`1	c #24110A",
" 2	c #301B14",
".2	c #301B12",
"+2	c #2C1D10",
"@2	c #1D350A",
"#2	c #27310B",
"$2	c #586B14",
"%2	c #905923",
"&2	c #905126",
"*2	c #784022",
"=2	c #794123",
"-2	c #794222",
";2	c #794120",
">2	c #723821",
",2	c #57241B",
"'2	c #351D13",
")2	c #9B643B",
"!2	c #634124",
"~2	c #4C5610",
"{2	c #697018",
"]2	c #584416",
"^2	c #544417",
"/2	c #5E3F1F",
"(2	c #512E1B",
"_2	c #814426",
":2	c #7E4327",
"<2	c #29150D",
"[2	c #3C2316",
"}2	c #402417",
"|2	c #28160E",
"12	c #9A663E",
"22	c #AE6C3F",
"32	c #693521",
"42	c #703926",
"52	c #743A27",
"62	c #713826",
"72	c #582B1F",
"82	c #733825",
"92	c #56291D",
"02	c #2A130E",
"a2	c #84482E",
"b2	c #7E432C",
"c2	c #733F2D",
"d2	c #663525",
"e2	c #6F3927",
"f2	c #542D1B",
"g2	c #130D0A",
"h2	c #623D28",
"i2	c #613322",
"j2	c #723927",
"k2	c #793B29",
"l2	c #783A29",
"m2	c #50251B",
"n2	c #7C3E2B",
"o2	c #653022",
"p2	c #2F1813",
"q2	c #1A0D08",
"r2	c #905935",
"s2	c #7D4424",
"t2	c #7A4223",
"u2	c #764224",
"v2	c #6E3E22",
"w2	c #A16940",
"x2	c #4E3021",
"y2	c #673722",
"z2	c #451E17",
"A2	c #3A1A13",
"B2	c #374919",
"C2	c #334A16",
"D2	c #3D2315",
"E2	c #24140E",
"F2	c #72482B",
"G2	c #AB6C3E",
"H2	c #58271D",
"I2	c #53241B",
"J2	c #544415",
"K2	c #5E371B",
"L2	c #62361F",
"M2	c #61361F",
"N2	c #5F361D",
"O2	c #544618",
"P2	c #3B2113",
"Q2	c #4E201B",
"R2	c #3F1C16",
"S2	c #825436",
"T2	c #895431",
"U2	c #743F20",
"V2	c #744021",
"W2	c #7C4623",
"X2	c #A76639",
"Y2	c #411D12",
"Z2	c #724023",
"`2	c #512C1A",
" 3	c #23100A",
".3	c #2D1E10",
"+3	c #28310A",
"@3	c #1D3608",
"#3	c #1E1409",
"$3	c #455B12",
"%3	c #747419",
"&3	c #83611E",
"*3	c #7E4721",
"=3	c #784021",
"-3	c #784221",
";3	c #784121",
">3	c #774120",
",3	c #75401F",
"'3	c #65361D",
")3	c #7F4324",
"!3	c #431D13",
"~3	c #2B150E",
"{3	c #3A2015",
"]3	c #351E13",
"^3	c #6F482C",
"/3	c #795030",
"(3	c #273C05",
"_3	c #65851A",
":3	c #67701A",
"<3	c #5E461C",
"[3	c #5E3920",
"}3	c #5A3620",
"|3	c #5A351F",
"13	c #653620",
"23	c #5B301C",
"33	c #2F1B13",
"43	c #3A2115",
"53	c #422519",
"63	c #2D1910",
"73	c #573621",
"83	c #A3673C",
"93	c #5E321F",
"03	c #995D39",
"a3	c #743A25",
"b3	c #85472E",
"c3	c #874A2E",
"d3	c #451F15",
"e3	c #6B3524",
"f3	c #411C15",
"g3	c #6F3727",
"h3	c #6D3828",
"i3	c #75412E",
"j3	c #4A281B",
"k3	c #472A1C",
"l3	c #4A2B1D",
"m3	c #976441",
"n3	c #7C462F",
"o3	c #793A28",
"p3	c #793A29",
"q3	c #421B14",
"r3	c #4D2019",
"s3	c #411C16",
"t3	c #311914",
"u3	c #261511",
"v3	c #23130C",
"w3	c #8E5D3A",
"x3	c #9F6238",
"y3	c #814625",
"z3	c #7E4422",
"A3	c #8A522C",
"B3	c #AB7043",
"C3	c #411E16",
"D3	c #341812",
"E3	c #486923",
"F3	c #1E3206",
"G3	c #402416",
"H3	c #4C2A1B",
"I3	c #351A12",
"J3	c #7A4B2E",
"K3	c #643220",
"L3	c #5D2C1D",
"M3	c #59281B",
"N3	c #59311B",
"O3	c #592A1D",
"P3	c #63361E",
"Q3	c #63351E",
"R3	c #5E321E",
"S3	c #552C1D",
"T3	c #3B1915",
"U3	c #341612",
"V3	c #301712",
"W3	c #1C0E09",
"X3	c #382015",
"Y3	c #7F5537",
"Z3	c #A96E40",
"`3	c #8B532D",
" 4	c #723E20",
".4	c #6E3E20",
"+4	c #905226",
"@4	c #A46538",
"#4	c #401B13",
"$4	c #4C281A",
"%4	c #321810",
"&4	c #1D0F09",
"*4	c #341E13",
"=4	c #342012",
"-4	c #2E2A0D",
";4	c #223208",
">4	c #1D3408",
",4	c #141106",
"'4	c #334310",
")4	c #618E15",
"!4	c #5F7E15",
"~4	c #7A631F",
"{4	c #824E25",
"]4	c #7D4622",
"^4	c #7B4220",
"/4	c #7F4924",
"(4	c #7E4B21",
"_4	c #402213",
":4	c #61371D",
"<4	c #32190F",
"[4	c #28150D",
"}4	c #24130C",
"|4	c #5A401E",
"14	c #3F4312",
"24	c #39490D",
"34	c #423014",
"44	c #5F3820",
"54	c #4D2E1C",
"64	c #341D13",
"74	c #1C1009",
"84	c #361E13",
"94	c #442619",
"04	c #1E0E0A",
"a4	c #7C4F31",
"b4	c #C37D48",
"c4	c #8E4F2F",
"d4	c #8C4D2F",
"e4	c #995835",
"f4	c #7A3A22",
"g4	c #743D27",
"h4	c #3B1912",
"i4	c #421D15",
"j4	c #3C1B15",
"k4	c #310E0D",
"l4	c #4F261B",
"m4	c #582D1F",
"n4	c #442519",
"o4	c #43271A",
"p4	c #462319",
"q4	c #200E09",
"r4	c #AF7044",
"s4	c #955D3B",
"t4	c #854B32",
"u4	c #6F3625",
"v4	c #5C2D20",
"w4	c #3A1B16",
"x4	c #291814",
"y4	c #150C08",
"z4	c #2C140C",
"A4	c #774C2F",
"B4	c #A3663B",
"C4	c #B36F3F",
"D4	c #B3703E",
"E4	c #8E5D39",
"F4	c #2D1410",
"G4	c #2D1511",
"H4	c #2C1611",
"I4	c #3E501A",
"J4	c #48711C",
"K4	c #273709",
"L4	c #352211",
"M4	c #3D2215",
"N4	c #522F1B",
"O4	c #482817",
"P4	c #28130E",
"Q4	c #442316",
"R4	c #6D3A24",
"S4	c #61301F",
"T4	c #5B2A1E",
"U4	c #58291E",
"V4	c #592A1E",
"W4	c #56281D",
"X4	c #4B251A",
"Y4	c #321611",
"Z4	c #2F1611",
"`4	c #1E0F0A",
" 5	c #1F110B",
".5	c #3F2316",
"+5	c #3F2214",
"@5	c #3D2317",
"#5	c #553522",
"$5	c #5F3D26",
"%5	c #895A36",
"&5	c #98623A",
"*5	c #986039",
"=5	c #945C33",
"-5	c #381911",
";5	c #371A12",
">5	c #1B110A",
",5	c #3C2712",
"'5	c #2E250C",
")5	c #242D09",
"!5	c #1A2707",
"~5	c #25290A",
"{5	c #456B10",
"]5	c #2C4B0A",
"^5	c #264206",
"/5	c #404011",
"(5	c #4F5014",
"_5	c #5B551A",
":5	c #725E23",
"<5	c #6B4821",
"[5	c #2D190D",
"}5	c #2E1A10",
"|5	c #24130B",
"15	c #4B2716",
"25	c #5B321D",
"35	c #311911",
"45	c #2E1912",
"55	c #180F09",
"65	c #412716",
"75	c #4F311E",
"85	c #4F321E",
"95	c #5A3621",
"05	c #6A3D25",
"a5	c #714026",
"b5	c #311F12",
"c5	c #341C14",
"d5	c #683B1F",
"e5	c #432517",
"f5	c #26160E",
"g5	c #1F100D",
"h5	c #7E5438",
"i5	c #9D663F",
"j5	c #99623A",
"k5	c #AD6F43",
"l5	c #AF7045",
"m5	c #9C643E",
"n5	c #6A3F29",
"o5	c #3B1A13",
"p5	c #3E1C16",
"q5	c #411414",
"r5	c #491C17",
"s5	c #44261A",
"t5	c #48251A",
"u5	c #431F16",
"v5	c #462419",
"w5	c #865A3B",
"x5	c #5B3622",
"y5	c #321612",
"z5	c #2B1713",
"A5	c #1D120E",
"B5	c #261813",
"C5	c #5F3927",
"D5	c #4D2C1B",
"E5	c #492B1A",
"F5	c #371D14",
"G5	c #391C11",
"H5	c #391C10",
"I5	c #371B13",
"J5	c #311712",
"K5	c #281410",
"L5	c #323E17",
"M5	c #50751F",
"N5	c #263F08",
"O5	c #59401B",
"P5	c #683C1F",
"Q5	c #673B20",
"R5	c #864D2A",
"S5	c #2D1911",
"T5	c #1B0D09",
"U5	c #2E1811",
"V5	c #391C12",
"W5	c #3C1D15",
"X5	c #3E1E16",
"Y5	c #3D1D15",
"Z5	c #361912",
"`5	c #341913",
" 6	c #351913",
".6	c #0F0A07",
"+6	c #3C2617",
"@6	c #7F4C2A",
"#6	c #8F532F",
"$6	c #864E2B",
"%6	c #5D3922",
"&6	c #8F5935",
"*6	c #160D08",
"=6	c #341B13",
"-6	c #361B12",
";6	c #351910",
">6	c #33170F",
",6	c #361A11",
"'6	c #29160F",
")6	c #150D08",
"!6	c #3F270E",
"~6	c #2D330A",
"{6	c #24260B",
"]6	c #181407",
"^6	c #1F180A",
"/6	c #231C0C",
"(6	c #26230B",
"_6	c #2A220C",
":6	c #2F1E0E",
"<6	c #301E0E",
"[6	c #2E1C0F",
"}6	c #483222",
"|6	c #965830",
"16	c #97542E",
"26	c #743F24",
"36	c #653822",
"46	c #321F13",
"56	c #19110B",
"66	c #2A1811",
"76	c #2C1811",
"86	c #301E11",
"96	c #311F11",
"06	c #130D08",
"a6	c #0C0A05",
"b6	c #301A11",
"c6	c #381D11",
"d6	c #62341B",
"e6	c #9B5629",
"f6	c #62371C",
"g6	c #382013",
"h6	c #26150D",
"i6	c #342218",
"j6	c #45291D",
"k6	c #371A14",
"l6	c #371913",
"m6	c #351712",
"n6	c #381914",
"o6	c #341712",
"p6	c #2C150F",
"q6	c #341B12",
"r6	c #401D16",
"s6	c #442117",
"t6	c #402719",
"u6	c #4A2F20",
"v6	c #0E0806",
"w6	c #0A0607",
"x6	c #090705",
"y6	c #0A0706",
"z6	c #080606",
"A6	c #070606",
"B6	c #130C08",
"C6	c #46281C",
"D6	c #744028",
"E6	c #492819",
"F6	c #422619",
"G6	c #341E14",
"H6	c #21130C",
"I6	c #1C0F09",
"J6	c #22130C",
"K6	c #24130D",
"L6	c #20180B",
"M6	c #1B2505",
"N6	c #23360B",
"O6	c #1D2D07",
"P6	c #131503",
"Q6	c #774C2D",
"R6	c #AC7040",
"S6	c #965E35",
"T6	c #8D5630",
"U6	c #9B663B",
"V6	c #7D5434",
"W6	c #22120B",
"X6	c #150C06",
"Y6	c #25130D",
"Z6	c #2C1810",
"`6	c #311912",
" 7	c #301912",
".7	c #1E110B",
"+7	c #100905",
"@7	c #3E291B",
"#7	c #B67747",
"$7	c #975B33",
"%7	c #884C29",
"&7	c #985D36",
"*7	c #9E673E",
"=7	c #6F4A30",
"-7	c #0F0B07",
";7	c #26140E",
">7	c #1E110A",
",7	c #2B1B11",
"'7	c #97643E",
")7	c #B47747",
"!7	c #97603A",
"~7	c #744124",
"{7	c #734124",
"]7	c #452914",
"^7	c #2D1E0F",
"/7	c #160F08",
"(7	c #160F0A",
"_7	c #19100A",
":7	c #1A1109",
"<7	c #1B120B",
"[7	c #160F09",
"}7	c #16100A",
"|7	c #543A28",
"17	c #BF7843",
"27	c #9C5D32",
"37	c #804526",
"47	c #804627",
"57	c #885332",
"67	c #915F3B",
"77	c #17100A",
"87	c #120D08",
"97	c #120C07",
"07	c #18100A",
"a7	c #1F150D",
"b7	c #1A130B",
"c7	c #161009",
"d7	c #251F10",
"e7	c #302814",
"f7	c #1A0E09",
"g7	c #A7693A",
"h7	c #A56231",
"i7	c #98572A",
"j7	c #8B502A",
"k7	c #764729",
"l7	c #95633F",
"m7	c #523020",
"n7	c #180E09",
"o7	c #1B0F0A",
"p7	c #1C0F0A",
"q7	c #20110B",
"r7	c #311C12",
"s7	c #331E12",
"t7	c #351E12",
"u7	c #29170E",
"v7	c #25140C",
"w7	c #19100B",
"x7	c #2A160F",
"y7	c #60311F",
"z7	c #562D1C",
"A7	c #4C2918",
"B7	c #582F1B",
"C7	c #64361F",
"D7	c #180E08",
"E7	c #23160B",
"F7	c #251E0B",
"G7	c #231B0A",
"H7	c #201609",
"I7	c #140C06",
"J7	c #442416",
"K7	c #9E683D",
"L7	c #A26B3E",
"M7	c #905D37",
"N7	c #5E301B",
"O7	c #27130C",
"P7	c #23160D",
"Q7	c #1C110A",
"R7	c #160E08",
"S7	c #120B06",
"T7	c #100A06",
"U7	c #0F0A06",
"V7	c #150E08",
"W7	c #1C100A",
"X7	c #22140C",
"Y7	c #20130B",
"Z7	c #80492C",
"`7	c #A76A3E",
" 8	c #9E6339",
".8	c #874D29",
"+8	c #936442",
"@8	c #110A06",
"#8	c #20130C",
"$8	c #21130B",
"%8	c #23140C",
"&8	c #844F2F",
"*8	c #AE683A",
"=8	c #935B37",
"-8	c #4C2A19",
";8	c #422415",
">8	c #361D11",
",8	c #21130A",
"'8	c #24150D",
")8	c #1F130B",
"!8	c #1D120B",
"~8	c #1F120C",
"{8	c #20140B",
"]8	c #442D22",
"^8	c #AC693B",
"/8	c #B77240",
"(8	c #AA6C3F",
"_8	c #A36A40",
":8	c #955F3A",
"<8	c #6E3D23",
"[8	c #24160E",
"}8	c #26160D",
"|8	c #4B2818",
"18	c #854F2C",
"28	c #B3723F",
"38	c #AB6C3B",
"48	c #965C33",
"58	c #784326",
"68	c #70361D",
"78	c #562B1A",
"88	c #26140D",
"98	c #2C1911",
"08	c #5D3725",
"a8	c #543121",
"b8	c #603523",
"c8	c #613622",
"d8	c #5E3321",
"e8	c #633722",
"f8	c #63361C",
"g8	c #58321C",
"h8	c #502F1D",
"i8	c #472517",
"j8	c #5A301E",
"k8	c #502A1A",
"l8	c #321A10",
"m8	c #4D2B1C",
"n8	c #492A1B",
"o8	c #55301D",
"p8	c #54301C",
"q8	c #4E2C1A",
"r8	c #4A2918",
"s8	c #401F13",
"t8	c #4D2717",
"u8	c #542A1A",
"v8	c #432114",
"w8	c #572E1A",
"x8	c #58331E",
"y8	c #482C1B",
"z8	c #482C1C",
"A8	c #4C2D1C",
"B8	c #492718",
"C8	c #663720",
"D8	c #784126",
"E8	c #753F25",
"F8	c #633620",
"G8	c #4D291B",
"H8	c #562F21",
"I8	c #582F21",
"J8	c #5E3121",
"K8	c #5C3120",
"L8	c #582E1E",
"M8	c #592E1D",
"N8	c #5A2F1D",
"O8	c #5C301F",
"P8	c #5E3220",
"Q8	c #5E3120",
"R8	c #5E311F",
"S8	c #462317",
"T8	c #613621",
"U8	c #7A4D32",
"V8	c #30180E",
"W8	c #2F1810",
"X8	c #5A2E1E",
"Y8	c #623322",
"Z8	c #633322",
"`8	c #633422",
" 9	c #633523",
".9	c #643423",
"+9	c #683524",
"@9	c #512A1C",
"#9	c #6F432B",
"$9	c #945937",
"%9	c #6C3B24",
"&9	c #5F301C",
"*9	c #5A2E1C",
"=9	c #4B271A",
"-9	c #4E291B",
";9	c #5B3020",
">9	c #5E3222",
",9	c #613422",
"'9	c #643523",
")9	c #623323",
"!9	c #643323",
"~9	c #673423",
"{9	c #623120",
"]9	c #3F1F14",
"^9	c #5F301D",
"/9	c #683621",
"(9	c #6B3621",
"_9	c #6B3521",
":9	c #592B1A",
"<9	c #381A11",
"[9	c #5A2F20",
"}9	c #603321",
"|9	c #623422",
"19	c #5F3322",
"29	c #6A3A24",
"39	c #6B3B23",
"49	c #633823",
"59	c #653C28",
"69	c #91532E",
"79	c #955731",
"89	c #A05B31",
"99	c #91522D",
"09	c #8E502B",
"a9	c #93542E",
"b9	c #8E4F29",
"c9	c #8B4E28",
"d9	c #884C27",
"e9	c #784220",
"f9	c #7B4422",
"g9	c #723E1F",
"h9	c #60351F",
"i9	c #603924",
"j9	c #503020",
"k9	c #44281B",
"l9	c #45281B",
"m9	c #49291A",
"n9	c #5D3420",
"o9	c #653720",
"p9	c #60341E",
"q9	c #92532C",
"r9	c #98562C",
"s9	c #9F5C2F",
"t9	c #A15C2F",
"u9	c #A76033",
"v9	c #9C5D36",
"w9	c #7A482A",
"x9	c #6E4028",
"y9	c #6E3D22",
"z9	c #804626",
"A9	c #814622",
"B9	c #7E4421",
"C9	c #76401F",
"D9	c #66381E",
"E9	c #5B331C",
"F9	c #532F1C",
"G9	c #5C331C",
"H9	c #62361D",
"I9	c #6A3A1E",
"J9	c #794221",
"K9	c #764024",
"L9	c #673923",
"M9	c #552F1E",
"N9	c #472618",
"O9	c #472719",
"P9	c #56311F",
"Q9	c #653924",
"R9	c #693822",
"S9	c #6D3622",
"T9	c #7F4529",
"U9	c #91522E",
"V9	c #9D5831",
"W9	c #A25C31",
"X9	c #A05B2F",
"Y9	c #A15C31",
"Z9	c #A45D32",
"`9	c #A35C32",
" 0	c #9F592F",
".0	c #9A562D",
"+0	c #9A5630",
"@0	c #945330",
"#0	c #85492B",
"$0	c #733D24",
"%0	c #6D3621",
"&0	c #723925",
"*0	c #743924",
"=0	c #733824",
"-0	c #713723",
";0	c #713823",
">0	c #703723",
",0	c #743824",
"'0	c #763924",
")0	c #7B3E25",
"!0	c #763C26",
"~0	c #653422",
"{0	c #592E1E",
"]0	c #542B1B",
"^0	c #613221",
"/0	c #753C27",
"(0	c #773B25",
"_0	c #703521",
":0	c #713620",
"<0	c #783F26",
"[0	c #7B4126",
"}0	c #86492A",
"|0	c #894A29",
"10	c #894A28",
"20	c #894929",
"30	c #8A4A2A",
"40	c #8D4B2A",
"50	c #834428",
"60	c #5E301F",
"70	c #391E14",
"80	c #412218",
"90	c #442016",
"00	c #602F1F",
"a0	c #6F3720",
"b0	c #7B4124",
"c0	c #8C4C28",
"d0	c #91512B",
"e0	c #8B4F2A",
"f0	c #8C4E2A",
"g0	c #8D4E2A",
"h0	c #92522C",
"i0	c #97562E",
"j0	c #995A32",
"k0	c #9C5930",
"l0	c #9A582F",
"m0	c #9E5A31",
"n0	c #985831",
"o0	c #965831",
"p0	c #94542F",
"q0	c #92532D",
"r0	c #935530",
"s0	c #93542F",
"t0	c #864B27",
"u0	c #7D4624",
"v0	c #7F4624",
"w0	c #6B3D22",
"x0	c #734427",
"y0	c #754628",
"z0	c #834D2C",
"A0	c #91552F",
"B0	c #9B5A32",
"C0	c #9B5A2F",
"D0	c #9A5A30",
"E0	c #9B5B30",
"F0	c #9D5C31",
"G0	c #9D5D32",
"H0	c #9D5C32",
"I0	c #9E5D32",
"J0	c #9D5C33",
"K0	c #9C5C32",
"L0	c #90542D",
"M0	c #91542E",
"N0	c #91552E",
"O0	c #8E532E",
"P0	c #884F2A",
"Q0	c #844C29",
"R0	c #7F4928",
"S0	c #6F3E20",
"T0	c #734022",
"U0	c #744121",
"V0	c #754122",
"W0	c #764222",
"X0	c #764223",
"Y0	c #754123",
"Z0	c #6C3D21",
"`0	c #63391F",
" a	c #663A1F",
".a	c #673A20",
"+a	c #6A3A20",
"@a	c #965833",
"#a	c #A16035",
"$a	c #9F5F35",
"%a	c #9A5A33",
"&a	c #925530",
"*a	c #905631",
"=a	c #8C532F",
"-a	c #88502D",
";a	c #874E2C",
">a	c #854D2B",
",a	c #824C2A",
"'a	c #814B29",
")a	c #854D2A",
"!a	c #854F2D",
"~a	c #895231",
"{a	c #8F5633",
"]a	c #8A502E",
"^a	c #844B2B",
"/a	c #834929",
"(a	c #854C2B",
"_a	c #8D5331",
":a	c #9B5D37",
"<a	c #9E5E35",
"[a	c #9F5F37",
"}a	c #975730",
"|a	c #975830",
"1a	c #955832",
"2a	c #905530",
"3a	c #905430",
"4a	c #945631",
"5a	c #9B5A33",
"6a	c #A56137",
"7a	c #A15F34",
"8a	c #A05F34",
"9a	c #A25F34",
"0a	c #A36035",
"aa	c #A35F35",
"ba	c #A25F35",
"ca	c #A35F34",
"da	c #8D512F",
"ea	c #844C2C",
"fa	c #81492B",
"ga	c #834B2D",
"ha	c #8A4E2D",
"ia	c #975936",
"ja	c #9A5B37",
"ka	c #9A5A32",
"la	c #9F5B30",
"ma	c #A46031",
"na	c #935A2A",
"oa	c #99602D",
"pa	c #97612E",
"qa	c #8D662B",
"ra	c #60531F",
"sa	c #744E25",
"ta	c #85552C",
"ua	c #9A582E",
"va	c #8F5531",
"wa	c #935933",
"xa	c #6C3D24",
"ya	c #6B4227",
"za	c #5C361F",
"Aa	c #5C3720",
"Ba	c #673E24",
"Ca	c #6F4327",
"Da	c #6D4126",
"Ea	c #744326",
"Fa	c #6E4023",
"Ga	c #673B1F",
"Ha	c #663C20",
"Ia	c #663D21",
"Ja	c #673E22",
"Ka	c #693F23",
"La	c #683E23",
"Ma	c #643B20",
"Na	c #61391E",
"Oa	c #60391F",
"Pa	c #613A20",
"Qa	c #633B21",
"Ra	c #623A20",
"Sa	c #5A341C",
"Ta	c #56321B",
"Ua	c #52301B",
"Va	c #51301C",
"Wa	c #56321D",
"Xa	c #57331F",
"Ya	c #502F1B",
"Za	c #4A2C1A",
"`a	c #4C2C19",
" b	c #593623",
".b	c #392418",
"+b	c #352014",
"@b	c #331F12",
"#b	c #392315",
"$b	c #583723",
"%b	c #593823",
"&b	c #593923",
"*b	c #5A3924",
"=b	c #573722",
"-b	c #543521",
";b	c #533320",
">b	c #4E2F1A",
",b	c #4F2F1B",
"'b	c #5C351E",
")b	c #693D23",
"!b	c #6A3E24",
"~b	c #693F26",
"{b	c #6B4027",
"]b	c #472616",
"^b	c #422314",
"/b	c #3F2215",
"(b	c #412415",
"_b	c #4A2A19",
":b	c #563320",
"<b	c #5E3924",
"[b	c #613B23",
"}b	c #57391C",
"|b	c #37340E",
"1b	c #52551C",
"2b	c #57551E",
"3b	c #534D1C",
"4b	c #4F471B",
"5b	c #493B1A",
"6b	c #412F17",
"7b	c #4E331C",
"8b	c #72442A",
"9b	c #553220",
"0b	c #512F20",
"ab	c #4A2C1D",
"bb	c #4C2E1E",
"cb	c #4B2E1D",
"db	c #4D2F1D",
"eb	c #4E2F1E",
"fb	c #6F4227",
"gb	c #653B24",
"hb	c #603922",
"ib	c #55331D",
"jb	c #52361C",
"kb	c #4E361C",
"lb	c #47331A",
"mb	c #43321A",
"nb	c #3A2F17",
"ob	c #3E421A",
"pb	c #45491C",
"qb	c #48461C",
"rb	c #504B21",
"sb	c #504420",
"tb	c #4D321F",
"ub	c #492D1C",
"vb	c #4A2E1C",
"wb	c #492D1B",
"xb	c #4F311F",
"yb	c #462A1B",
"zb	c #4A2D1D",
"Ab	c #4D301E",
"Bb	c #503120",
"Cb	c #4E301F",
"Db	c #462B1C",
"Eb	c #43291B",
"Fb	c #43291A",
"Gb	c #442A1B",
"Hb	c #442B1C",
"Ib	c #452C1C",
"Jb	c #452B1C",
"Kb	c #452B1A",
"Lb	c #5B3823",
"Mb	c #603A25",
"Nb	c #643D26",
"Ob	c #663E26",
"Pb	c #663D26",
"Qb	c #643B24",
"Rb	c #5F3923",
"Sb	c #59331F",
"Tb	c #52301F",
"Ub	c #502E1E",
"Vb	c #462A1C",
"Wb	c #44291B",
"Xb	c #51311D",
"Yb	c #51311E",
"Zb	c #422718",
"`b	c #402616",
" c	c #403714",
".c	c #384112",
"+c	c #2C3010",
"@c	c #272E10",
"#c	c #242D10",
"$c	c #253010",
"%c	c #2A390F",
"&c	c #2D3911",
"*c	c #2F3711",
"=c	c #353312",
"-c	c #3B2B14",
";c	c #482D1B",
">c	c #492D1D",
",c	c #452A1A",
"'c	c #40271A",
")c	c #40271B",
"!c	c #41291B",
"~c	c #432A1C",
"{c	c #422A1D",
"]c	c #412A1D",
"^c	c #402A1C",
"/c	c #41291C",
"(c	c #42291D",
"_c	c #432A1D",
":c	c #3E2519",
"<c	c #442A1C",
"[c	c #452A1C",
"}c	c #462B1D",
"|c	c #523220",
"1c	c #553421",
"2c	c #573521",
"3c	c #583522",
"4c	c #593622",
"5c	c #5A3622",
"6c	c #5A3521",
"7c	c #4E2F1F",
"8c	c #4B2D1E",
"9c	c #352317",
"0c	c #2D1D14",
"ac	c #2D1E14",
"bc	c #2E1F14",
"cc	c #2E1F15",
"dc	c #322118",
"ec	c #332219",
"fc	c #342318",
"gc	c #342319",
"hc	c #342419",
"ic	c #332319",
"jc	c #342219",
"kc	c #342418",
"lc	c #352419",
"mc	c #352418",
"nc	c #332318",
"oc	c #35241A",
"pc	c #35241B",
"qc	c #35251A",
"rc	c #35251B",
"sc	c #36251B",
"tc	c #36261B",
"uc	c #36251A",
"vc	c #37261B",
"wc	c #37251B",
"xc	c #37251A",
"yc	c #36241A",
"zc	c #362419",
"Ac	c #352319",
"Bc	c #34231A",
"Cc	c #2E1F16",
"Dc	c #2A1C15",
"Ec	c #2A1C14",
"Fc	c #2B1C13",
"Gc	c #2C1D13",
"Hc	c #2D1E13",
"Ic	c #2E1E13",
"Jc	c #101012",
"Kc	c #18110C",
"Lc	c #22170F",
"Mc	c #23170F",
"Nc	c #231810",
"Oc	c #23180F",
"Pc	c #241810",
"Qc	c #251810",
"Rc	c #1C1611",
"Sc	c #14100C",
"Tc	c #120E0A",
"Uc	c #130F0B",
"Vc	c #140F0B",
"Wc	c #13100B",
"Xc	c #130E0B",
"Yc	c #14100B",
"Zc	c #140F0C",
"`c	c #150F0C",
" d	c #15100D",
".d	c #15100C",
"+d	c #14110C",
"@d	c #15110C",
"#d	c #16110D",
"$d	c #15110E",
"%d	c #16110E",
"&d	c #16120E",
"*d	c #15100E",
"=d	c #18130F",
"-d	c #1A1410",
";d	c #1A1411",
">d	c #1B1411",
",d	c #191310",
"'d	c #181310",
")d	c #15120E",
"!d	c #13100C",
"~d	c #120F0B",
"{d	c #0F0E0A",
"]d	c #0B0B0B",
"^d	c #0F0D09",
"/d	c #15100B",
"(d	c #19110D",
"_d	c #14100E",
":d	c #1C130D",
"<d	c #301F15",
"[d	c #322015",
"}d	c #1F1614",
"|d	c #271B15",
"1d	c #241812",
"2d	c #645347",
"3d	c #7B6758",
"4d	c #796455",
"5d	c #786455",
"6d	c #796556",
"7d	c #796657",
"8d	c #786556",
"9d	c #796656",
"0d	c #715E50",
"ad	c #221612",
"bd	c #2D1F18",
"cd	c #645549",
"dd	c #7A6758",
"ed	c #796758",
"fd	c #7A6859",
"gd	c #7A695A",
"hd	c #7B695B",
"id	c #7B695C",
"jd	c #7A695B",
"kd	c #7A685A",
"ld	c #796759",
"md	c #7A6759",
"nd	c #726153",
"od	c #241913",
"pd	c #2A1C16",
"qd	c #66574B",
"rd	c #7B6A5C",
"sd	c #7A6A5B",
"td	c #7A695C",
"ud	c #79695B",
"vd	c #79695D",
"wd	c #7A695D",
"xd	c #7A6A5D",
"yd	c #7A6A5E",
"zd	c #79695C",
"Ad	c #786759",
"Bd	c #41362F",
"Cd	c #281B15",
"Dd	c #65574D",
"Ed	c #7A6757",
"Fd	c #796757",
"Gd	c #7A6657",
"Hd	c #705E50",
"Id	c #1F1510",
"Jd	c #251913",
"Kd	c #605043",
"Ld	c #796555",
"Md	c #7A6554",
"Nd	c #78614F",
"Od	c #745B47",
"Pd	c #78614E",
"Qd	c #755C48",
"Rd	c #745A43",
"Sd	c #735943",
"Td	c #745943",
"Ud	c #72563F",
"Vd	c #644C39",
"Wd	c #241914",
"Xd	c #6A513E",
"Yd	c #72563E",
"Zd	c #70543D",
"`d	c #70553C",
" e	c #71553D",
".e	c #72553E",
"+e	c #72553D",
"@e	c #72543D",
"#e	c #73563E",
"$e	c #72563D",
"%e	c #5A4534",
"&e	c #2E2019",
"*e	c #291D17",
"=e	c #0F0D0A",
"-e	c #231811",
";e	c #1E1512",
">e	c #7A4E2D",
",e	c #573320",
"'e	c #1F1612",
")e	c #14100D",
"!e	c #35251C",
"~e	c #7F6A59",
"{e	c #9F8570",
"]e	c #9F856F",
"^e	c #9E836D",
"/e	c #9F836D",
"(e	c #9D8069",
"_e	c #9B7F67",
":e	c #9F846E",
"<e	c #A18670",
"[e	c #9F866F",
"}e	c #A0856F",
"|e	c #927A65",
"1e	c #312119",
"2e	c #3C2920",
"3e	c #826E5E",
"4e	c #A18773",
"5e	c #A28975",
"6e	c #A38A76",
"7e	c #A48B77",
"8e	c #A38975",
"9e	c #A38874",
"0e	c #A38873",
"ae	c #A38974",
"be	c #97806C",
"ce	c #32221A",
"de	c #38261D",
"ee	c #837060",
"fe	c #A28A76",
"ge	c #A28B78",
"he	c #A28B79",
"ie	c #A18B79",
"je	c #A28B7A",
"ke	c #A28C7A",
"le	c #A38D7C",
"me	c #A38D7D",
"ne	c #A38C7B",
"oe	c #A38C79",
"pe	c #A48D7A",
"qe	c #54483E",
"re	c #39261F",
"se	c #36241D",
"te	c #847162",
"ue	c #A48976",
"ve	c #A38875",
"we	c #A28872",
"xe	c #A28772",
"ye	c #A28771",
"ze	c #A28671",
"Ae	c #937A66",
"Be	c #2D1E17",
"Ce	c #34231B",
"De	c #7F6B58",
"Ee	c #A1856E",
"Fe	c #A0856E",
"Ge	c #9F8065",
"He	c #9C7B5E",
"Ie	c #9C7A5A",
"Je	c #9B7756",
"Ke	c #9B7757",
"Le	c #9B7959",
"Me	c #9A7554",
"Ne	c #9A7552",
"Oe	c #99714D",
"Pe	c #836145",
"Qe	c #31211A",
"Re	c #886749",
"Se	c #97714D",
"Te	c #96704C",
"Ue	c #966F4B",
"Ve	c #956E4A",
"We	c #956F4B",
"Xe	c #946C48",
"Ye	c #956D4A",
"Ze	c #97704C",
"`e	c #765B43",
" f	c #2D1F1A",
".f	c #120F0C",
"+f	c #332115",
"@f	c #2F1F14",
"#f	c #231710",
"$f	c #9A643C",
"%f	c #5C3722",
"&f	c #573623",
"*f	c #6C3E25",
"=f	c #6F4025",
"-f	c #573421",
";f	c #1F1611",
">f	c #34241C",
",f	c #2B1E17",
"'f	c #7C6757",
")f	c #9E836E",
"!f	c #9D826E",
"~f	c #9E826E",
"{f	c #9E826D",
"]f	c #9E826C",
"^f	c #9D826B",
"/f	c #9F836E",
"(f	c #A0846F",
"_f	c #A18570",
":f	c #927966",
"<f	c #32211A",
"[f	c #39271E",
"}f	c #806E5F",
"|f	c #A28974",
"1f	c #A38A75",
"2f	c #A48A76",
"3f	c #A58B77",
"4f	c #A48A77",
"5f	c #A48A75",
"6f	c #97806D",
"7f	c #36251C",
"8f	c #806D5E",
"9f	c #A38C7A",
"0f	c #A38C7C",
"af	c #A38D7E",
"bf	c #A48E7E",
"cf	c #A28D7C",
"df	c #A48C7A",
"ef	c #53463E",
"ff	c #3A2720",
"gf	c #34231C",
"hf	c #826E60",
"if	c #A38772",
"jf	c #A38972",
"kf	c #A38871",
"lf	c #947C68",
"mf	c #2E1F19",
"nf	c #33221B",
"of	c #7F6B5A",
"pf	c #A18770",
"qf	c #A1856F",
"rf	c #9F8168",
"sf	c #9F7F64",
"tf	c #9D7A5C",
"uf	c #9C7959",
"vf	c #9E7C5D",
"wf	c #9F7F63",
"xf	c #9B7450",
"yf	c #806044",
"zf	c #836447",
"Af	c #98724D",
"Bf	c #976F4B",
"Cf	c #976D4A",
"Df	c #966B48",
"Ef	c #725740",
"Ff	c #261B16",
"Gf	c #100C0B",
"Hf	c #2E1B12",
"If	c #2C2412",
"Jf	c #2D2813",
"Kf	c #2B2812",
"Lf	c #292511",
"Mf	c #24180E",
"Nf	c #302A13",
"Of	c #332614",
"Pf	c #121112",
"Qf	c #24170E",
"Rf	c #2D1B10",
"Sf	c #2F1C10",
"Tf	c #2F1C11",
"Uf	c #331D12",
"Vf	c #372014",
"Wf	c #361F13",
"Xf	c #1F1712",
"Yf	c #100C09",
"Zf	c #2B1D16",
"`f	c #7B6555",
" g	c #9E816B",
".g	c #9F826D",
"+g	c #9F846F",
"@g	c #9D816B",
"#g	c #9E836C",
"$g	c #A0846E",
"%g	c #A1846F",
"&g	c #927A66",
"*g	c #302019",
"=g	c #39271D",
"-g	c #A48B76",
";g	c #A58A77",
">g	c #A58C79",
",g	c #A58D79",
"'g	c #988473",
")g	c #817062",
"!g	c #A38E7B",
"~g	c #A38D7B",
"{g	c #A48E7D",
"]g	c #A48F7E",
"^g	c #A58F7E",
"/g	c #A6907F",
"(g	c #A5907E",
"_g	c #A48D7B",
":g	c #A58E7D",
"<g	c #392B24",
"[g	c #33231D",
"}g	c #7B695D",
"|g	c #A48C78",
"1g	c #A38872",
"2g	c #A48973",
"3g	c #96806C",
"4g	c #2C1D17",
"5g	c #816D5D",
"6g	c #9F8169",
"7g	c #9E7D63",
"8g	c #9E7D62",
"9g	c #9E7D5F",
"0g	c #9E7C5E",
"ag	c #9D7958",
"bg	c #9A7350",
"cg	c #9B734F",
"dg	c #826245",
"eg	c #846549",
"fg	c #98714D",
"gg	c #986D4A",
"hg	c #99704D",
"ig	c #986F4C",
"jg	c #976C48",
"kg	c #976B46",
"lg	c #986C47",
"mg	c #996D48",
"ng	c #99704B",
"og	c #72573E",
"pg	c #2F201A",
"qg	c #231914",
"rg	c #20150D",
"sg	c #1C140B",
"tg	c #201A0E",
"ug	c #211D0F",
"vg	c #1F1C0F",
"wg	c #1E190C",
"xg	c #1F170C",
"yg	c #201A0D",
"zg	c #1F150C",
"Ag	c #1D130C",
"Bg	c #130F0D",
"Cg	c #111012",
"Dg	c #25180E",
"Eg	c #1B220C",
"Fg	c #131D09",
"Gg	c #1B1E0C",
"Hg	c #271D0F",
"Ig	c #231B0D",
"Jg	c #201D0C",
"Kg	c #2B2110",
"Lg	c #2D2012",
"Mg	c #1D150E",
"Ng	c #1E1611",
"Og	c #302018",
"Pg	c #7D6756",
"Qg	c #BEA287",
"Rg	c #D2B699",
"Sg	c #D3B79A",
"Tg	c #D3B79B",
"Ug	c #D1B294",
"Vg	c #D2B395",
"Wg	c #D1B295",
"Xg	c #D1B496",
"Yg	c #D2B79B",
"Zg	c #BEA68E",
"`g	c #543A2B",
" h	c #493022",
".h	c #7F6C5D",
"+h	c #B9A18A",
"@h	c #D7C2AA",
"#h	c #D9C4AE",
"$h	c #D8C3AD",
"%h	c #D7C4AE",
"&h	c #DAC8B4",
"*h	c #DCCAB8",
"=h	c #DCCBB7",
"-h	c #DBC9B5",
";h	c #DDCBB9",
">h	c #DECDBB",
",h	c #CBBBAA",
"'h	c #322018",
")h	c #857465",
"!h	c #BEAC9A",
"~h	c #DAC8B5",
"{h	c #DCCAB7",
"]h	c #DBCAB8",
"^h	c #DAC8B6",
"/h	c #DDCCBA",
"(h	c #DCCCBA",
"_h	c #D9C7B3",
":h	c #433831",
"<h	c #3D2921",
"[h	c #3E2B22",
"}h	c #A58C78",
"|h	c #D1BDA6",
"1h	c #DAC5AD",
"2h	c #D8C3AB",
"3h	c #D9C5AD",
"4h	c #D8C1A9",
"5h	c #D7C0A7",
"6h	c #D8BFA6",
"7h	c #D7BEA5",
"8h	c #D6BDA1",
"9h	c #D6BDA2",
"0h	c #D7BFA4",
"ah	c #C3AE97",
"bh	c #412D23",
"ch	c #412C21",
"dh	c #847060",
"eh	c #BDA48D",
"fh	c #D5BA9F",
"gh	c #CFAE8D",
"hh	c #CEAD8A",
"ih	c #CEAC88",
"jh	c #CFAE8B",
"kh	c #CFAF8D",
"lh	c #CFAD8B",
"mh	c #CDAB88",
"nh	c #CEAA84",
"oh	c #C9A27A",
"ph	c #C89F75",
"qh	c #A68563",
"rh	c #4A3224",
"sh	c #3E291D",
"th	c #86684B",
"uh	c #B28861",
"vh	c #C79B70",
"wh	c #C69A6E",
"xh	c #C89C6F",
"yh	c #C49769",
"zh	c #C29363",
"Ah	c #C39465",
"Bh	c #C19263",
"Ch	c #C79A6C",
"Dh	c #C4996D",
"Eh	c #957558",
"Fh	c #261810",
"Gh	c #3B2215",
"Hh	c #684831",
"Ih	c #3E2416",
"Jh	c #1C130F",
"Kh	c #6D442B",
"Lh	c #66361D",
"Mh	c #272712",
"Nh	c #1E3010",
"Oh	c #322D15",
"Ph	c #352114",
"Qh	c #2A1910",
"Rh	c #372416",
"Sh	c #1E160F",
"Th	c #16100C",
"Uh	c #120D0A",
"Vh	c #513729",
"Wh	c #7D6553",
"Xh	c #9D7F68",
"Yh	c #C4A689",
"Zh	c #DBBC9D",
"`h	c #D9BA9A",
" i	c #D9BA99",
".i	c #DABB9C",
"+i	c #DBBC9C",
"@i	c #D8B796",
"#i	c #D9B999",
"$i	c #DABD9F",
"%i	c #DCC2A4",
"&i	c #C5AE95",
"*i	c #5B402F",
"=i	c #472F1F",
"-i	c #7D6A5B",
";i	c #BEA58E",
">i	c #E0CBB3",
",i	c #E1CDB6",
"'i	c #E2CFB8",
")i	c #E4D2BC",
"!i	c #E4D3BD",
"~i	c #E7D6C2",
"{i	c #E5D4BF",
"]i	c #E3D1BD",
"^i	c #E6D5C3",
"/i	c #E5D4C2",
"(i	c #E7D5C1",
"_i	c #D2C1AF",
":i	c #654330",
"<i	c #513628",
"[i	c #847262",
"}i	c #C3AF9C",
"|i	c #E5D4C1",
"1i	c #E6D5C1",
"2i	c #E5D3BF",
"3i	c #E4D3C0",
"4i	c #E5D3C0",
"5i	c #E5D4C0",
"6i	c #E3D2BD",
"7i	c #E4D2BD",
"8i	c #E3D1BB",
"9i	c #5B4C42",
"0i	c #60402D",
"ai	c #553929",
"bi	c #7B685A",
"ci	c #D8C4AE",
"di	c #E2CDB5",
"ei	c #E3CFB6",
"fi	c #E2D0B8",
"gi	c #E2CEB6",
"hi	c #E1CBB2",
"ii	c #E0C8AF",
"ji	c #E0C7AC",
"ki	c #DFC5AA",
"li	c #DEC5A9",
"mi	c #DEC5A8",
"ni	c #C9B299",
"oi	c #4C3528",
"pi	c #472F22",
"qi	c #836F5D",
"ri	c #C0A58C",
"si	c #DABD9D",
"ti	c #D7B695",
"ui	c #D9BA98",
"vi	c #D6B48F",
"wi	c #D8B692",
"xi	c #D4B08A",
"yi	c #D4AE86",
"zi	c #D2AB80",
"Ai	c #AF8F6C",
"Bi	c #543928",
"Ci	c #462E1F",
"Di	c #8A6A4D",
"Ei	c #BC936B",
"Fi	c #D0A477",
"Gi	c #D0A273",
"Hi	c #CFA171",
"Ii	c #D0A271",
"Ji	c #CA9A6A",
"Ki	c #CFA170",
"Li	c #D1A678",
"Mi	c #CA9F72",
"Ni	c #A08062",
"Oi	c #503729",
"Pi	c #2F1F18",
"Qi	c #160D0B",
"Ri	c #371F13",
"Si	c #3D2314",
"Ti	c #7F5435",
"Ui	c #362014",
"Vi	c #4A2B19",
"Wi	c #1D130F",
"Xi	c #8A5A37",
"Yi	c #794527",
"Zi	c #5D341E",
"`i	c #2B2811",
" j	c #355716",
".j	c #3F3A18",
"+j	c #4C2C1C",
"@j	c #2B180F",
"#j	c #5E3A23",
"$j	c #3B2A1E",
"%j	c #160E0B",
"&j	c #3A271D",
"*j	c #54392A",
"=j	c #846A56",
"-j	c #9C7F67",
";j	c #C4A686",
">j	c #D8B895",
",j	c #D9BA97",
"'j	c #DBBD9B",
")j	c #D7B591",
"!j	c #DCBE9F",
"~j	c #DABC9D",
"{j	c #DABEA1",
"]j	c #DAC0A3",
"^j	c #C7B197",
"/j	c #563D2C",
"(j	c #442D1F",
"_j	c #7C695A",
":j	c #BFA790",
"<j	c #E3D0B8",
"[j	c #E2CFB7",
"}j	c #E1CDB5",
"|j	c #E1CEB6",
"1j	c #E7D6C3",
"2j	c #E5D3BE",
"3j	c #D2C2B0",
"4j	c #694630",
"5j	c #5B3F2D",
"6j	c #857262",
"7j	c #C2AE9B",
"8j	c #E3D2BE",
"9j	c #E6D4C0",
"0j	c #E4D2BE",
"aj	c #E4D3BE",
"bj	c #E3D1BC",
"cj	c #E3D0BA",
"dj	c #635042",
"ej	c #68452F",
"fj	c #503525",
"gj	c #816E5F",
"hj	c #D8C2AA",
"ij	c #E2CEB5",
"jj	c #E1CDB4",
"kj	c #E1CBB3",
"lj	c #E1CAB0",
"mj	c #E0C8AD",
"nj	c #DFC6AC",
"oj	c #DFC6AA",
"pj	c #503629",
"qj	c #483022",
"rj	c #846F5E",
"sj	c #BFA48A",
"tj	c #D8B998",
"uj	c #D7B895",
"vj	c #D7B794",
"wj	c #D5B38F",
"xj	c #D7B48E",
"yj	c #D4B18B",
"zj	c #D6B38C",
"Aj	c #D3AF86",
"Bj	c #D3AD84",
"Cj	c #D3AE83",
"Dj	c #AF906D",
"Ej	c #543929",
"Fj	c #8A6B4E",
"Gj	c #BE956D",
"Hj	c #D2A67A",
"Ij	c #D1A578",
"Jj	c #D0A374",
"Kj	c #D0A171",
"Lj	c #D2A574",
"Mj	c #D2A678",
"Nj	c #CEA275",
"Oj	c #CEA376",
"Pj	c #A2805E",
"Qj	c #5B3F2F",
"Rj	c #180F0C",
"Sj	c #512D18",
"Tj	c #905E39",
"Uj	c #724321",
"Vj	c #77492D",
"Wj	c #703E22",
"Xj	c #784426",
"Yj	c #1E1310",
"Zj	c #100F11",
"`j	c #92623C",
" k	c #814D2D",
".k	c #643821",
"+k	c #352312",
"@k	c #43681A",
"#k	c #4C321A",
"$k	c #4D2D1B",
"%k	c #543B1B",
"&k	c #754327",
"*k	c #9F6437",
"=k	c #563D2A",
"-k	c #150E0B",
";k	c #39261E",
">k	c #52382A",
",k	c #8A725E",
"'k	c #A0836B",
")k	c #C4A687",
"!k	c #D9B893",
"~k	c #D8B792",
"{k	c #D7B590",
"]k	c #DCBD9D",
"^k	c #D9B998",
"/k	c #DBBC9E",
"(k	c #DBBFA1",
"_k	c #DBC1A3",
":k	c #C4AD93",
"<k	c #573D2C",
"[k	c #452E1F",
"}k	c #7E6B5C",
"|k	c #C1AA94",
"1k	c #E3D2BB",
"2k	c #E6D5C0",
"3k	c #E8D6C3",
"4k	c #E7D5C2",
"5k	c #E7D5C0",
"6k	c #D3C5B4",
"7k	c #66442E",
"8k	c #543A2A",
"9k	c #867565",
"0k	c #C4B09C",
"ak	c #E2D1BC",
"bk	c #5D4C40",
"ck	c #6A4730",
"dk	c #523726",
"ek	c #816E5E",
"fk	c #A58B76",
"gk	c #D8C3AC",
"hk	c #E2D0B9",
"ik	c #DFC7AC",
"jk	c #DFC7AB",
"kk	c #CAB59E",
"lk	c #4E3527",
"mk	c #462E21",
"nk	c #887462",
"ok	c #C0A68C",
"pk	c #D9BC9C",
"qk	c #D8BB9A",
"rk	c #D8BB9B",
"sk	c #DABB9A",
"tk	c #D9B895",
"uk	c #D8B591",
"vk	c #D5B28D",
"wk	c #D7B48D",
"xk	c #D6B48D",
"yk	c #D3AF85",
"zk	c #AF906E",
"Ak	c #573B2B",
"Bk	c #442C1D",
"Ck	c #8B6C50",
"Dk	c #BF966E",
"Ek	c #D4AB7F",
"Fk	c #D3AA7E",
"Gk	c #D1A67A",
"Hk	c #D2A779",
"Ik	c #D0A577",
"Jk	c #CEA378",
"Kk	c #A48464",
"Lk	c #5D402E",
"Mk	c #52392A",
"Nk	c #885331",
"Ok	c #7A4424",
"Pk	c #814E2C",
"Qk	c #784A1F",
"Rk	c #7D4523",
"Sk	c #0F0F11",
"Tk	c #101011",
"Uk	c #7F5638",
"Vk	c #834F30",
"Wk	c #724227",
"Xk	c #322212",
"Yk	c #3B4116",
"Zk	c #693C22",
"`k	c #764A27",
" l	c #563720",
".l	c #804624",
"+l	c #A16538",
"@l	c #5B3E28",
"#l	c #160E0C",
"$l	c #38261E",
"%l	c #4F3627",
"&l	c #46392F",
"*l	c #544439",
"=l	c #685546",
"-l	c #725C4B",
";l	c #725D4B",
">l	c #745F4E",
",l	c #745F4F",
"'l	c #725D4D",
")l	c #725E4E",
"!l	c #715E4E",
"~l	c #6E5C4D",
"{l	c #645345",
"]l	c #624431",
"^l	c #4E3321",
"/l	c #433730",
"(l	c #68574B",
"_l	c #756558",
":l	c #77665A",
"<l	c #77675B",
"[l	c #76665A",
"}l	c #76655A",
"|l	c #77665B",
"1l	c #756559",
"2l	c #746458",
"3l	c #6D5E53",
"4l	c #64422D",
"5l	c #503727",
"6l	c #4A3D34",
"7l	c #6B5A4F",
"8l	c #726256",
"9l	c #6F6054",
"0l	c #6B5E52",
"al	c #6A5D52",
"bl	c #665A50",
"cl	c #62584F",
"dl	c #625850",
"el	c #645950",
"fl	c #665B52",
"gl	c #675E55",
"hl	c #3C2A1F",
"il	c #694731",
"jl	c #4E3424",
"kl	c #3E352E",
"ll	c #54473E",
"ml	c #6A5E54",
"nl	c #6D6158",
"ol	c #6E6257",
"pl	c #6E6155",
"ql	c #6E6156",
"rl	c #716255",
"sl	c #736356",
"tl	c #726255",
"ul	c #726154",
"vl	c #716053",
"wl	c #736254",
"xl	c #6B5B4F",
"yl	c #53392A",
"zl	c #482F21",
"Al	c #473C33",
"Bl	c #6B5849",
"Cl	c #715F50",
"Dl	c #705D4F",
"El	c #705C4D",
"Fl	c #6E594A",
"Gl	c #6E5949",
"Hl	c #6E5848",
"Il	c #6C5746",
"Jl	c #6D5746",
"Kl	c #6D5645",
"Ll	c #5D4A3C",
"Ml	c #462D1E",
"Nl	c #4E3E32",
"Ol	c #6D5443",
"Pl	c #705846",
"Ql	c #6D5644",
"Rl	c #6E5543",
"Sl	c #6E5442",
"Tl	c #6F5543",
"Ul	c #705543",
"Vl	c #6E5643",
"Wl	c #6A5341",
"Xl	c #685242",
"Yl	c #534438",
"Zl	c #583C2B",
"`l	c #170F0C",
" m	c #553D2E",
".m	c #8C5936",
"+m	c #7A4323",
"@m	c #673E1F",
"#m	c #764420",
"$m	c #794422",
"%m	c #784322",
"&m	c #63371D",
"*m	c #58321D",
"=m	c #996138",
"-m	c #794729",
";m	c #4D331C",
">m	c #435E19",
",m	c #754424",
"'m	c #7C4726",
")m	c #7A4626",
"!m	c #814623",
"~m	c #9F6337",
"{m	c #6F492F",
"]m	c #4C3325",
"^m	c #4E3323",
"/m	c #573A28",
"(m	c #5E3F2C",
"_m	c #5F3F2C",
":m	c #60402C",
"<m	c #61402D",
"[m	c #5F3E2B",
"}m	c #5E3E2A",
"|m	c #5D3E2A",
"1m	c #583A28",
"2m	c #694833",
"3m	c #513522",
"4m	c #372820",
"5m	c #593C2A",
"6m	c #5F3F2B",
"7m	c #613F2B",
"8m	c #60402B",
"9m	c #61402B",
"0m	c #603F2C",
"am	c #593928",
"bm	c #573827",
"cm	c #553827",
"dm	c #563928",
"em	c #583B27",
"fm	c #533826",
"gm	c #67442E",
"hm	c #4F3425",
"im	c #3B281E",
"jm	c #5B3C2A",
"km	c #543826",
"lm	c #4D3221",
"mm	c #4B301F",
"nm	c #4B3021",
"om	c #4B3121",
"pm	c #4C3022",
"qm	c #4B3022",
"rm	c #4D3021",
"sm	c #4D3122",
"tm	c #462D20",
"um	c #402B1E",
"vm	c #6D4932",
"wm	c #4B3223",
"xm	c #38261C",
"ym	c #4E3224",
"zm	c #4C3122",
"Am	c #4A3020",
"Bm	c #4B3020",
"Cm	c #503424",
"Dm	c #543827",
"Em	c #573927",
"Fm	c #4F3222",
"Gm	c #432C1E",
"Hm	c #5D402C",
"Im	c #4C3222",
"Jm	c #3A2A20",
"Km	c #67452F",
"Lm	c #69462F",
"Mm	c #69452F",
"Nm	c #6A462F",
"Om	c #6A4630",
"Pm	c #67422D",
"Qm	c #65422D",
"Rm	c #63422D",
"Sm	c #5F3F2A",
"Tm	c #5A3B27",
"Um	c #573A27",
"Vm	c #493021",
"Wm	c #644430",
"Xm	c #482E1E",
"Ym	c #483429",
"Zm	c #6B4730",
"`m	c #6E4830",
" n	c #724C32",
".n	c #704A32",
"+n	c #6C462F",
"@n	c #65422E",
"#n	c #543725",
"$n	c #422B1D",
"%n	c #4F3626",
"&n	c #4B3529",
"*n	c #854B29",
"=n	c #5D361A",
"-n	c #724120",
";n	c #784424",
">n	c #6E3D24",
",n	c #784224",
"'n	c #1F1311",
")n	c #100E11",
"!n	c #28190F",
"~n	c #B17442",
"{n	c #693F27",
"]n	c #4D6317",
"^n	c #683D20",
"/n	c #6D3E22",
"(n	c #7F4524",
"_n	c #9D6035",
":n	c #744E33",
"<n	c #38271E",
"[n	c #4B3325",
"}n	c #514439",
"|n	c #665649",
"1n	c #675649",
"2n	c #685649",
"3n	c #675648",
"4n	c #675647",
"5n	c #685648",
"6n	c #695749",
"7n	c #69584A",
"8n	c #68594B",
"9n	c #695A4D",
"0n	c #635448",
"an	c #684632",
"bn	c #4D3121",
"cn	c #50453C",
"dn	c #6C5D51",
"en	c #6C5E52",
"fn	c #6C5C52",
"gn	c #6C5D52",
"hn	c #6C5E53",
"in	c #6F6053",
"jn	c #67594E",
"kn	c #62422E",
"ln	c #432C1F",
"mn	c #574B43",
"nn	c #6E6055",
"on	c #6D5F54",
"pn	c #6D5F55",
"qn	c #6D6054",
"rn	c #6E6056",
"sn	c #6E5F54",
"tn	c #3E2A1E",
"un	c #6E4932",
"vn	c #4F443C",
"wn	c #6C5D53",
"xn	c #695C51",
"yn	c #6A5C51",
"zn	c #6B5D52",
"An	c #6D5E52",
"Bn	c #6E5F53",
"Cn	c #66594D",
"Dn	c #62432F",
"En	c #4B3120",
"Fn	c #594D43",
"Gn	c #6F5F53",
"Hn	c #6D5E51",
"In	c #6D5D51",
"Jn	c #6E5D51",
"Kn	c #5D4F44",
"Ln	c #5F412D",
"Mn	c #442B1D",
"Nn	c #584A3F",
"On	c #6A5748",
"Pn	c #6A5747",
"Qn	c #6A5646",
"Rn	c #6A5645",
"Sn	c #6B5646",
"Tn	c #6C5645",
"Un	c #6D5846",
"Vn	c #544538",
"Wn	c #4B3326",
"Xn	c #463025",
"Yn	c #AB7549",
"Zn	c #8B512E",
"`n	c #522C18",
" o	c #673920",
".o	c #5E351F",
"+o	c #472818",
"@o	c #5C321C",
"#o	c #774022",
"$o	c #3A2116",
"%o	c #251712",
"&o	c #AA6D3C",
"*o	c #583A20",
"=o	c #3E2516",
"-o	c #6E3B20",
";o	c #804422",
">o	c #A16439",
",o	c #624028",
"'o	c #7D6755",
")o	c #A68A72",
"!o	c #AC8E74",
"~o	c #AC8D72",
"{o	c #AC8D70",
"]o	c #AB8D70",
"^o	c #AC8D71",
"/o	c #AD9074",
"(o	c #AD9177",
"_o	c #AE947C",
":o	c #AF967E",
"<o	c #A18A75",
"[o	c #654431",
"}o	c #4E3525",
"|o	c #AB937D",
"1o	c #B39C86",
"2o	c #B39B85",
"3o	c #B49D87",
"4o	c #B59E89",
"5o	c #B6A08B",
"6o	c #B7A28D",
"7o	c #B9A390",
"8o	c #BBA793",
"9o	c #BDA795",
"0o	c #BEA895",
"ao	c #B09C8B",
"bo	c #60412D",
"co	c #432B1E",
"do	c #887566",
"eo	c #AE9884",
"fo	c #B6A08C",
"go	c #B7A290",
"ho	c #B8A492",
"io	c #B9A594",
"jo	c #BBA795",
"ko	c #BCA896",
"lo	c #BDA998",
"mo	c #BFAB99",
"no	c #C1AC9B",
"oo	c #C2AD99",
"po	c #3F2A1E",
"qo	c #513525",
"ro	c #746357",
"so	c #A78E7D",
"to	c #B49E8D",
"uo	c #B5A08D",
"vo	c #B59F8B",
"wo	c #B5A08B",
"xo	c #B49E89",
"yo	c #B49F8A",
"zo	c #B49C87",
"Ao	c #A79481",
"Bo	c #61432F",
"Co	c #492F1F",
"Do	c #867362",
"Eo	c #AD947F",
"Fo	c #B49C88",
"Go	c #B49C89",
"Ho	c #B49D88",
"Io	c #B49D86",
"Jo	c #B49C86",
"Ko	c #B59D87",
"Lo	c #96816F",
"Mo	c #573C2B",
"No	c #89705B",
"Oo	c #AA8D72",
"Po	c #AF9175",
"Qo	c #AF8F73",
"Ro	c #AD8C6D",
"So	c #AC8B6B",
"To	c #AC8A69",
"Uo	c #AE8B6A",
"Vo	c #AF8D6C",
"Wo	c #AF8E6C",
"Xo	c #B1906E",
"Yo	c #886F59",
"Zo	c #4B3426",
"`o	c #2E1E16",
" p	c #452F25",
".p	c #89502C",
"+p	c #6D3D22",
"@p	c #65371E",
"#p	c #67381E",
"$p	c #542F1C",
"%p	c #5A311B",
"&p	c #764021",
"*p	c #472A1D",
"=p	c #A76B3B",
"-p	c #442718",
";p	c #3F2418",
">p	c #4C2B1A",
",p	c #9F643A",
"'p	c #573B27",
")p	c #C4A588",
"!p	c #D8B896",
"~p	c #D9B896",
"{p	c #D9B997",
"]p	c #D6B692",
"^p	c #D7B999",
"/p	c #DEC4AA",
"(p	c #C9B39C",
"_p	c #4F3524",
":p	c #7C6A5B",
"<p	c #C1A993",
"[p	c #E0CAB2",
"}p	c #E0C9B1",
"|p	c #DEC7AE",
"1p	c #E0CAB1",
"2p	c #D2C2B1",
"3p	c #857264",
"4p	c #C4B09F",
"5p	c #E9D8C7",
"6p	c #E9D9C7",
"7p	c #E8D8C8",
"8p	c #E8D8C7",
"9p	c #E8D7C7",
"0p	c #E9DAC7",
"ap	c #E9D9C6",
"bp	c #E8D7C3",
"cp	c #412C1E",
"dp	c #795035",
"ep	c #4F3324",
"fp	c #716155",
"gp	c #A6907E",
"hp	c #DCCAB6",
"ip	c #E1D0BA",
"jp	c #E2D1BA",
"kp	c #E2D0BA",
"lp	c #E1CFB8",
"mp	c #CFBFAA",
"np	c #654531",
"op	c #492E1F",
"pp	c #847061",
"qp	c #C1AC96",
"rp	c #E1D0B9",
"sp	c #E0CDB6",
"tp	c #E1CFB7",
"up	c #E1CEB7",
"vp	c #E2CEB8",
"wp	c #E2CEB7",
"xp	c #E1CCB5",
"yp	c #B9A894",
"zp	c #563B2A",
"Ap	c #362318",
"Bp	c #8B7460",
"Cp	c #C7AC90",
"Dp	c #DCBD9E",
"Ep	c #D7B28C",
"Fp	c #D4AF86",
"Gp	c #D4AF85",
"Hp	c #D8B68F",
"Ip	c #D9B790",
"Jp	c #D8B690",
"Kp	c #A68E75",
"Lp	c #170E0B",
"Mp	c #3F2920",
"Np	c #AB7649",
"Op	c #89512E",
"Pp	c #462714",
"Qp	c #4E2A17",
"Rp	c #6A3B20",
"Sp	c #59321E",
"Tp	c #5C311C",
"Up	c #5C331E",
"Vp	c #391F14",
"Wp	c #0F0E10",
"Xp	c #332116",
"Yp	c #A66B3C",
"Zp	c #46291B",
"`p	c #4A2A1A",
" q	c #6F3A1F",
".q	c #814322",
"+q	c #9D633A",
"@q	c #473124",
"#q	c #39261D",
"$q	c #4E3426",
"%q	c #9D816C",
"&q	c #C3A486",
"*q	c #D8B795",
"=q	c #D8B997",
"-q	c #D8BA97",
";q	c #DABB99",
">q	c #DABDA0",
",q	c #DBC1A4",
"'q	c #C6AF96",
")q	c #66442F",
"!q	c #503524",
"~q	c #7C6A5A",
"{q	c #C0A790",
"]q	c #DDC3A9",
"^q	c #E0C8AE",
"/q	c #E0C9B0",
"(q	c #E0CAAF",
"_q	c #E3D1BA",
":q	c #E6D5C2",
"<q	c #E7D5C3",
"[q	c #D3C2B1",
"}q	c #61422E",
"|q	c #3F281D",
"1q	c #C4B1A1",
"2q	c #E9D9C8",
"3q	c #E9D9C9",
"4q	c #E9D8C9",
"5q	c #E9D8C8",
"6q	c #E8D7C6",
"7q	c #E7D6C4",
"8q	c #412B1E",
"9q	c #835739",
"0q	c #4E3222",
"aq	c #A68F80",
"bq	c #DBC8B2",
"cq	c #E3D2BC",
"dq	c #E4D2BB",
"eq	c #CFBEA9",
"fq	c #482D1E",
"gq	c #837061",
"hq	c #C3AE9B",
"iq	c #E4D3BF",
"jq	c #E2CFB9",
"kq	c #B7A692",
"lq	c #64432D",
"mq	c #8B7562",
"nq	c #C8AF94",
"oq	c #DDC1A2",
"pq	c #DBBB9A",
"qq	c #DBBB98",
"rq	c #D8B58F",
"sq	c #D5B18A",
"tq	c #DAB892",
"uq	c #DAB893",
"vq	c #DCBB98",
"wq	c #A68D75",
"xq	c #4C3327",
"yq	c #170D0B",
"zq	c #3B261C",
"Aq	c #87512E",
"Bq	c #412315",
"Cq	c #59311D",
"Dq	c #542F1D",
"Eq	c #56301C",
"Fq	c #60341D",
"Gq	c #773F22",
"Hq	c #5A321E",
"Iq	c #241611",
"Jq	c #120F11",
"Kq	c #A56B3C",
"Lq	c #522E1D",
"Mq	c #452719",
"Nq	c #834423",
"Oq	c #814422",
"Pq	c #9F673F",
"Qq	c #1F100A",
"Rq	c #3A261D",
"Sq	c #C2A385",
"Tq	c #D7B692",
"Uq	c #D7B796",
"Vq	c #D8B695",
"Wq	c #DCC0A3",
"Xq	c #DAC0A2",
"Yq	c #C6AF95",
"Zq	c #7B695A",
"`q	c #DAC0A4",
" r	c #DDC4AA",
".r	c #DCC4AB",
"+r	c #E1CCB3",
"@r	c #DFC9AF",
"#r	c #DEC7AC",
"$r	c #E1CEB5",
"%r	c #D3C4B3",
"&r	c #61422D",
"*r	c #847365",
"=r	c #EAD8C9",
"-r	c #E7D8C6",
";r	c #E7D7C3",
">r	c #86593A",
",r	c #4D3222",
"'r	c #716156",
")r	c #A7917F",
"!r	c #DBCAB5",
"~r	c #CEBEAB",
"{r	c #C4AF9C",
"]r	c #E5D3BD",
"^r	c #E0CCB3",
"/r	c #6A472F",
"(r	c #483021",
"_r	c #8C7662",
":r	c #C8AE94",
"<r	c #DEC2A4",
"[r	c #D8B794",
"}r	c #DAB894",
"|r	c #DBBA95",
"1r	c #D9B792",
"2r	c #A78E76",
"3r	c #4D3426",
"4r	c #38241B",
"5r	c #86502C",
"6r	c #704328",
"7r	c #552F1D",
"8r	c #62351D",
"9r	c #231611",
"0r	c #140F11",
"ar	c #0F0F10",
"br	c #A4693B",
"cr	c #48291A",
"dr	c #6F3B1F",
"er	c #844521",
"fr	c #A26B45",
"gr	c #170C08",
"hr	c #573A29",
"ir	c #C3A485",
"jr	c #D8B897",
"kr	c #D8B999",
"lr	c #DABEA0",
"mr	c #DABFA1",
"nr	c #C5AE94",
"or	c #65442F",
"pr	c #503523",
"qr	c #7B6A5A",
"rr	c #BFA68E",
"sr	c #DDC3A8",
"tr	c #DEC6AD",
"ur	c #DEC5AA",
"vr	c #DDC5AA",
"wr	c #D4C4B3",
"xr	c #857365",
"yr	c #E9DAC8",
"zr	c #E8D8C6",
"Ar	c #E8D7C4",
"Br	c #402B1D",
"Cr	c #85593A",
"Dr	c #4C3221",
"Er	c #706155",
"Fr	c #A69180",
"Gr	c #DCCBB6",
"Hr	c #E5D4BE",
"Ir	c #D0C0AD",
"Jr	c #644530",
"Kr	c #837161",
"Lr	c #E1CFB6",
"Mr	c #B7A794",
"Nr	c #6C4831",
"Or	c #4B3222",
"Pr	c #C9AF96",
"Qr	c #DEC3A6",
"Rr	c #DCBC9C",
"Sr	c #DBBD9D",
"Tr	c #DBBC99",
"Ur	c #DBBB96",
"Vr	c #DABA95",
"Wr	c #A58D75",
"Xr	c #533828",
"Yr	c #2B1C15",
"Zr	c #39251B",
"`r	c #A97549",
" s	c #89502B",
".s	c #3E2115",
"+s	c #58311C",
"@s	c #542F1B",
"#s	c #67371D",
"$s	c #54301B",
"%s	c #3B2115",
"&s	c #0F1010",
"*s	c #0F0F0F",
"=s	c #A26739",
"-s	c #703C20",
";s	c #7D4426",
">s	c #854622",
",s	c #9A643F",
"'s	c #160D09",
")s	c #39251C",
"!s	c #5A3C2A",
"~s	c #7D6855",
"{s	c #C3A587",
"]s	c #D7B691",
"^s	c #D7B896",
"/s	c #DABD9E",
"(s	c #D9BD9E",
"_s	c #D7BC9D",
":s	c #C5AE93",
"<s	c #66432F",
"[s	c #553725",
"}s	c #BEA58D",
"|s	c #DBC1A5",
"1s	c #DCC3A7",
"2s	c #DCC3A6",
"3s	c #DDC5A9",
"4s	c #DAC1A4",
"5s	c #DEC7AD",
"6s	c #D4C5B3",
"7s	c #62442E",
"8s	c #452C1F",
"9s	c #857366",
"0s	c #C4B2A1",
"as	c #E9DAC9",
"bs	c #E8D9C7",
"cs	c #E8D8C5",
"ds	c #3F2A1D",
"es	c #865A3A",
"fs	c #A6917E",
"gs	c #D0C0AF",
"hs	c #523626",
"is	c #827162",
"js	c #C3B09C",
"ks	c #E1D0B8",
"ls	c #E1CFB9",
"ms	c #E0CDB4",
"ns	c #E1D0B7",
"os	c #B7A894",
"ps	c #4A3222",
"qs	c #8B7461",
"rs	c #C8AE95",
"ss	c #DCC1A3",
"ts	c #DDC0A0",
"us	c #DEC4A5",
"vs	c #DCC0A0",
"ws	c #DBBE9D",
"xs	c #DDC09F",
"ys	c #DBBD99",
"zs	c #A58D74",
"As	c #563A29",
"Bs	c #2D1D15",
"Cs	c #A9754A",
"Ds	c #794023",
"Es	c #462617",
"Fs	c #502C19",
"Gs	c #6E3C21",
"Hs	c #7A4123",
"Is	c #381F15",
"Js	c #2B1A14",
"Ks	c #492919",
"Ls	c #502F1E",
"Ms	c #6F3D21",
"Ns	c #864722",
"Os	c #38251A",
"Ps	c #C4A88B",
"Qs	c #D6B693",
"Rs	c #D8B996",
"Ss	c #DABC9E",
"Ts	c #D8BB9C",
"Us	c #D9BFA0",
"Vs	c #C5AD93",
"Ws	c #65432E",
"Xs	c #5B3D2A",
"Ys	c #BFA68F",
"Zs	c #DCC2A5",
"`s	c #DBC2A4",
" t	c #DAC2A5",
".t	c #D4C5B4",
"+t	c #66452D",
"@t	c #C5B2A1",
"#t	c #E7D7C4",
"$t	c #875C3C",
"%t	c #4B3221",
"&t	c #D0C1AF",
"*t	c #553826",
"=t	c #827161",
"-t	c #4A3021",
";t	c #8A7361",
">t	c #C9B198",
",t	c #DEC6A9",
"'t	c #DCC2A3",
")t	c #DFC6A7",
"!t	c #DEC3A5",
"~t	c #DCBF9E",
"{t	c #DCBE9C",
"]t	c #DABB97",
"^t	c #DAB994",
"/t	c #5A3C29",
"(t	c #A77448",
"_t	c #874F2C",
":t	c #763E20",
"<t	c #2B150B",
"[t	c #723D22",
"}t	c #7B4323",
"|t	c #542E1A",
"1t	c #9C6135",
"2t	c #4D2C1D",
"3t	c #703D21",
"4t	c #713E22",
"5t	c #854621",
"6t	c #935E37",
"7t	c #63432F",
"8t	c #C5AA8F",
"9t	c #D7B795",
"0t	c #D6B794",
"at	c #D9BD9F",
"bt	c #D7BB9D",
"ct	c #C4AB90",
"dt	c #C0A791",
"et	c #DEC6AC",
"ft	c #DCC5A8",
"gt	c #66442D",
"ht	c #867466",
"it	c #C4B1A0",
"jt	c #E9D8C6",
"kt	c #E9D8C5",
"lt	c #E7D6C1",
"mt	c #875C3B",
"nt	c #A68F7E",
"ot	c #DBC9B3",
"pt	c #E6D5BF",
"qt	c #E5D5BF",
"rt	c #D1C2AF",
"st	c #E0CCB4",
"tt	c #B8A894",
"ut	c #DFC9AD",
"vt	c #DDC5A7",
"wt	c #DDC3A5",
"xt	c #DEC4A6",
"yt	c #DCBE9D",
"zt	c #D8B995",
"At	c #D8B892",
"Bt	c #A28B71",
"Ct	c #A87549",
"Dt	c #874F2D",
"Et	c #753E21",
"Ft	c #512E1C",
"Gt	c #2B160D",
"Ht	c #733C1F",
"It	c #7B4223",
"Jt	c #4D2B18",
"Kt	c #171111",
"Lt	c #100E10",
"Mt	c #9D6034",
"Nt	c #412619",
"Ot	c #713D20",
"Pt	c #6D3B20",
"Qt	c #884722",
"Rt	c #935F38",
"St	c #150C09",
"Tt	c #3A251A",
"Ut	c #705E4F",
"Vt	c #907864",
"Wt	c #B29B84",
"Xt	c #C4AA90",
"Yt	c #C3A78C",
"Zt	c #C1A587",
"`t	c #C3A789",
" u	c #C4AA8D",
".u	c #C6AC91",
"+u	c #C4AB91",
"@u	c #C3AA90",
"#u	c #B09A83",
"$u	c #62422F",
"%u	c #5A3D2A",
"&u	c #726356",
"*u	c #B19C89",
"=u	c #C9B6A1",
"-u	c #C6B29A",
";u	c #C5B099",
">u	c #C4AF97",
",u	c #C6B29B",
"'u	c #CCBBA7",
")u	c #CCBDAA",
"!u	c #CDBDAA",
"~u	c #CEBFAB",
"{u	c #CFC0AD",
"]u	c #BFB1A2",
"^u	c #63422C",
"/u	c #523625",
"(u	c #7C6C60",
"_u	c #B1A091",
":u	c #D1C1B0",
"<u	c #D0C1AE",
"[u	c #CFC0AE",
"}u	c #CEBFAE",
"|u	c #CEBFAC",
"1u	c #CFBFAC",
"2u	c #CFBFAB",
"3u	c #D1C3B1",
"4u	c #815639",
"5u	c #68594E",
"6u	c #968171",
"7u	c #C3B19F",
"8u	c #CDBEAA",
"9u	c #CCBDA9",
"0u	c #CCBEAA",
"au	c #CDBEAB",
"bu	c #BCAE9E",
"cu	c #64442F",
"du	c #77685B",
"eu	c #B09E8C",
"fu	c #CEBDAA",
"gu	c #CDBDA9",
"hu	c #CBB9A4",
"iu	c #CAB8A3",
"ju	c #C9B7A2",
"ku	c #A29382",
"lu	c #493121",
"mu	c #7E6B5A",
"nu	c #B7A18C",
"ou	c #CAB69E",
"pu	c #C7B298",
"qu	c #C6AE93",
"ru	c #C4AB8F",
"su	c #C2A78A",
"tu	c #C2A789",
"uu	c #C2A788",
"vu	c #C1A586",
"wu	c #907B66",
"xu	c #2B1810",
"yu	c #874E2D",
"zu	c #743E21",
"Au	c #552F1C",
"Bu	c #422416",
"Cu	c #743D1F",
"Du	c #7D4323",
"Eu	c #502D1A",
"Fu	c #5B321B",
"Gu	c #A16133",
"Hu	c #53301D",
"Iu	c #532E1A",
"Ju	c #4B2918",
"Ku	c #723D20",
"Lu	c #8A4922",
"Mu	c #955E38",
"Nu	c #150B09",
"Ou	c #3B251A",
"Pu	c #63422F",
"Qu	c #301F16",
"Ru	c #5D3C29",
"Su	c #5D3D2A",
"Tu	c #5C3D2A",
"Uu	c #62412D",
"Vu	c #65432F",
"Wu	c #5C3C2A",
"Xu	c #583A27",
"Yu	c #5A3B28",
"Zu	c #5A3A27",
"`u	c #5B3B28",
" v	c #67442F",
".v	c #67452E",
"+v	c #573B2A",
"@v	c #69452D",
"#v	c #593B29",
"$v	c #4D3425",
"%v	c #442C1E",
"&v	c #3F2719",
"*v	c #3D281C",
"=v	c #3C271A",
"-v	c #825738",
";v	c #493020",
">v	c #2C1C14",
",v	c #452C1E",
"'v	c #513524",
")v	c #583B28",
"!v	c #5D3F2B",
"~v	c #5E402C",
"{v	c #5F402C",
"]v	c #553A29",
"^v	c #674630",
"/v	c #593A27",
"(v	c #5C3D29",
"_v	c #68462F",
":v	c #65432D",
"<v	c #62412C",
"[v	c #5D3E2B",
"}v	c #37241A",
"|v	c #422B1E",
"1v	c #563A27",
"2v	c #6A462E",
"3v	c #69452E",
"4v	c #68452D",
"5v	c #583B29",
"6v	c #6C4830",
"7v	c #2A1810",
"8v	c #AA774A",
"9v	c #824725",
"0v	c #542E1B",
"av	c #7C4221",
"bv	c #522E1B",
"cv	c #764020",
"dv	c #7F4321",
"ev	c #5C321B",
"fv	c #100F10",
"gv	c #A26132",
"hv	c #5B331E",
"iv	c #673820",
"jv	c #5F341D",
"kv	c #6D3B21",
"lv	c #5C331D",
"mv	c #8E4A22",
"nv	c #A46A42",
"ov	c #170B08",
"pv	c #62412E",
"qv	c #41281A",
"rv	c #40291B",
"sv	c #3E271A",
"tv	c #3C251A",
"uv	c #684630",
"vv	c #5B3C28",
"wv	c #3B261A",
"xv	c #3A2519",
"yv	c #3E261A",
"zv	c #68462E",
"Av	c #412819",
"Bv	c #3E281A",
"Cv	c #3D291B",
"Dv	c #84593A",
"Ev	c #472E20",
"Fv	c #472D1D",
"Gv	c #452D1C",
"Hv	c #482F1E",
"Iv	c #472C1D",
"Jv	c #422A1C",
"Kv	c #5A3A28",
"Lv	c #352219",
"Mv	c #43281B",
"Nv	c #432A1B",
"Ov	c #3B251B",
"Pv	c #503422",
"Qv	c #533522",
"Rv	c #513423",
"Sv	c #41291A",
"Tv	c #3D2719",
"Uv	c #3F281A",
"Vv	c #6E482F",
"Wv	c #462C1E",
"Xv	c #AB774A",
"Yv	c #7C4120",
"Zv	c #723B1D",
"`v	c #5A311C",
" w	c #6F3B1E",
".w	c #432314",
"+w	c #7B4224",
"@w	c #793F1F",
"#w	c #56301B",
"$w	c #66371D",
"%w	c #763E1E",
"&w	c #493225",
"*w	c #9F5E30",
"=w	c #683A21",
"-w	c #5D331D",
";w	c #5C321E",
">w	c #391C0E",
",w	c #8D4A22",
"'w	c #A3683D",
")w	c #21110B",
"!w	c #3A241A",
"~w	c #6A574A",
"{w	c #856D5A",
"]w	c #8B725E",
"^w	c #8B7361",
"/w	c #8B7462",
"(w	c #8D7664",
"_w	c #8D7766",
":w	c #8D7767",
"<w	c #8C7767",
"[w	c #8D7868",
"}w	c #8E7869",
"|w	c #8E7969",
"1w	c #836F61",
"2w	c #573725",
"3w	c #66574E",
"4w	c #8E7A6A",
"5w	c #8F7C6D",
"6w	c #907C6D",
"7w	c #907C6E",
"8w	c #917D6F",
"9w	c #927D6F",
"0w	c #917E6F",
"aw	c #8F7B6D",
"bw	c #917C6E",
"cw	c #89766A",
"dw	c #75655A",
"ew	c #907D6F",
"fw	c #8D7C6D",
"gw	c #8D7B6E",
"hw	c #8D7B6D",
"iw	c #8E7C6E",
"jw	c #8E7C6F",
"kw	c #8F7D6E",
"lw	c #907E6F",
"mw	c #8F7D6D",
"nw	c #8F7C6C",
"ow	c #928073",
"pw	c #605146",
"qw	c #8C7666",
"rw	c #8B7564",
"sw	c #8D7867",
"tw	c #8E7868",
"uw	c #8F7869",
"vw	c #907969",
"ww	c #907968",
"xw	c #907967",
"yw	c #917967",
"zw	c #927A67",
"Aw	c #877262",
"Bw	c #684530",
"Cw	c #6E5C50",
"Dw	c #8B7464",
"Ew	c #8D7667",
"Fw	c #8F7868",
"Gw	c #90796A",
"Hw	c #8E7867",
"Iw	c #8E7766",
"Jw	c #8E7866",
"Kw	c #8F7866",
"Lw	c #776456",
"Mw	c #766151",
"Nw	c #8D7360",
"Ow	c #8E7360",
"Pw	c #8D725E",
"Qw	c #8C725E",
"Rw	c #8C715D",
"Sw	c #8C715C",
"Tw	c #8C705A",
"Uw	c #8B6F59",
"Vw	c #8B6E58",
"Ww	c #685444",
"Xw	c #503322",
"Yw	c #AB764B",
"Zw	c #7C401F",
"`w	c #6F391D",
" x	c #65361E",
".x	c #5E331C",
"+x	c #371E11",
"@x	c #68361B",
"#x	c #552F1A",
"$x	c #784123",
"%x	c #743C1D",
"&x	c #291913",
"*x	c #9D5C30",
"=x	c #683A22",
"-x	c #6C3A20",
";x	c #4E2916",
">x	c #8C4921",
",x	c #39241A",
"'x	c #61402F",
")x	c #7E6857",
"!x	c #9E826B",
"~x	c #B1977F",
"{x	c #BCA085",
"]x	c #BB9F85",
"^x	c #BEA58C",
"/x	c #C1AA95",
"(x	c #C2AE99",
"_x	c #C4AF9B",
":x	c #C5AF9B",
"<x	c #C5B09C",
"[x	c #B29F8C",
"}x	c #60412E",
"|x	c #4E3322",
"1x	c #78675B",
"2x	c #B4A08F",
"3x	c #C8B5A2",
"4x	c #C8B4A2",
"5x	c #C9B4A2",
"6x	c #C9B5A3",
"7x	c #C9B6A4",
"8x	c #CAB7A5",
"9x	c #CAB8A6",
"0x	c #C9B7A5",
"ax	c #B8A798",
"bx	c #603F2A",
"cx	c #B5A291",
"dx	c #CAB8A7",
"ex	c #CBB9A8",
"fx	c #CBB9A7",
"gx	c #CAB7A4",
"hx	c #C8B49E",
"ix	c #C7B19B",
"jx	c #C7B29D",
"kx	c #3F291C",
"lx	c #6D5C4E",
"mx	c #BDA690",
"nx	c #C4AE97",
"ox	c #C5AE97",
"px	c #C6AF98",
"qx	c #C6AF97",
"rx	c #C7AE96",
"sx	c #C9B099",
"tx	c #C8AF96",
"ux	c #C6AC93",
"vx	c #B19A83",
"wx	c #63442F",
"xx	c #7E6959",
"yx	c #B09680",
"zx	c #C3AC96",
"Ax	c #C4AE98",
"Bx	c #C6B099",
"Cx	c #C6B19B",
"Dx	c #C7B29C",
"Ex	c #C8B29E",
"Fx	c #C8B39E",
"Gx	c #C7B19C",
"Hx	c #C6B09A",
"Ix	c #C7B29E",
"Jx	c #A3917F",
"Kx	c #876F5B",
"Lx	c #B69C85",
"Mx	c #C6AD95",
"Nx	c #C3A88F",
"Ox	c #C2A68B",
"Px	c #BFA387",
"Qx	c #BFA084",
"Rx	c #BEA084",
"Sx	c #BEA184",
"Tx	c #BD9F81",
"Ux	c #BE9E7D",
"Vx	c #8B735C",
"Wx	c #6C472E",
"Xx	c #27160E",
"Yx	c #A97448",
"Zx	c #7C4020",
"`x	c #6F3A1E",
" y	c #532E1C",
".y	c #6E3A1F",
"+y	c #391F12",
"@y	c #7C4223",
"#y	c #5F341C",
"$y	c #442515",
"%y	c #502D19",
"&y	c #66371E",
"*y	c #532D19",
"=y	c #6B391E",
"-y	c #7E4222",
";y	c #884721",
">y	c #9F6439",
",y	c #493324",
"'y	c #382519",
")y	c #61412F",
"!y	c #806A58",
"~y	c #A0836C",
"{y	c #C6AB8F",
"]y	c #E2D0BB",
"^y	c #E4D1BC",
"/y	c #E2D1BB",
"(y	c #5F412E",
"_y	c #4D3323",
":y	c #C4B09E",
"<y	c #E6D4C1",
"[y	c #E7D8C5",
"}y	c #D5C6B7",
"|y	c #60402A",
"1y	c #867467",
"2y	c #E8D9C6",
"3y	c #E4D1BA",
"4y	c #E3CFB8",
"5y	c #3E2A1C",
"6y	c #4B3122",
"7y	c #6D5C4F",
"8y	c #D8C2A9",
"9y	c #DDC4A7",
"0y	c #E0C8AC",
"ay	c #DFC6A8",
"by	c #E0C8AA",
"cy	c #E0C7AA",
"dy	c #DCC3A5",
"ey	c #DEC6A8",
"fy	c #C9B096",
"gy	c #492D1E",
"hy	c #806A59",
"iy	c #BFA388",
"jy	c #DDC3A6",
"ky	c #DDC2A3",
"ly	c #DDC5A8",
"my	c #DFC9AE",
"ny	c #E2CFB6",
"oy	c #DFCCB5",
"py	c #B8A996",
"qy	c #5B3D29",
"ry	c #88715F",
"sy	c #DCC3A8",
"ty	c #DBC0A3",
"uy	c #D9BC9D",
"vy	c #D7B897",
"wy	c #D6B591",
"xy	c #9E866C",
"yy	c #6B462E",
"zy	c #533422",
"Ay	c #A36E43",
"By	c #7E411F",
"Cy	c #713B1F",
"Dy	c #552E1C",
"Ey	c #3C2114",
"Fy	c #7B4120",
"Gy	c #5E341E",
"Hy	c #492918",
"Iy	c #69381D",
"Jy	c #51321E",
"Ky	c #9F5F32",
"Ly	c #47281A",
"My	c #683921",
"Ny	c #502B18",
"Oy	c #69381E",
"Py	c #874622",
"Qy	c #894822",
"Ry	c #9E6438",
"Sy	c #4B3322",
"Ty	c #60402E",
"Uy	c #7F6956",
"Vy	c #A18269",
"Wy	c #C5A88A",
"Xy	c #D9BD9C",
"Yy	c #DFC7AD",
"Zy	c #614330",
"`y	c #7B6A5E",
" z	c #E4D4BE",
".z	c #E8D7C5",
"+z	c #D5C6B6",
"@z	c #857466",
"#z	c #E4D2BA",
"$z	c #E4D1BB",
"%z	c #3E2A1D",
"&z	c #7E5436",
"*z	c #6E5C4F",
"=z	c #A48A74",
"-z	c #D7BFA3",
";z	c #DCC0A1",
">z	c #DDC2A4",
",z	c #DDC4A6",
"'z	c #DEC5A7",
")z	c #DDC3A4",
"!z	c #DBC0A0",
"~z	c #C8AE92",
"{z	c #644431",
"]z	c #BDA084",
"^z	c #DBBF9F",
"/z	c #D9B995",
"(z	c #D9B994",
"_z	c #D8B894",
":z	c #B6A28B",
"<z	c #5F402D",
"[z	c #C8AF97",
"}z	c #DFC8AD",
"|z	c #D9BEA0",
"1z	c #D6B896",
"2z	c #D3B38F",
"3z	c #D5B490",
"4z	c #9D856C",
"5z	c #6B472E",
"6z	c #563724",
"7z	c #A06C43",
"8z	c #7F4220",
"9z	c #723B1F",
"0z	c #562F1B",
"az	c #562E1A",
"bz	c #7A3F1E",
"cz	c #633720",
"dz	c #4A2917",
"ez	c #4A2C19",
"fz	c #64351B",
"gz	c #281913",
"hz	c #9F5F31",
"iz	c #482818",
"jz	c #64361E",
"kz	c #62361E",
"lz	c #512D1A",
"mz	c #9F6339",
"nz	c #412918",
"oz	c #60402F",
"pz	c #7F6855",
"qz	c #9E7F64",
"rz	c #C2A383",
"sz	c #DABD9C",
"tz	c #DEC6AB",
"uz	c #E1CCB4",
"vz	c #634432",
"wz	c #E3D3BC",
"xz	c #E7D7C5",
"yz	c #543726",
"zz	c #847366",
"Az	c #E6D6C1",
"Bz	c #E4D1B9",
"Cz	c #785033",
"Dz	c #4D3424",
"Ez	c #6E5C4E",
"Fz	c #D4BB9E",
"Gz	c #DDC4A5",
"Hz	c #DFC7A9",
"Iz	c #DCC1A2",
"Jz	c #DDC1A3",
"Kz	c #C5AB8C",
"Lz	c #492D1F",
"Mz	c #806A57",
"Nz	c #BB9D7E",
"Oz	c #D9B892",
"Pz	c #D9B894",
"Qz	c #D8B691",
"Rz	c #D7B68F",
"Sz	c #D7B58E",
"Tz	c #D6B38D",
"Uz	c #AE9375",
"Vz	c #61412E",
"Wz	c #886C52",
"Xz	c #BF9C77",
"Yz	c #D5B38C",
"Zz	c #D6B690",
"`z	c #D6B792",
" A	c #D2B18B",
".A	c #D1AD86",
"+A	c #CDA87F",
"@A	c #C9A37A",
"#A	c #CAA67D",
"$A	c #CCA981",
"%A	c #987F65",
"&A	c #553825",
"*A	c #A36D44",
"=A	c #552D1A",
"-A	c #3B2013",
";A	c #7A3F1F",
">A	c #63351D",
",A	c #4E2A18",
"'A	c #4B2B19",
")A	c #63351C",
"!A	c #63371F",
"~A	c #5F351D",
"{A	c #56301A",
"]A	c #63361D",
"^A	c #814421",
"/A	c #864622",
"(A	c #9D6037",
"_A	c #3B2010",
":A	c #7E6653",
"<A	c #9C7C62",
"[A	c #C1A17F",
"}A	c #D8BA98",
"|A	c #E1CBB1",
"1A	c #E0CCB2",
"2A	c #CFBFAD",
"3A	c #604230",
"4A	c #C2AE9A",
"5A	c #D4C6B5",
"6A	c #857265",
"7A	c #C4B2A0",
"8A	c #E8DAC6",
"9A	c #E3CFB7",
"0A	c #E3D1B8",
"aA	c #E3D0B7",
"bA	c #3D2A1D",
"cA	c #734D32",
"dA	c #A48974",
"eA	c #D4B99D",
"fA	c #DBBE9C",
"gA	c #DABD9B",
"hA	c #DEC5A6",
"iA	c #DDC1A1",
"jA	c #DBBE9E",
"kA	c #C6AB8B",
"lA	c #492E1E",
"mA	c #816A56",
"nA	c #BA9A7A",
"oA	c #D8B791",
"pA	c #D7B690",
"qA	c #D5B38D",
"rA	c #D6B38E",
"sA	c #D4B189",
"tA	c #AF9374",
"uA	c #896B50",
"vA	c #BF9A75",
"wA	c #D1AB7F",
"xA	c #D0AA7E",
"yA	c #D1AC81",
"zA	c #CEA579",
"AA	c #C99F73",
"BA	c #CCA277",
"CA	c #CA9E73",
"DA	c #C99F74",
"EA	c #C9A074",
"FA	c #95775A",
"GA	c #26150E",
"HA	c #A06941",
"IA	c #824421",
"JA	c #713C1F",
"KA	c #542C18",
"LA	c #7A4222",
"MA	c #4A2A17",
"NA	c #3A1F11",
"OA	c #66351A",
"PA	c #61341C",
"QA	c #653F26",
"RA	c #9E5F31",
"SA	c #4D2B19",
"TA	c #58311B",
"UA	c #3B1F10",
"VA	c #5F402E",
"WA	c #7D6552",
"XA	c #9C7C63",
"YA	c #DFC8AB",
"ZA	c #D1C0AE",
"`A	c #593D2B",
" B	c #63422E",
".B	c #847265",
"+B	c #E9DAC6",
"@B	c #E6D6C2",
"#B	c #E3CEB6",
"$B	c #E2CDB4",
"%B	c #E1CDB2",
"&B	c #3C2A1D",
"*B	c #6D5C4D",
"=B	c #DCC09F",
"-B	c #DBBF9E",
";B	c #DABB98",
">B	c #C5AA8B",
",B	c #634430",
"'B	c #816A57",
")B	c #BA9979",
"!B	c #D7B58F",
"~B	c #D8B893",
"{B	c #D6B48E",
"]B	c #D5B28B",
"^B	c #D4B28A",
"/B	c #AE9272",
"(B	c #896B4F",
"_B	c #BF9972",
":B	c #D1A97D",
"<B	c #CCA275",
"[B	c #CBA074",
"}B	c #CDA479",
"|B	c #CBA075",
"1B	c #C89C71",
"2B	c #927355",
"3B	c #1D0E09",
"4B	c #9B653E",
"5B	c #733D1F",
"6B	c #723C20",
"7B	c #492A17",
"8B	c #3B2012",
"9B	c #7E4120",
"0B	c #6E371B",
"aB	c #562F1A",
"bB	c #60331A",
"cB	c #664026",
"dB	c #9E5E31",
"eB	c #5E331D",
"fB	c #5D341D",
"gB	c #4E2B19",
"hB	c #874621",
"iB	c #84441F",
"jB	c #97572D",
"kB	c #3D2010",
"lB	c #593D2C",
"mB	c #7D6451",
"nB	c #9C7D62",
"oB	c #C1A282",
"pB	c #DABC9C",
"qB	c #DCC0A2",
"rB	c #CFBEAB",
"sB	c #3E281B",
"tB	c #C3AE9A",
"uB	c #E3D1B9",
"vB	c #63412D",
"wB	c #4C3324",
"xB	c #E7D8C7",
"yB	c #E5D3BC",
"zB	c #E4D0B9",
"AB	c #E0CBB1",
"BB	c #DFC8AC",
"CB	c #6D5B4D",
"DB	c #A38973",
"EB	c #D2B698",
"FB	c #DBBC9B",
"GB	c #DBBC9A",
"HB	c #DCBE9E",
"IB	c #D9BC99",
"JB	c #D9BB98",
"KB	c #D9BA96",
"LB	c #DABC99",
"MB	c #D8BA96",
"NB	c #62442F",
"OB	c #462D1D",
"PB	c #806956",
"QB	c #BB9A7B",
"RB	c #D4B188",
"SB	c #D4B087",
"TB	c #D3B08A",
"UB	c #AD9070",
"VB	c #5C3E2C",
"WB	c #8A6B50",
"XB	c #BE9871",
"YB	c #D3AC82",
"ZB	c #CFA67B",
"`B	c #CCA174",
" C	c #CB9F71",
".C	c #CB9F73",
"+C	c #C99D72",
"@C	c #C89E72",
"#C	c #C89D71",
"$C	c #917254",
"%C	c #62432D",
"&C	c #210F0A",
"*C	c #975D38",
"=C	c #834421",
"-C	c #753D1E",
";C	c #472917",
">C	c #3E2213",
",C	c #854522",
"'C	c #7B3D1D",
")C	c #572E18",
"!C	c #5F3219",
"~C	c #663F26",
"{C	c #9D5E30",
"]C	c #603A24",
"^C	c #5E321D",
"/C	c #63361F",
"(C	c #68381E",
"_C	c #874722",
":C	c #81421E",
"<C	c #95542C",
"[C	c #3D1F10",
"}C	c #533827",
"|C	c #7B634F",
"1C	c #9B7C61",
"2C	c #C4A586",
"3C	c #D7B998",
"4C	c #E0CAB0",
"5C	c #DEC8AF",
"6C	c #CBB8A3",
"7C	c #5D402D",
"8C	c #C3AD99",
"9C	c #D3C3B2",
"0C	c #4B3225",
"aC	c #847264",
"bC	c #C5B1A0",
"cC	c #E4D0B8",
"dC	c #E4CFB8",
"eC	c #754E35",
"fC	c #6D5A4B",
"gC	c #CFB393",
"hC	c #DBBD9C",
"iC	c #D9BC98",
"jC	c #C5A98A",
"kC	c #5D412D",
"lC	c #806854",
"mC	c #BC9B7C",
"nC	c #D5B28C",
"oC	c #D3AE85",
"pC	c #D3AF84",
"qC	c #D5B28A",
"rC	c #D6B28C",
"sC	c #D1AC83",
"tC	c #AA8C6B",
"uC	c #5C3F2D",
"vC	c #89694E",
"wC	c #CDA277",
"xC	c #CC9F71",
"yC	c #C8996A",
"zC	c #C79869",
"AC	c #CB9F72",
"BC	c #C89C70",
"CC	c #C99E71",
"DC	c #C89D70",
"EC	c #937456",
"FC	c #21100A",
"GC	c #8B4E2C",
"HC	c #824320",
"IC	c #6E3B1E",
"JC	c #703A1D",
"KC	c #3E2214",
"LC	c #7D4020",
"MC	c #7F411E",
"NC	c #5A2F19",
"OC	c #5D3118",
"PC	c #9C5C2F",
"QC	c #5F331D",
"RC	c #6B381E",
"SC	c #814320",
"TC	c #904F29",
"UC	c #3D1E10",
"VC	c #533829",
"WC	c #6F5949",
"XC	c #8C715B",
"YC	c #AF947B",
"ZC	c #C0A386",
"`C	c #C1A78D",
" D	c #C3AA91",
".D	c #C7B19A",
"+D	c #C9B39E",
"@D	c #B7A492",
"#D	c #654430",
"$D	c #AF9B89",
"%D	c #CBBAA6",
"&D	c #CAB9A6",
"*D	c #CBB9A6",
"=D	c #CBBAA7",
"-D	c #CBBBA8",
";D	c #CCBCA8",
">D	c #CDBDAB",
",D	c #CFBEAC",
"'D	c #B9AB9B",
")D	c #62422D",
"!D	c #482F22",
"~D	c #78685C",
"{D	c #B09E8D",
"]D	c #CDBEAC",
"^D	c #CDBEAD",
"/D	c #CCBCA9",
"(D	c #CAB8A4",
"_D	c #C9B6A2",
":D	c #C5AF96",
"<D	c #C8B29A",
"[D	c #795036",
"}D	c #553727",
"|D	c #604F43",
"1D	c #8F7664",
"2D	c #B89E82",
"3D	c #C2A88B",
"4D	c #C1A789",
"5D	c #C0A587",
"6D	c #C0A385",
"7D	c #C0A384",
"8D	c #C0A585",
"9D	c #AD947A",
"0D	c #745E4E",
"aD	c #A88B71",
"bD	c #C0A282",
"cD	c #BEA07F",
"dD	c #BE9E7C",
"eD	c #BEA07D",
"fD	c #BE9F7C",
"gD	c #BD9E7D",
"hD	c #BF9F7F",
"iD	c #BC9D7B",
"jD	c #BB9B78",
"kD	c #BB9975",
"lD	c #BA9774",
"mD	c #977B60",
"nD	c #7B6049",
"oD	c #A68261",
"pD	c #B28B67",
"qD	c #B48D69",
"rD	c #B38D68",
"sD	c #AF8762",
"tD	c #AE8660",
"uD	c #AD8660",
"vD	c #AD8661",
"wD	c #AF8964",
"xD	c #B08A65",
"yD	c #82674E",
"zD	c #22100A",
"AD	c #884A27",
"BD	c #834520",
"CD	c #6C3A1E",
"DD	c #7E4221",
"ED	c #6E3A1D",
"FD	c #482819",
"GD	c #763C1E",
"HD	c #80411E",
"ID	c #5D321C",
"JD	c #4B2A19",
"KD	c #653E25",
"LD	c #9C5C2E",
"MD	c #633B23",
"ND	c #60331D",
"OD	c #64371F",
"PD	c #512B18",
"QD	c #6A371C",
"RD	c #7D411E",
"SD	c #8A4A24",
"TD	c #3C1F11",
"UD	c #140E0B",
"VD	c #503627",
"WD	c #2E1D16",
"XD	c #4C3223",
"YD	c #563625",
"ZD	c #533322",
"`D	c #563725",
" E	c #533524",
".E	c #513523",
"+E	c #674530",
"@E	c #332016",
"#E	c #533625",
"$E	c #5C3B2A",
"%E	c #5E3C2A",
"&E	c #5E3D2A",
"*E	c #5D3C2A",
"=E	c #5E3C28",
"-E	c #69442E",
";E	c #68442E",
">E	c #66432E",
",E	c #674430",
"'E	c #4F3526",
")E	c #493123",
"!E	c #432C1D",
"~E	c #7A5035",
"{E	c #5F3E29",
"]E	c #69442D",
"^E	c #5E402B",
"/E	c #563A2A",
"(E	c #4C2F20",
"_E	c #6B452D",
":E	c #68432C",
"<E	c #6A452D",
"[E	c #6A452E",
"}E	c #603E29",
"|E	c #5A3B29",
"1E	c #4F3423",
"2E	c #472E21",
"3E	c #372215",
"4E	c #392218",
"5E	c #3A2318",
"6E	c #4A3122",
"7E	c #150D0B",
"8E	c #1A0D09",
"9E	c #885236",
"0E	c #69371B",
"aE	c #804421",
"bE	c #6E3A1E",
"cE	c #733B1D",
"dE	c #80421F",
"eE	c #5A301A",
"fE	c #643E25",
"gE	c #643620",
"hE	c #4D2816",
"iE	c #6E381C",
"jE	c #82441F",
"kE	c #7C411F",
"lE	c #8C4C25",
"mE	c #391E11",
"nE	c #483023",
"oE	c #664431",
"pE	c #3F261A",
"qE	c #3F261B",
"rE	c #3D261A",
"sE	c #3D251A",
"tE	c #492F20",
"uE	c #462D1F",
"vE	c #67442D",
"wE	c #4B2F20",
"xE	c #432B1D",
"yE	c #754D33",
"zE	c #4E3324",
"AE	c #2A1A11",
"BE	c #513322",
"CE	c #503221",
"DE	c #503220",
"EE	c #523421",
"FE	c #583925",
"GE	c #593B27",
"HE	c #513624",
"IE	c #563A28",
"JE	c #4E3120",
"KE	c #593825",
"LE	c #523422",
"ME	c #432819",
"NE	c #6C4A33",
"OE	c #382218",
"PE	c #3B2419",
"QE	c #342117",
"RE	c #482E20",
"SE	c #7F4C34",
"TE	c #69361B",
"UE	c #834523",
"VE	c #6B381C",
"WE	c #492917",
"XE	c #5F311A",
"YE	c #804320",
"ZE	c #562D18",
"`E	c #60331E",
" F	c #663822",
".F	c #482513",
"+F	c #703A1C",
"@F	c #824420",
"#F	c #773F1D",
"$F	c #8E4E26",
"%F	c #32190D",
"&F	c #8B715B",
"*F	c #8B715A",
"=F	c #8D735C",
"-F	c #8E735F",
";F	c #8E7560",
">F	c #8F7662",
",F	c #8F7764",
"'F	c #907865",
")F	c #907966",
"!F	c #927B67",
"~F	c #927B68",
"{F	c #857260",
"]F	c #4A2F1F",
"^F	c #957F6D",
"/F	c #96806F",
"(F	c #95806E",
"_F	c #947F6E",
":F	c #957F6F",
"<F	c #95806F",
"[F	c #968170",
"}F	c #8C796A",
"|F	c #482E1F",
"1F	c #937E6D",
"2F	c #957F6E",
"3F	c #947E6D",
"4F	c #937E6C",
"5F	c #927D6B",
"6F	c #937D6B",
"7F	c #937D6A",
"8F	c #947D6B",
"9F	c #947E6B",
"0F	c #967F6C",
"aF	c #998270",
"bF	c #472F21",
"cF	c #614E3F",
"dF	c #917661",
"eF	c #907560",
"fF	c #917560",
"gF	c #91755F",
"hF	c #90755E",
"iF	c #90755D",
"jF	c #90745D",
"kF	c #8F745D",
"lF	c #91765E",
"mF	c #92765E",
"nF	c #91755D",
"oF	c #836A56",
"pF	c #5D3F2C",
"qF	c #4C3120",
"rF	c #725B48",
"sF	c #8D6F56",
"tF	c #8C6F56",
"uF	c #8E7157",
"vF	c #8F7159",
"wF	c #90725A",
"xF	c #90735A",
"yF	c #8F7259",
"zF	c #8F7158",
"AF	c #907258",
"BF	c #745D49",
"CF	c #6F4B35",
"DF	c #725842",
"EF	c #86654A",
"FF	c #856447",
"GF	c #856448",
"HF	c #836346",
"IF	c #846347",
"JF	c #866548",
"KF	c #866649",
"LF	c #88674C",
"MF	c #89694D",
"NF	c #6A5340",
"OF	c #1F0F0A",
"PF	c #7D4322",
"QF	c #67351A",
"RF	c #68361C",
"SF	c #4B2A18",
"TF	c #59301A",
"UF	c #582F19",
"VF	c #4B2B1A",
"WF	c #633D24",
"XF	c #9E5D2D",
"YF	c #693820",
"ZF	c #643721",
"`F	c #542D19",
" G	c #6F3A1C",
".G	c #814420",
"+G	c #733D1E",
"@G	c #8F5028",
"#G	c #2D170A",
"$G	c #422D21",
"%G	c #9C7E64",
"&G	c #B49678",
"*G	c #C4A688",
"=G	c #C7AB8F",
"-G	c #C8AF93",
";G	c #C9B197",
">G	c #CBB399",
",G	c #B7A18A",
"'G	c #B8A18C",
")G	c #D0BAA4",
"!G	c #CFBAA3",
"~G	c #CEBAA2",
"{G	c #D0BBA5",
"]G	c #CFBBA4",
"^G	c #CFB9A2",
"/G	c #CEB8A1",
"(G	c #CEB9A2",
"_G	c #BDAC98",
":G	c #61412C",
"<G	c #BBA592",
"[G	c #D2BEA9",
"}G	c #D0BCA5",
"|G	c #CDB79E",
"1G	c #CCB59C",
"2G	c #CCB59B",
"3G	c #CCB49A",
"4G	c #CDB59B",
"5G	c #CCB499",
"6G	c #CEB59A",
"7G	c #705A49",
"8G	c #BE9F7F",
"9G	c #C4A281",
"0G	c #C3A17F",
"aG	c #C2A17E",
"bG	c #C1A07E",
"cG	c #C2A07D",
"dG	c #C3A17E",
"eG	c #C4A280",
"fG	c #B19375",
"gG	c #472D1E",
"hG	c #7B624C",
"iG	c #AE8C6A",
"jG	c #C19F79",
"kG	c #C2A07A",
"lG	c #C19D77",
"mG	c #C19E77",
"nG	c #C19D76",
"oG	c #C29D76",
"pG	c #C09B74",
"qG	c #C09A73",
"rG	c #9C7E5F",
"sG	c #432B1C",
"tG	c #826144",
"uG	c #AC8159",
"vG	c #B6895D",
"wG	c #B5885C",
"xG	c #B4875B",
"yG	c #B38559",
"zG	c #B28458",
"AG	c #AF8155",
"BG	c #B08257",
"CG	c #B4895F",
"DG	c #4A3325",
"EG	c #814523",
"FG	c #854722",
"GG	c #67361C",
"HG	c #763D20",
"IG	c #592F1A",
"JG	c #59301B",
"KG	c #4D2A18",
"LG	c #5E321C",
"MG	c #9F5D2E",
"NG	c #63381F",
"OG	c #6A3820",
"PG	c #61321C",
"QG	c #78401F",
"RG	c #925329",
"SG	c #2B160B",
"TG	c #3D291D",
"UG	c #7C6450",
"VG	c #9D8066",
"WG	c #C5A98C",
"XG	c #D9BC9B",
"YG	c #DABC9A",
"ZG	c #DBBEA0",
"`G	c #E1CAAE",
" H	c #CCB7A0",
".H	c #573B29",
"+H	c #7B6859",
"@H	c #C3AB96",
"#H	c #E3D0B6",
"$H	c #E4D1B8",
"%H	c #D1C2AD",
"&H	c #40291D",
"*H	c #857261",
"=H	c #E6D3BC",
"-H	c #E3CEB5",
";H	c #E3CEB4",
">H	c #E2CCB0",
",H	c #E2CBB0",
"'H	c #DEC4A7",
")H	c #E0C8A9",
"!H	c #442F21",
"~H	c #6E4930",
"{H	c #705A48",
"]H	c #A18267",
"^H	c #D7B48F",
"/H	c #D4B28C",
"(H	c #D2B089",
"_H	c #D3B18A",
":H	c #D2AF88",
"<H	c #C1A382",
"[H	c #593D2A",
"}H	c #442C1C",
"|H	c #7E644D",
"1H	c #B99773",
"2H	c #D4B187",
"3H	c #D5B186",
"4H	c #D2AD81",
"5H	c #D3AF83",
"6H	c #D4AE82",
"7H	c #D2AC81",
"8H	c #D1AA7E",
"9H	c #D2AB7E",
"0H	c #D2A97E",
"aH	c #AB8C6B",
"bH	c #5E402D",
"cH	c #856245",
"dH	c #B88A5E",
"eH	c #C89766",
"fH	c #C79564",
"gH	c #C59362",
"hH	c #C3905F",
"iH	c #C69566",
"jH	c #C39262",
"kH	c #C39162",
"lH	c #C6996E",
"mH	c #98795B",
"nH	c #2F1F15",
"oH	c #1B0E09",
"pH	c #824624",
"qH	c #67371E",
"rH	c #5F321A",
"sH	c #6B3921",
"tH	c #62331C",
"uH	c #67371F",
"vH	c #6B391F",
"wH	c #6A371B",
"xH	c #94552C",
"yH	c #2B150A",
"zH	c #3B261B",
"AH	c #7F6753",
"BH	c #9F8167",
"CH	c #E0C9AC",
"DH	c #CAB59D",
"EH	c #583B2A",
"FH	c #42281C",
"GH	c #7C6959",
"HH	c #C2AA93",
"IH	c #E2CCB2",
"JH	c #E5D3BB",
"KH	c #D1C0AC",
"LH	c #61412D",
"MH	c #867160",
"NH	c #C4AD98",
"OH	c #E4CEB5",
"PH	c #E2CBAF",
"QH	c #E2CDB1",
"RH	c #E1CAAF",
"SH	c #E2CAAE",
"TH	c #E0C7A9",
"UH	c #DFC6A9",
"VH	c #DFC5A7",
"WH	c #DEC3A3",
"XH	c #614D3E",
"YH	c #714B32",
"ZH	c #725C49",
"`H	c #A07F63",
" I	c #D1B18E",
".I	c #D3B089",
"+I	c #D3B088",
"@I	c #D2AF87",
"#I	c #C0A27F",
"$I	c #7F644D",
"%I	c #B8936D",
"&I	c #D2AB7F",
"*I	c #D4AD82",
"=I	c #D3AC81",
"-I	c #D3AD80",
";I	c #D4AC80",
">I	c #D2A97D",
",I	c #D3AC80",
"'I	c #D4AF83",
")I	c #D0A77A",
"!I	c #D0A478",
"~I	c #A88664",
"{I	c #B7885C",
"]I	c #C89665",
"^I	c #C99766",
"/I	c #C79362",
"(I	c #C69362",
"_I	c #C79565",
":I	c #C39567",
"<I	c #C99E73",
"[I	c #9F8061",
"}I	c #4D3629",
"|I	c #190C08",
"1I	c #844724",
"2I	c #68381F",
"3I	c #57301A",
"4I	c #713B1D",
"5I	c #7F4423",
"6I	c #4C2817",
"7I	c #592E18",
"8I	c #633921",
"9I	c #4E2816",
"0I	c #66361E",
"aI	c #91542D",
"bI	c #39261B",
"cI	c #392519",
"dI	c #826B58",
"eI	c #9F826A",
"fI	c #C9AD92",
"gI	c #DAB792",
"hI	c #DCBF9D",
"iI	c #CBB59B",
"jI	c #472E1F",
"kI	c #7E6A5B",
"lI	c #C2AA92",
"mI	c #E1C9AF",
"nI	c #E2CCB3",
"oI	c #E5D1B9",
"pI	c #E4D2B9",
"qI	c #472C20",
"rI	c #857160",
"sI	c #C1A991",
"tI	c #E1C9AD",
"uI	c #E1CAAD",
"vI	c #DDC2A1",
"wI	c #68432D",
"xI	c #78604C",
"yI	c #A07F62",
"zI	c #CFAD89",
"AI	c #D8B48D",
"BI	c #D4B088",
"CI	c #D6B289",
"DI	c #D3AE86",
"EI	c #D2AC83",
"FI	c #D2AB81",
"GI	c #D4AE84",
"HI	c #472E1E",
"II	c #4E3221",
"JI	c #7F634A",
"KI	c #B7906A",
"LI	c #D2A77C",
"MI	c #D3A87C",
"NI	c #D0A579",
"OI	c #D1A87C",
"PI	c #D0A67A",
"QI	c #CFA57A",
"RI	c #CDA175",
"SI	c #CFA273",
"TI	c #A98460",
"UI	c #876448",
"VI	c #B98B60",
"WI	c #C89767",
"XI	c #C69564",
"YI	c #C69262",
"ZI	c #C69261",
"`I	c #C59160",
" J	c #C79768",
".J	c #C59668",
"+J	c #C5996E",
"@J	c #A07F5F",
"#J	c #4D3528",
"$J	c #844726",
"%J	c #884822",
"&J	c #412314",
"*J	c #4F2B19",
"=J	c #522C19",
"-J	c #542B17",
";J	c #5E3820",
">J	c #A05D2E",
",J	c #482515",
"'J	c #693920",
")J	c #6B3920",
"!J	c #6C3A21",
"~J	c #6C391E",
"{J	c #90542E",
"]J	c #2A160A",
"^J	c #3A261B",
"/J	c #8E7662",
"(J	c #A2856E",
"_J	c #C7AA8D",
":J	c #DABA97",
"<J	c #DAB993",
"[J	c #DBBB97",
"}J	c #DEC2A2",
"|J	c #DABC9B",
"1J	c #CAB093",
"2J	c #806C5B",
"3J	c #C0A68D",
"4J	c #E0C7AB",
"5J	c #E1C8AB",
"6J	c #E4CFB6",
"7J	c #CFBDA8",
"8J	c #482D21",
"9J	c #856F5E",
"0J	c #BFA58A",
"aJ	c #E3CBAE",
"bJ	c #E2CAAD",
"cJ	c #E3CBAF",
"dJ	c #756455",
"eJ	c #503223",
"fJ	c #816652",
"gJ	c #A28063",
"hJ	c #CEAB86",
"iJ	c #D6B28A",
"jJ	c #D5B086",
"kJ	c #D3AD81",
"lJ	c #D2AA7F",
"mJ	c #D1A77C",
"nJ	c #D3A97E",
"oJ	c #D0A77C",
"pJ	c #D2A87C",
"qJ	c #C19C75",
"rJ	c #816249",
"sJ	c #B78E67",
"tJ	c #D3A67A",
"uJ	c #D1A376",
"vJ	c #D0A476",
"wJ	c #D2A77B",
"xJ	c #D1A579",
"yJ	c #CDA072",
"zJ	c #CEA173",
"AJ	c #CDA073",
"BJ	c #CC9D6E",
"CJ	c #C99767",
"DJ	c #AC835D",
"EJ	c #5C3E2B",
"FJ	c #896649",
"GJ	c #B98B5F",
"HJ	c #C99869",
"IJ	c #C99868",
"JJ	c #C38F5F",
"KJ	c #C59263",
"LJ	c #C99B6D",
"MJ	c #C7986B",
"NJ	c #C69A6F",
"OJ	c #A17E5D",
"PJ	c #452D21",
"QJ	c #844828",
"RJ	c #693A1F",
"SJ	c #4F2B1B",
"TJ	c #4D2A19",
"UJ	c #4D2918",
"VJ	c #4D2919",
"WJ	c #522B18",
"XJ	c #A15D2D",
"YJ	c #472718",
"ZJ	c #6A3921",
"`J	c #6D3A21",
" K	c #8E542E",
".K	c #29150B",
"+K	c #3B271C",
"@K	c #937A67",
"#K	c #A1856D",
"$K	c #C7A889",
"%K	c #DCBC98",
"&K	c #DDBD99",
"*K	c #DDBE9D",
"=K	c #DBBB99",
"-K	c #CBAD8E",
";K	c #826B59",
">K	c #BEA288",
",K	c #E0C6A8",
"'K	c #D9C0A3",
")K	c #DDC4A9",
"!K	c #67432E",
"~K	c #836C5A",
"{K	c #BDA186",
"]K	c #E0C5A7",
"^K	c #DFC4A5",
"/K	c #DDC1A0",
"(K	c #726254",
"_K	c #462A1F",
":K	c #7F644F",
"<K	c #9F7C5E",
"[K	c #CAA47B",
"}K	c #D5AF83",
"|K	c #D1A57A",
"1K	c #CDA274",
"2K	c #CEA276",
"3K	c #CFA376",
"4K	c #C29A72",
"5K	c #40291C",
"6K	c #806247",
"7K	c #B68D66",
"8K	c #D2A679",
"9K	c #CFA477",
"0K	c #D0A578",
"aK	c #CD9F70",
"bK	c #CEA071",
"cK	c #CC9C6D",
"dK	c #CB9B6B",
"eK	c #CB996A",
"fK	c #CB9969",
"gK	c #B18760",
"hK	c #8D694C",
"iK	c #B88A5F",
"jK	c #C99666",
"kK	c #CB9A6B",
"lK	c #C89666",
"mK	c #C8986A",
"nK	c #C89A6C",
"oK	c #C89B6F",
"pK	c #C7996C",
"qK	c #C5976A",
"rK	c #C79A6E",
"sK	c #A17E5C",
"tK	c #462E24",
"uK	c #814627",
"vK	c #683820",
"wK	c #3D2114",
"xK	c #4F2B1A",
"yK	c #502B1A",
"zK	c #502B19",
"AK	c #141011",
"BK	c #643C23",
"CK	c #A25D2E",
"DK	c #402315",
"EK	c #633520",
"FK	c #8E532F",
"GK	c #2A160C",
"HK	c #452F22",
"IK	c #937965",
"JK	c #C4A483",
"KK	c #DBBA96",
"LK	c #DEBE9A",
"MK	c #DABA96",
"NK	c #DCBD9A",
"OK	c #CCAD8D",
"PK	c #846B58",
"QK	c #BFA287",
"RK	c #DBBFA0",
"SK	c #DEC6A7",
"TK	c #D8BC9F",
"UK	c #D8BDA0",
"VK	c #CAB398",
"WK	c #41291F",
"XK	c #836956",
"YK	c #DDC1A4",
"ZK	c #DFC3A4",
"`K	c #DEC2A1",
" L	c #DEC1A1",
".L	c #DDC09E",
"+L	c #DBBE9A",
"@L	c #452A1E",
"#L	c #7E624C",
"$L	c #CBA37A",
"%L	c #D3AA7F",
"&L	c #D6AF84",
"*L	c #D4AB80",
"=L	c #D1A478",
"-L	c #CDA173",
";L	c #C39A71",
">L	c #472D1F",
",L	c #7E6045",
"'L	c #B78E68",
")L	c #D0A576",
"!L	c #CFA374",
"~L	c #CFA173",
"{L	c #CC9D6D",
"]L	c #CA9868",
"^L	c #CB9A6A",
"/L	c #B58B64",
"(L	c #482F1F",
"_L	c #906A4C",
":L	c #B7895E",
"<L	c #CA9C6F",
"[L	c #CCA075",
"}L	c #C89B6E",
"|L	c #CA9D70",
"1L	c #9F7B5A",
"2L	c #67381F",
"3L	c #3C2115",
"4L	c #4B2917",
"5L	c #42291E",
"6L	c #151012",
"7L	c #653D25",
"8L	c #A25E2E",
"9L	c #5C351F",
"0L	c #3D2012",
"aL	c #683922",
"bL	c #6A3A21",
"cL	c #915630",
"dL	c #3E2A1F",
"eL	c #6C584A",
"fL	c #947C64",
"gL	c #A68D74",
"hL	c #A78F75",
"iL	c #A68E73",
"jL	c #A68D73",
"kL	c #A48B73",
"lL	c #A48A71",
"mL	c #A3896F",
"nL	c #A48B71",
"oL	c #9A836C",
"pL	c #332117",
"qL	c #624F41",
"rL	c #917B67",
"sL	c #A8947E",
"tL	c #AA957F",
"uL	c #AA9580",
"vL	c #AB9781",
"wL	c #AA9681",
"xL	c #A7937C",
"yL	c #A7937D",
"zL	c #A5907A",
"AL	c #A28C76",
"BL	c #A38D78",
"CL	c #A48F7A",
"DL	c #A4907B",
"EL	c #968370",
"FL	c #635041",
"GL	c #8F7865",
"HL	c #A38E79",
"IL	c #A48F79",
"JL	c #A5917B",
"KL	c #A7927D",
"LL	c #A7927C",
"ML	c #A7927B",
"NL	c #A69079",
"OL	c #A69179",
"PL	c #A48E75",
"QL	c #A38C73",
"RL	c #53463B",
"SL	c #382219",
"TL	c #5F4A3B",
"UL	c #755A45",
"VL	c #977A5D",
"WL	c #9E7F61",
"XL	c #9E8062",
"YL	c #9E7F60",
"ZL	c #9C7C5D",
"`L	c #9B7B5C",
" M	c #9A7A59",
".M	c #9A7A5A",
"+M	c #997858",
"@M	c #9A7857",
"#M	c #927256",
"$M	c #5E4735",
"%M	c #86694E",
"&M	c #9B7B5B",
"*M	c #9B7A5A",
"=M	c #9C7B5A",
"-M	c #9D7A58",
";M	c #9C7857",
">M	c #9A7453",
",M	c #997352",
"'M	c #987352",
")M	c #39251A",
"!M	c #372418",
"~M	c #6A4F3B",
"{M	c #876548",
"]M	c #947050",
"^M	c #977454",
"/M	c #9C7B5D",
"(M	c #9C7D60",
"_M	c #977758",
":M	c #967658",
"<M	c #937255",
"[M	c #795F48",
"}M	c #523424",
"|M	c #7C4222",
"1M	c #4C2B13",
"2M	c #604A16",
"3M	c #3B241A",
"4M	c #1A1312",
"5M	c #653C23",
"6M	c #A35F30",
"7M	c #552E19",
"8M	c #693A20",
"9M	c #6B3A21",
"0M	c #915731",
"aM	c #2A160B",
"bM	c #3C261A",
"cM	c #6B4832",
"dM	c #704B35",
"eM	c #714B35",
"fM	c #704B34",
"gM	c #714B33",
"hM	c #684631",
"iM	c #533523",
"jM	c #543523",
"kM	c #5D3D29",
"lM	c #66422D",
"mM	c #64422C",
"nM	c #66422E",
"oM	c #68432E",
"pM	c #64412D",
"qM	c #65412C",
"rM	c #63412C",
"sM	c #63412B",
"tM	c #64432E",
"uM	c #65442E",
"vM	c #68442F",
"wM	c #64422E",
"xM	c #603E2A",
"yM	c #61402C",
"zM	c #573826",
"AM	c #523525",
"BM	c #523524",
"CM	c #523725",
"DM	c #583826",
"EM	c #593927",
"FM	c #62422C",
"GM	c #694530",
"HM	c #67432F",
"IM	c #5C3D2B",
"JM	c #503527",
"KM	c #5F3D29",
"LM	c #321E13",
"MM	c #844420",
"NM	c #68391F",
"OM	c #4D2A16",
"PM	c #543617",
"QM	c #4E2B1A",
"RM	c #4C2919",
"SM	c #522D1A",
"TM	c #392016",
"UM	c #171112",
"VM	c #A35F31",
"WM	c #442617",
"XM	c #663922",
"YM	c #693A21",
"ZM	c #6B3B21",
"`M	c #6C3C20",
" N	c #6E3C20",
".N	c #925933",
"+N	c #29150A",
"@N	c #4A2E1F",
"#N	c #4B2D1D",
"$N	c #4B2E1E",
"%N	c #4B2E1F",
"&N	c #543524",
"*N	c #573624",
"=N	c #5A3926",
"-N	c #603D2A",
";N	c #593926",
">N	c #563726",
",N	c #553726",
"'N	c #4F3323",
")N	c #4A301F",
"!N	c #533624",
"~N	c #623E2A",
"{N	c #7C4324",
"]N	c #7F4222",
"^N	c #442414",
"/N	c #1B1312",
"(N	c #A46032",
"_N	c #452818",
":N	c #6A3B21",
"<N	c #6D3C20",
"[N	c #935B35",
"}N	c #29170B",
"|N	c #140E09",
"1N	c #160E0A",
"2N	c #1A0E0A",
"3N	c #251711",
"4N	c #180D09",
"5N	c #170C09",
"6N	c #180C09",
"7N	c #180C08",
"8N	c #170D08",
"9N	c #170D09",
"0N	c #160B08",
"aN	c #150A07",
"bN	c #170B07",
"cN	c #160B06",
"dN	c #160B07",
"eN	c #302016",
"fN	c #312117",
"gN	c #322217",
"hN	c #322218",
"iN	c #39281D",
"jN	c #3D2A1F",
"kN	c #402D20",
"lN	c #422F22",
"mN	c #463225",
"nN	c #493527",
"oN	c #4C3627",
"pN	c #4C3526",
"qN	c #4D3525",
"rN	c #4D3423",
"sN	c #4E3422",
"tN	c #4F3521",
"uN	c #503521",
"vN	c #503522",
"wN	c #4F3523",
"xN	c #4D3626",
"yN	c #443023",
"zN	c #20110A",
"AN	c #3A271B",
"BN	c #3C281C",
"CN	c #442D20",
"DN	c #160C07",
"EN	c #7B4426",
"FN	c #7D4223",
"GN	c #381E11",
"HN	c #4C2B18",
"IN	c #381F12",
"JN	c #3D2113",
"KN	c #191212",
"LN	c #A35F32",
"MN	c #643820",
"NN	c #6B3C20",
"ON	c #6D3C21",
"PN	c #8D5530",
"QN	c #2A170C",
"RN	c #5F3D28",
"SN	c #744B2F",
"TN	c #835533",
"UN	c #925F3B",
"VN	c #98633D",
"WN	c #99643D",
"XN	c #8F5E39",
"YN	c #96623C",
"ZN	c #97633D",
"`N	c #97633C",
" O	c #96623D",
".O	c #905C38",
"+O	c #8E5C39",
"@O	c #8C5B39",
"#O	c #8E5C38",
"$O	c #905D39",
"%O	c #99643E",
"&O	c #9A653F",
"*O	c #9A653D",
"=O	c #9A643D",
"-O	c #9C663F",
";O	c #9C653E",
">O	c #95623D",
",O	c #8B5A38",
"'O	c #98643D",
")O	c #99653F",
"!O	c #93613C",
"~O	c #8D5C37",
"{O	c #8F5D38",
"]O	c #95613B",
"^O	c #9B663F",
"/O	c #A26C44",
"(O	c #9E6A43",
"_O	c #9D6842",
":O	c #99643F",
"<O	c #96613B",
"[O	c #9F663E",
"}O	c #A46A40",
"|O	c #A56B40",
"1O	c #A66C41",
"2O	c #A46B41",
"3O	c #A56C42",
"4O	c #A66C42",
"5O	c #A76D42",
"6O	c #A66D42",
"7O	c #A0673D",
"8O	c #9F663C",
"9O	c #9F663D",
"0O	c #9E663C",
"aO	c #9B633B",
"bO	c #996139",
"cO	c #976038",
"dO	c #975F38",
"eO	c #976039",
"fO	c #99613A",
"gO	c #99623B",
"hO	c #9A633C",
"iO	c #9B643C",
"jO	c #9C653D",
"kO	c #99633B",
"lO	c #95603A",
"mO	c #945F3A",
"nO	c #8B5835",
"oO	c #855333",
"pO	c #815031",
"qO	c #875635",
"rO	c #A36B42",
"sO	c #95623C",
"tO	c #362216",
"uO	c #7B4527",
"vO	c #361D10",
"wO	c #4C2A18",
"xO	c #492716",
"yO	c #331C11",
"zO	c #0F0E0F",
"AO	c #9E5B2F",
"BO	c #65381F",
"CO	c #532E18",
"DO	c #8A532E",
"EO	c #29160C",
"FO	c #4A3123",
"GO	c #4B2F21",
"HO	c #543321",
"IO	c #744225",
"JO	c #724024",
"KO	c #723F23",
"LO	c #723F24",
"MO	c #724025",
"NO	c #744125",
"OO	c #734024",
"PO	c #713F23",
"QO	c #713F24",
"RO	c #835231",
"SO	c #95663F",
"TO	c #A27044",
"UO	c #7B4F30",
"VO	c #714025",
"WO	c #734125",
"XO	c #784628",
"YO	c #7C4A2D",
"ZO	c #7D4B2D",
"`O	c #7E4B2D",
" P	c #7F4C2D",
".P	c #7C4A2B",
"+P	c #764427",
"@P	c #714126",
"#P	c #6D3E23",
"$P	c #6F3E23",
"%P	c #704026",
"&P	c #6E3F26",
"*P	c #6D3E25",
"=P	c #6B3C24",
"-P	c #6A3C23",
";P	c #683C23",
">P	c #653A21",
",P	c #633820",
"'P	c #613720",
")P	c #603620",
"!P	c #5E3620",
"~P	c #5F3720",
"{P	c #633923",
"]P	c #7B4528",
"^P	c #7F4223",
"/P	c #3B1F11",
"(P	c #4C2917",
"_P	c #482716",
":P	c #2F1A0F",
"<P	c #100E0F",
"[P	c #181212",
"}P	c #9D5A2E",
"|P	c #592F19",
"1P	c #462413",
"2P	c #6C3C21",
"3P	c #89532F",
"4P	c #2B170C",
"5P	c #5A3522",
"6P	c #512F1D",
"7P	c #52311F",
"8P	c #5A3623",
"9P	c #5C3521",
"0P	c #603720",
"aP	c #673B23",
"bP	c #693B22",
"cP	c #6F3E24",
"dP	c #703F24",
"eP	c #704024",
"fP	c #723F25",
"gP	c #6E3F24",
"hP	c #653A22",
"iP	c #693C24",
"jP	c #724026",
"kP	c #6F4024",
"lP	c #643923",
"mP	c #663A23",
"nP	c #6C3D25",
"oP	c #673B25",
"pP	c #643B25",
"qP	c #613924",
"rP	c #5F3723",
"sP	c #5D3521",
"tP	c #5A331F",
"uP	c #57321D",
"vP	c #522E1A",
"wP	c #512E1A",
"xP	c #653E26",
"yP	c #734A2F",
"zP	c #794E31",
"AP	c #7B4F2F",
"BP	c #7F522F",
"CP	c #905D38",
"DP	c #8D5A36",
"EP	c #885836",
"FP	c #835333",
"GP	c #825232",
"HP	c #845333",
"IP	c #7D5032",
"JP	c #5E3A24",
"KP	c #5D3722",
"LP	c #7C462A",
"MP	c #61351F",
"NP	c #4D2917",
"OP	c #4A2817",
"PP	c #2E170B",
"QP	c #321B10",
"RP	c #161112",
"SP	c #5A3823",
"TP	c #9D5C2F",
"UP	c #502D1B",
"VP	c #482615",
"WP	c #6F3E21",
"XP	c #8B5633",
"YP	c #2E190F",
"ZP	c #553322",
"`P	c #6E3F25",
" Q	c #6D3F25",
".Q	c #6C3F25",
"+Q	c #382114",
"@Q	c #3F2617",
"#Q	c #57321E",
"$Q	c #58321E",
"%Q	c #55301B",
"&Q	c #583622",
"*Q	c #583523",
"=Q	c #583320",
"-Q	c #5E3621",
";Q	c #6F4026",
">Q	c #6D3D24",
",Q	c #6B3C23",
"'Q	c #693B23",
")Q	c #653A23",
"!Q	c #613822",
"~Q	c #603722",
"{Q	c #5E3521",
"]Q	c #5D3520",
"^Q	c #57321F",
"/Q	c #56321F",
"(Q	c #5F3622",
"_Q	c #683D23",
":Q	c #6C3E24",
"<Q	c #704127",
"[Q	c #4F3121",
"}Q	c #7C472B",
"|Q	c #894925",
"1Q	c #32190E",
"2Q	c #4B2817",
"3Q	c #3C1E11",
"4Q	c #331C0F",
"5Q	c #50311D",
"6Q	c #442417",
"7Q	c #6C391D",
"8Q	c #6D391C",
"9Q	c #885532",
"0Q	c #321D12",
"aQ	c #45291B",
"bQ	c #53301F",
"cQ	c #573321",
"dQ	c #583421",
"eQ	c #5B3521",
"fQ	c #5C3622",
"gQ	c #4F2E1D",
"hQ	c #45291A",
"iQ	c #482A1C",
"jQ	c #482B1D",
"kQ	c #482B1C",
"lQ	c #472C1E",
"mQ	c #452B1D",
"nQ	c #7C482B",
"oQ	c #8A4B27",
"pQ	c #351D12",
"qQ	c #371D11",
"rQ	c #482717",
"sQ	c #7F4A2A",
"tQ	c #7F4E2C",
"uQ	c #2F1B11",
"vQ	c #221713",
"wQ	c #4D301D",
"xQ	c #A26135",
"yQ	c #442518",
"zQ	c #522C1A",
"AQ	c #743E1D",
"BQ	c #763F1D",
"CQ	c #85512F",
"DQ	c #0E0A08",
"EQ	c #0E0B09",
"FQ	c #130E0C",
"GQ	c #120E0B",
"HQ	c #1A120F",
"IQ	c #211410",
"JQ	c #221611",
"KQ	c #0F0A09",
"LQ	c #0B0808",
"MQ	c #2B1B14",
"NQ	c #1B110E",
"OQ	c #1C120E",
"PQ	c #251611",
"QQ	c #21150F",
"RQ	c #241711",
"SQ	c #110B08",
"TQ	c #21150E",
"UQ	c #1C110D",
"VQ	c #1F130F",
"WQ	c #221510",
"XQ	c #1C100C",
"YQ	c #0F0908",
"ZQ	c #1B110C",
"`Q	c #1A110E",
" R	c #7A4629",
".R	c #894B27",
"+R	c #2D180C",
"@R	c #432414",
"#R	c #4F2916",
"$R	c #844E2C",
"%R	c #915932",
"&R	c #5C3B26",
"*R	c #A36337",
"=R	c #4A2A1B",
"-R	c #452519",
";R	c #452618",
">R	c #8A5835",
",R	c #623820",
"'R	c #79401D",
")R	c #7D4827",
"!R	c #170F0D",
"~R	c #18100D",
"{R	c #19100E",
"]R	c #221813",
"^R	c #231814",
"/R	c #231812",
"(R	c #271913",
"_R	c #342118",
":R	c #2D1C15",
"<R	c #110C0B",
"[R	c #060708",
"}R	c #1A110C",
"|R	c #402A1D",
"1R	c #231813",
"2R	c #362219",
"3R	c #2F1E16",
"4R	c #1E1410",
"5R	c #281A13",
"6R	c #1A120C",
"7R	c #251813",
"8R	c #2A1B14",
"9R	c #2A1B15",
"0R	c #241813",
"aR	c #251912",
"bR	c #241915",
"cR	c #291A14",
"dR	c #241814",
"eR	c #332118",
"fR	c #241712",
"gR	c #342019",
"hR	c #352119",
"iR	c #251812",
"jR	c #2D1C16",
"kR	c #3B231A",
"lR	c #090708",
"mR	c #3C261B",
"nR	c #1D130D",
"oR	c #19100D",
"pR	c #211612",
"qR	c #221712",
"rR	c #784427",
"sR	c #894C28",
"tR	c #2B170D",
"uR	c #3C2012",
"vR	c #412113",
"wR	c #814D2A",
"xR	c #74492D",
"yR	c #161012",
"zR	c #452C1D",
"AR	c #A26439",
"BR	c #3F2517",
"CR	c #47261A",
"DR	c #754B2D",
"ER	c #482918",
"FR	c #7A421E",
"GR	c #361F12",
"HR	c #1B120E",
"IR	c #17100D",
"JR	c #2B1C14",
"KR	c #100D0B",
"LR	c #281A14",
"MR	c #271813",
"NR	c #2E1C16",
"OR	c #583927",
"PR	c #462A1D",
"QR	c #44291C",
"RR	c #060607",
"SR	c #583725",
"TR	c #653B25",
"UR	c #4C2E1F",
"VR	c #372118",
"WR	c #3F251A",
"XR	c #43281C",
"YR	c #0E0A0A",
"ZR	c #67412A",
"`R	c #3E261B",
" S	c #261812",
".S	c #764327",
"+S	c #8A4C28",
"@S	c #2B180E",
"#S	c #402314",
"$S	c #3C1F12",
"%S	c #5A2E18",
"&S	c #613C26",
"*S	c #3B2415",
"=S	c #9D6239",
"-S	c #3F2416",
";S	c #4B2B1B",
">S	c #47271A",
",S	c #754B2F",
"'S	c #523423",
")S	c #7A411E",
"!S	c #231711",
"~S	c #201510",
"{S	c #4A2B1C",
"]S	c #130D0B",
"^S	c #050608",
"/S	c #372119",
"(S	c #42281D",
"_S	c #39221A",
":S	c #39211A",
"<S	c #6B422A",
"[S	c #351F15",
"}S	c #392219",
"|S	c #1B100B",
"1S	c #392119",
"2S	c #46281B",
"3S	c #55311F",
"4S	c #2F1B10",
"5S	c #4E2D1D",
"6S	c #050607",
"7S	c #6C3E27",
"8S	c #382018",
"9S	c #46291D",
"0S	c #70452A",
"aS	c #754225",
"bS	c #8A4C29",
"cS	c #2A180E",
"dS	c #532E1B",
"eS	c #442516",
"fS	c #452414",
"gS	c #391E12",
"hS	c #5A2F1A",
"iS	c #130F11",
"jS	c #372113",
"kS	c #9B6139",
"lS	c #3F2415",
"mS	c #4B2B1C",
"nS	c #7A4B2C",
"oS	c #7B411F",
"pS	c #361E12",
"qS	c #261912",
"rS	c #38221A",
"sS	c #3F241A",
"tS	c #160F0B",
"uS	c #040607",
"vS	c #633C27",
"wS	c #3C251B",
"xS	c #140B07",
"yS	c #3C2319",
"zS	c #362018",
"AS	c #3C241A",
"BS	c #3F2417",
"CS	c #5D3B28",
"DS	c #693D27",
"ES	c #382017",
"FS	c #512F1E",
"GS	c #100A09",
"HS	c #39261A",
"IS	c #704529",
"JS	c #734023",
"KS	c #8B4E2A",
"LS	c #613E2C",
"MS	c #2A170D",
"NS	c #462616",
"OS	c #351B10",
"PS	c #592E1A",
"QS	c #3E2316",
"RS	c #462719",
"SS	c #8A522B",
"TS	c #341D12",
"US	c #110D09",
"VS	c #38211A",
"WS	c #512E1D",
"XS	c #5B3522",
"YS	c #1A100C",
"ZS	c #040507",
"`S	c #6C422C",
" T	c #140C08",
".T	c #623B26",
"+T	c #342017",
"@T	c #351F18",
"#T	c #613D29",
"$T	c #361F16",
"%T	c #382117",
"&T	c #5D3A26",
"*T	c #2A170F",
"=T	c #392018",
"-T	c #3A2319",
";T	c #4F2D1C",
">T	c #72462B",
",T	c #744023",
"'T	c #8C4D29",
")T	c #2C180D",
"!T	c #432415",
"~T	c #452514",
"{T	c #4F2B18",
"]T	c #572D19",
"^T	c #915F3C",
"/T	c #412317",
"(T	c #65381E",
"_T	c #341C12",
":T	c #261913",
"<T	c #5A3523",
"[T	c #040406",
"}T	c #6C432E",
"|T	c #3A2118",
"1T	c #2C1910",
"2T	c #1F120B",
"3T	c #40271D",
"4T	c #190E09",
"5T	c #613B28",
"6T	c #381F18",
"7T	c #351F17",
"8T	c #3A2218",
"9T	c #382019",
"0T	c #41251A",
"aT	c #0D090A",
"bT	c #5C3826",
"cT	c #462718",
"dT	c #432616",
"eT	c #4E2B1B",
"fT	c #502C1C",
"gT	c #1E100A",
"hT	c #74472D",
"iT	c #341E17",
"jT	c #8A4B26",
"kT	c #683C21",
"lT	c #2F190E",
"mT	c #4A4819",
"nT	c #56411A",
"oT	c #4A2816",
"pT	c #311A10",
"qT	c #582D18",
"rT	c #4B2A1A",
"sT	c #543120",
"tT	c #48281B",
"uT	c #3D241A",
"vT	c #3B2219",
"wT	c #040305",
"xT	c #653F2A",
"yT	c #56311E",
"zT	c #3E251B",
"AT	c #633C26",
"BT	c #3D2319",
"CT	c #1A0F0A",
"DT	c #613C28",
"ET	c #24150E",
"FT	c #653923",
"GT	c #492818",
"HT	c #532F1D",
"IT	c #3A2119",
"JT	c #3C2419",
"KT	c #72462E",
"LT	c #3B2319",
"MT	c #6D4226",
"NT	c #2E190E",
"OT	c #382012",
"PT	c #4F2C19",
"QT	c #502C1A",
"RT	c #2A170E",
"ST	c #5B301A",
"TT	c #432618",
"UT	c #0B0706",
"VT	c #6B422C",
"WT	c #331E15",
"XT	c #27150D",
"YT	c #3B221A",
"ZT	c #080506",
"`T	c #392115",
" U	c #512D1C",
".U	c #351E16",
"+U	c #6C422A",
"@U	c #3E241A",
"#U	c #281B14",
"$U	c #764425",
"%U	c #31190C",
"&U	c #5B2F1B",
"*U	c #422517",
"=U	c #371E12",
"-U	c #593522",
";U	c #49281A",
">U	c #49291B",
",U	c #351D10",
"'U	c #130B08",
")U	c #71462F",
"!U	c #5B3320",
"~U	c #321C14",
"{U	c #4A2A1C",
"]U	c #392019",
"^U	c #331D14",
"/U	c #3A221A",
"(U	c #080607",
"_U	c #522F1D",
":U	c #140D0B",
"<U	c #764426",
"[U	c #864B28",
"}U	c #301B10",
"|U	c #30180B",
"1U	c #542C17",
"2U	c #392116",
"3U	c #6C4129",
"4U	c #361B10",
"5U	c #553423",
"6U	c #422417",
"7U	c #452718",
"8U	c #4F2F1F",
"9U	c #271712",
"0U	c #392114",
"aU	c #130A07",
"bU	c #100A08",
"cU	c #824625",
"dU	c #65391F",
"eU	c #301A0F",
"fU	c #311B10",
"gU	c #4E2C1B",
"hU	c #33180C",
"iU	c #2C180F",
"jU	c #6F3D22",
"kU	c #381C10",
"lU	c #442616",
"mU	c #0D0A08",
"nU	c #0F0906",
"oU	c #150C0A",
"pU	c #774226",
"qU	c #311B0F",
"rU	c #341D10",
"sU	c #402414",
"tU	c #4C2C1A",
"uU	c #34190E",
"vU	c #2E1910",
"wU	c #3D2013",
"xU	c #492B1C",
"yU	c #452717",
"zU	c #0C0908",
"AU	c #1F140D",
"BU	c #68412A",
"CU	c #6B422B",
"DU	c #6C4229",
"EU	c #6C4329",
"FU	c #6B4228",
"GU	c #6D4229",
"HU	c #694029",
"IU	c #5D3924",
"JU	c #533220",
"KU	c #4D2E1D",
"LU	c #563523",
"MU	c #573523",
"NU	c #543221",
"OU	c #553321",
"PU	c #5A3723",
"QU	c #583623",
"RU	c #51301F",
"SU	c #50311F",
"TU	c #5B3722",
"UU	c #5D3723",
"VU	c #5D3823",
"WU	c #5E3824",
"XU	c #5F3A24",
"YU	c #623B25",
"ZU	c #643D27",
"`U	c #653E28",
" V	c #674029",
".V	c #684029",
"+V	c #683F29",
"@V	c #683F28",
"#V	c #673E27",
"$V	c #643C25",
"%V	c #734428",
"&V	c #321A0E",
"*V	c #4F2D1A",
"=V	c #351B0F",
"-V	c #3C2014",
";V	c #371D12",
">V	c #3A1F14",
",V	c #392217",
"'V	c #5B3420",
")V	c #5E3723",
"!V	c #5F3722",
"~V	c #613823",
"{V	c #623A24",
"]V	c #673C25",
"^V	c #5E3622",
"/V	c #5C3621",
"(V	c #613923",
"_V	c #673D26",
":V	c #683D26",
"<V	c #6A3F27",
"[V	c #6D4129",
"}V	c #6D4128",
"|V	c #6E4228",
"1V	c #6F4229",
"2V	c #70442A",
"3V	c #71442C",
"4V	c #71442B",
"5V	c #70442B",
"6V	c #70432B",
"7V	c #6D4028",
"8V	c #6C4029",
"9V	c #683E26",
"0V	c #683E27",
"aV	c #623923",
"bV	c #5E3822",
"cV	c #5A3420",
"dV	c #532F1B",
"eV	c #522E1C",
"fV	c #522F1C",
"gV	c #512D1D",
"hV	c #4E2C1C",
"iV	c #4A291A",
"jV	c #603724",
"kV	c #734327",
"lV	c #64361D",
"mV	c #381D12",
"nV	c #3B1F12",
"oV	c #472717",
"pV	c #321B11",
"qV	c #693921",
"rV	c #3D2014",
"sV	c #3B1F14",
"tV	c #3B2014",
"uV	c #301B0F",
"vV	c #130C0A",
"wV	c #4F2E1E",
"xV	c #4B2A1B",
"yV	c #4F2D1B",
"zV	c #4C2A1A",
"AV	c #462717",
"BV	c #472819",
"CV	c #512C1C",
"DV	c #7F4726",
"EV	c #331A0E",
"FV	c #361C10",
"GV	c #502D1C",
"HV	c #351C12",
"IV	c #391F13",
"JV	c #321C10",
"KV	c #3E2216",
"LV	c #432417",
"MV	c #130B09",
"NV	c #0C0909",
"OV	c #39201A",
"PV	c #532F1E",
"QV	c #55301E",
"RV	c #3F2315",
"SV	c #3E2315",
"TV	c #3E2215",
"UV	c #3D2214",
"VV	c #3A2014",
"WV	c #301C12",
"XV	c #442618",
"YV	c #76492F",
"ZV	c #723F21",
"`V	c #834822",
" W	c #351C11",
".W	c #603621",
"+W	c #321B12",
"@W	c #3F2116",
"#W	c #331F16",
"$W	c #41261A",
"%W	c #6D432B",
"&W	c #391B0F",
"*W	c #502B17",
"=W	c #2E180F",
"-W	c #2E180E",
";W	c #371F15",
">W	c #341C11",
",W	c #392118",
"'W	c #5A3624",
")W	c #4F3020",
"!W	c #3B1E12",
"~W	c #3A1E12",
"{W	c #371C10",
"]W	c #3D2115",
"^W	c #402317",
"/W	c #0E0808",
"(W	c #301910",
"_W	c #3B1F13",
":W	c #331A0F",
"<W	c #2F1910",
"[W	c #140F0E",
"}W	c #0F0C0C",
"|W	c #0C0C0C",
"1W	c #16100E",
"2W	c #251612",
"3W	c #20130F",
"4W	c #1D120F",
"5W	c #1D1411",
"6W	c #1F1411",
"7W	c #0E0D0C",
"8W	c #1B1310",
"9W	c #1C1411",
"0W	c #1C1310",
"aW	c #1C1311",
"bW	c #1D1310",
"cW	c #1B120F",
"dW	c #1B1211",
"eW	c #1B1311",
"fW	c #1A1311",
"gW	c #1C1410",
"hW	c #1D1311",
"iW	c #1E1411",
"jW	c #130E0D",
"kW	c #1F1410",
"lW	c #18100F",
"mW	c #110F10",
"nW	c #101112",
"oW	c #101113",
"pW	c #111113",
"qW	c #111112",
"rW	c #111013",
"sW	c #101013",
"                                                                                                                                                                                                                                                                ",
"                                                                                                                                                                                                                                                                ",
"                                                                                                                                                                                                                                                                ",
"                                                                                                                                                                                                                                                                ",
"                      . + @                                                                                                                                                                                                       # $ % & *                     ",
"                    = - ; > , '                                                                                                                                                                                                 ) ! ~ { ] ^ /                   ",
"                  ( _ : < [ } |                                                                                                                                                                                               1 2 3 4 5 6 7 8                   ",
"                  9 0 a b c d e f                             g h i                                   g j k                                         l m n                                 o p q                         r s t u v w x y z A B C                 ",
"                E F G H I J K L M N O P Q R S   T U V W     X Y Z `  .                              ..+.@.#.$.                                    %.&.*.=.-.                            ;.>.,.'.).        !.~.{.].^./.(._.:.<.[.}.$.|.1.2.3.4./                 ",
"                5.6.7.8.9.;.0.a.b.c.d.e.f.g.h.i.j.k.l.m.n.o.p.q.r.s.t.u.v.w.x.y.z.z.A.B.z.z.C.D.E.F.G.H.I.J.K.L.M.N.O.P.O.O.Q.R.S.T.U.V.W.X.Y.Z.`. +.+++@+#+$+y.%+%+&+z.%+z.*+*+C.=+-+;+>+,+'+)+!+~+{+]+^+/+(+_+:+<+[+}+|+1+2+3+4+0.5+6+7+8+9+0+                ",
"                a+b+6.c+d+e+f+g+h+i+j+k+l+m+n+o+p+q+r+s+t+w u+v+w+x+o y+z+A+B+C+D+E+F+G+C+C+H+6 I+J+K+L+M+N+O+P+Q+R+S+T+U+V+W+X+Y+Z+`+ @.@+@@@#@$@%@&@*@=@-@;@>@,@'@)@!@~@{@]@^@/@(@_@:@<@[@}@|@1@2@3@4@5@6@7@8@9@0@a@b@c@d@e@f@g@0.h@i@j@k@l@m@                ",
"              n@o@p@q@r@s@t@t@u@v@w@x@y@z@A@B@C@D@E@F@G@H@I@J@K@L@M@e+N@O@P@Q@R@S@S@T@U@V@W@X@Y@Z@`@ #.#+#<@@###$#%#%#T@&#*#=#-#*#;#>#,#'#)#!#~#{#]# +^#/#(#_#:#<#[#}#|#1#2#3#4#5#6#7#8#9#0#L@a#b#c#d#e#f#g#h#i#j#k#l#m#n#o#p#q#r#s#t#M@u#v#w#x#                ",
"              y#z#A#B#C#D#E#F#G#H#I#J#K#L#M#N#O#P#W@Q#R#S#p@T#U#V#W#X#Y#[@z@Z#`# $ $.$+$`#Z@@$#$$$%$&$*$=$-$;$>$,$ $R#'$)$!$~${$]$i#^$/$($_$:$<$[$}$|$0 1$2$3$4$5$+$5$6$7$6$8$9$0$a$b$c$d$e$f$g$h$i$j$k$l$l$m$n$o$p$q$r$s$t$u$v$w$x$E#y$z$A$m#B$C$              ",
"              D$E$F$G$H$).F#I$F#H$2 J$K$L$M$N$O$P$Q$$#T@R$S$T#V@T$U$F#V$W$X$Y$Z$`$V# %.%+%@%#%$%%%&%*%<#{$=%-%;%>%[ [ ,%'%,%)%!%>%~%{%]%^%/%(%_%:%<%[%L@}%|%1%2%3%y+y+4%5%6%7%X$8%9%0%/$a%b%W$a#c%d%e%f%V#g%K$g%h%h%i%[ j%k%l%m%n%o%p%q%r%s%l#t%u%              ",
"              v%w%x%3 y%z%F#F#E#p%F#A%B%y+C%C%C%;%;%D%'%`@+%E%F%G%H%F#F#I%J%K%d#L%L%i%M%L#V#N%V#F$O%F$P%Q%=%R%S%T%U%V%V%V%V#V%l#U%U%U%l#F$W%X%Y%y+D#|$Z%`% &=%t..&+&@&#&$&%&&&$&*&*&=&B%-&;&>&L@,&9#'&)&!&~&C%{&]&A%^&t@t@t@/&x$(&p%F#_&]&:&<&[&}&              ",
"                |&1&2&3&4&5&6&G#7&F#F#-%G#F#F#8&0.9&G#p%0&).a&e%b&v%F#F#F#-%F#F#F#G#G#F#F#F#7&^&c&o d&e&f&g&h&F#]#]#i&i&i&i&j&k&l&j&m&n&c&^&^&^&F#F#o&l$p&q&r&s&7&G#G#G#G#G#G#G#G#G#F#-%I$t&u&v&w&x&y&I$G#-%G#G#G#G#G#-%G#t@t@z&A&B&C&D&3&:&E&F&                ",
"                G&H&I&J&K&L&M&N&O&P&F#h&e+Q&;.R&S&$%T&U&V&W&X&Y&Z&`&G#F#F#F# *.*+*@*#*#*C&$*0.%*G#[%&*I#**W&G#F#t@r&=*d$-*;*>*,*+*G#F#F#F#F#F#F#F#F#=%'*<@)*!*~*{*]*^*/*F#G#G#G#G#P&F#F#%*(*_*:*<*[*4&}*C&9&G#F#F#G#t@/*/*e+|*1*2*3*4*5*6*7*>*8*                ",
"              9*0*a*-*b*c*d*e*f*g*1*0.G&h*i*j*k*l*l*m*n*o*p*Y&q*r*s*G#t*u*v*w*x*y*z*A*B*C*D*E*F*9*G*H*I*&*J*<%u.K*L*M*%# $ $ $N*O*P*9&F#F#F#F#F#F#0.Q*R*Q@S*T*U*V*W*X*Y*Z*/*G#F#G#F#F#`* =.=+=@=#=$=%=&=*===}*-=t#0.A&+*C&O&;=>=,='=)=!=~={=]=^=/=              ",
"              (=_=e$:=<=d*[=}=|=1=2=3=| R&4=h%5=5=5=m*6=7=K*8=9=0=a=9*b=c=d=e=f=g=h=i=j=k=l=m=l=n&n=o=p=q=8=r=s=t=u=v=w=w=w=w=x=y=z=A=B=C=D=4&9=9=8=E=F=G=U*U*U*H=I=J=K=L=M=N=O=Q&#*P=Q=R=S=T=U=V=#=W=X=Y=Z=`= -p=.-+-3&+*@-#-$-#-%-&-*-=---;->-,-              ",
"              '-)-!-~-{-]-[=}=^-/-(-_-:-<-Y#[-}-5=5=|-1-2-V&G#G#G#G#+-3-4-5-5-6-7-7-8-9-0-a-b-c-d-e- -^*^*9&f-j&g-h-Z#i-i-i-i-j-j-k-l-t@t@t@<%/*m-n-o-p-q-U*U*U*U*r-s-J=t-u-X#9&0.6&9&_&X#v-w-x-w-y-X=z-A-B-C-D-[%/*/*/*E-F-G-H-I-J-&-*-K-L-M-N-O-P-            ",
"            R-e$l$S-T-T-U-V-W-X-1=N=s#t.Y-n$Z-w=m*`- ;.;+;1%G#G#G#G##*@;d=#;$;%;7-8-7-&;*;=;-;;;>;,;1 ^&';f+);!;~;{;y=i-i-];y=^;/;];(;t@t@t@<%<%e+e+_;:;<;U*U*U*U*[;};|;1;2;3;D#(&D#E-4;`*5;X=6;7;8;z-9;0;a;b;c;d;/*/*E-';Z*e;f;g;J-&-*-*-h;i;j;k;,-            ",
"            l;R&m;n;o;p;q;r;s;t;u;v;w;x;-*y;l*$#O@z;A;B;5-6&G#G#G#F#d;C;D;E;F;G;H;7-I;J;K;L;M;N;O;,;P;Q;D#R;S;T;U;V;y=i-i-i-^;V;i-w=W;t@<%t@t@R;$.$.X;Y;Z;H=U*r-U*[;`; >.>+>J }$@>R;R;#>$>%>&>X=8;*>=>#=X=->;>>>9*/*}$,>,>8&'>)>!>J-K-*-*-k;O-~>{>]>^>          ",
"            (>_>:><>r;[>}>o;|>1>2> =3>4>5>6>$#7>O@`#8>9>0>/*-%G#F#F#a>b>c>d>e>f>g>h>e#i>j>k>l>m>;;n>o>t@}$)-p>q>r>P%w=i-i-i-w=s>t>`#u>%*D#t@t@t@.*v>w>x>y>r-U*U*U*[;H=z>A>B>C>y$D#@>^&D>E>F>*>G>8;8;X==>H>I>J>K>P;/*d$L>x;d&s#M>N>K-O>*-*-P>k;Q>J-R>0>          ",
"          S>T>U>V>W>X>Y>Z>`>H- ,.,o*8#+,@,#,$,%,&,*,9>=,-,t@-%;,>,/*,,',),!,~,{,],{$L;L;^,/,(,_,:,q c#a*!-<,[,},|,w=w=w=i-w=1,2,3,4,5,6,;,t@<%<%7,8,9,0,a,r-q-r-U*U*b,c,d,e,c#f,t@R;%./*g,h,8;i,W=G>X=X=7;j,k,l,m,Z*d$+%n,!-3&o,p,q,r,*-s,J-k;t,u,v,w,          ",
"          x,y,z,A,B,C,D,E,F,G,H,I,J,K,L,z;S@Q#M,N,^-t;O,u*t@t@P,Q,R,S,T,U,V,W,F$X,Y,^,Z,y;`, '.'+'@'Y#!-!-z$#'$'%'&'*'y=y=='-';'>','Z*Z*;,^&}$@>0.P-'')'!'~'U*U*U*U*{']'^'/'('_'t@D#<%%*:'<'['}'#=&>z-8;|'1'2'3'4'I&D#t.5'6'7'8'9'0'a'b'c'd'K-e')=f'g'          ",
"          h'i'j'V-k'l'm'n'o'p'q'r's't'u'v'w'x'y'5*Y*z'A'B'C'D'Q,E'F'G'H'I'J'K'L'M'N'O'P'Q'R'S'T'D=D'U'V'W'X'Y'O&Z'`' ).)+)@)#)$)%)&)C=5+f,l$2%d$(=*)=)-);)>),)')))!)~){){)V&])^)/)t@;,%*()g&_):)<)X=[)})|)1)2)3)4)7,Q;5)6)7),>o 1*8)9)0)a)b)c)d)e);=f)          ",
"          g)h)i)j)k)l)m)n)o)p)q)r)s)(-t)u)v)w)x)y)z)A)B)C)D)E)F)G)H)I)J)K)L)M)N)O)O)P){=Q)R)S)T)U)V)S$W)X)Y)Z)`) !x*.!+!@!#!$!U;s=*)j&%!&!*!=!-!J ;!_&$.>!,!7)'!)!j#!!D>~!G*{!]!^!n,{)(=/!(!_!$.:!<![!}!|!1!2!3!4!(*D#3;5!6!@%9#7!8!9!0!a!b!c!d!e!w,f!          ",
"          g!v;h!i!j!k!l!m!n!o!p!<,q!`)r!s!t!u!v!w!x!y!z!A!B!C!D!E!F!G!H!I!J!z)K!L!M!N!N!O!P!v;Q!R!S!T!U!V!W!X!Y!Z!U;Z!`!7, ~B'=*.~+~@~9*#~$~%~&~*~=~-~.=;~>~,~h@+-3&[%' v*'~)~!~~~{~]~'$^~/~(~_~:~r=4'<~[~}~|~1~2~+-3~4~5~6~7~8~9~0~a~b~c~d~e~f!f~g~h~          ",
"        i~j~k~l~m~n~o~p~L*q~r~s~t~U'u~v~w~x~y~z~A~B~Z'C~D~^#E~F~ )G~H~I~J~K~L~M~N~I,O~P~Q~R~S~T~u*g%U~V~W~X~w~%@Y~Z~`~ {.{m'+{@{#{;;${%{w+&{*{W)%%@>3!={-{;{>{,{'{){!{~{{{]{@>^{/{({_{:{<{[{}{|{1{2{3{3{4{1{5{6{7{8{9{0{a{b{c{d{e{f{g{h{i{d!d!j{k{l{m{n{        ",
"        o{p{q{r{s{t{u{v{v~w{z%x{y{e>z{A{B{C{D{E{F{G{H{I{ =J{K{L{M{N{P-c-J~O{P{Q{R{R{S{T{U{V{W{X{Y{y~Z{`{ ]c;P,y).]+]@]#]$]%]&]*]=]-]M;;]>],]'])]`*Q& =!]~]{]]]^]/](]_]:]<][]}]|]1]2]3]4]5]6]7]8]9]0]a]b]c]d]e]f]g]h]i]j]k]R*l][@m]n]o]p]q]r]s]t]u]v]w]W'        ",
"      x]y]z]A]G=B]C]D]E]F]G]H][%I]-$I&C>%$J]~)~)K]L]M]9>N]O]K.[%Z*g&P]Q]R]S]T]U]V]W]X]Y]Z]`] ^O-.^u*+^@^P-#^$^%^&^$]*^=^-^;^;^>^,^'^)^x~`*!^!^!^V&4;[,~^{^]^^^/^(^_^:^<^[^}^|^1^r&('n-#>7,2^3^4^4^4^5^6^7^8^9^0^0^a^b^c^d^e^e^P-f^g^h^i^j^k^l^m^n^o^p^q^+*      ",
"      s^t^u^v^w^x^T@H=y^z^A^B^p>f^C^D^E^F^S*S*G^H^I^J^K^L^K.M^(=Q;%@N^O^P^Q^R^S^T^U^V^W^X^Y^Y^Z^#{`^ /(*./+/@/#/$/%/&/*/=/-/;/>/,/'/)/!/!^!^`*!^!^u.5,~/{/]/^///(/_/:/</[/}/|/1/!^`*!^t@t@2/3/4/5/4^5/6/7/8/9/0/a/b/c/!-+%R&R&d/e/f/g/h/j^i/l^l^l^j/k/l/I)      ",
"    m/n/o/p/q/r/s/t/u/v/w/z;x/y/z/A/B/t{H^H^S*H^C/D/E/F/..G/s)H/Q;I/J/K/L/M/N/T^S^O/P/Q/R/S/S/T/U/V/;.(=./W/%!X/Y/Z/;/-/-/`/ (.(+(@(#($(!^!^!^!^!^[,%(&(*(=(^/-(-(;(>(,('()(!(~(`*f+M^D%C#C={(](^(/(((_(9^:(<([(4/}(|(r%_'c^m;1({)2(3(4(4(i/l^5(6(7(8(9(r)3&    ",
"  0(a(b(c(d(e(f(g(h(i(j(%#k(4&l(m(A]n(o(S*S*S*p(q(r($-2^s(;$t(u(n$7!y,v(w(x(y(z(A(B(C(Q/D(D(T/E(F(G(('d$H(';=%Y)I(J(-/-/-/K(L(M(N(O(P(m~C'%*%*j&z&V&Q(R(S(T(U(V(W(;(X(Y(Z(`(]=3$ _S%!!._D%o +_@_^(#_$_6/%_<(<(&_*_}(=_-_X'J{Y';_>_,_z~'_)_k^)_5(6(!_~_{_]_t@    ",
"  ^_ )/_(___:_<_1$[_}_|_1_Z!2_-.*@3_4_5_6_n(7_8_9_0_a_b_r!c^c_d_e_a=O%f_g_h_i_j_k_l_m_Y^n_o_p_O>q_r_D#J ';d$J s_t_u_v_w_x_y_z_A_B_C_Y{+^Y#R,D#D_`*M^|*;_E_F_G_H_I_I_J_K_L_M_-%;.N_O_!&P_Q_/!R_S_T_U_v-V_W_X_Y_Z_`_ :.:O%_'+:@:>%#:$:%:&:*:=:-:;:>:,:'$B*':t*    ",
"  ):!:~:{:]:^:/:(:_:::<:A&[:}:|:1:2:3:4:5:6:7:8:T{9:0:-.3$J x;a:U)b:c:d:e:f:g:h:i:j:k:l:m:%-%-n:o:p:./';q:C'r:s:t:C~u:v:w:x:y:z:h{A:B:-.H(;!c#/!s(C:2^D:E:F:G:H:I:J:K:L:M:N:5&O:+%P:P_Q:R:S:T: .U:V:W:X:Y:Z:`: <.<+<@<W'_'d/u>B^#<-*$<6,S-%<&<*<5:=<-<;<><,<    ",
"'<)<!<~<^*{<]<^<<:K)/<(<_<:<9_<<[<}<|<1<2<3<4<z)5<N~6<7<8<8<8<9<9<9<0<a<@;b<c<d<e<f<g<h<i<j<k<l<m<)+n<o<p<q<r<s<7<t<O,u<M:v<w<e!x<y<z<A<y/9<B<B<9<C<S;D<E<^<F<U{6&.* *-%y)G<H<I<J<K<L<5+M<N<O<P<O:Q<R<7,q:#'S<T<U<V<}*W<X<r!+:Y<Z<`<@^ [0:S,/*/*/*8&>*.[+[@['<#[",
"'<$[%['<&[l!l(*[=[-[;[>[,['[)[w,L^![9=()|*2^[< .!&~[{[][1 1 $^B=o ^[/[([_[@<:[.~<[[[}[|[1[2[.{3[4[5[6[7[8[9[0[ +=%$&$&a[O]b[p)E-Q%c[J*m,,*d[e[f[D-g[h[i[j[L#`)k[l[m[n[o[p[q[r[s[t[m,9=u[v[ .O+w[x[}&u[y[z[G*A[B[_&C[0=*)s(G&#^e[D[E[F[G[)[H[I[/[}[<<l)J[K['<L['<",
"Y{/-M[N['<O[P[%*Q[R[S[T[U[V[@{;=W[H%X[@>Y[Z[Z#`[ }.}+}@}%: ~`*%*Q;%@#}$}%}&}:=*}=}5]f,-};}>}_,,}'}(*$')}!}~}O%{}$:]}^}/}S##,(}_}6_^}:}<}L*>]>])][}}}|}1}2}3}4}5}6}7}5~8}9}0}a}b}C'!^`*D>G&c}d}e}f}g}h}i}j}k}l}m}n}{*e+o}f+>]3;R<p}q}q(r}s}t}u}v}w}x}y}s}z}A}B}C}",
"D}E}F}G}H}I}#';$J}r;K}L}T[M}R'5*N}O}!%/!v=P}Q}R}o(z{S}T}U}6,!^t@Q;I&V}W}X}Y}Z}`} |.|+|@|@|#|$|%|Y~&|a<K*<@G&q'*|=|A/-|6_;|>|,|'|)|!|~|<}>]>]>]>]{|]|^|/|(|_|:|<|[|[|}|||1|2|3|4|s)o}/*/*g&5|6|7|8|7|9|7|0|a|b|c|d|e|A&J f,-!W#I&f|g|h|r}i|i|i|j|k|l|m|n|o|p|q|r|",
"s|t|u|v|l(('D<w|T-o;x|y|z|A|B|C|4'D|E|F|G|H|I|J|K]K|L|M|N|;!s=C'Q;e[O|P|Q|R|S|T|U|V|V|@|W|X|Y|Z|`| 1.1l~q&s@+1@16:6_6_6_6_;|6}#1)|o($1]<>]>]>]./%1&1*1=1-1_|;1}|}|;1;1>1,12|'1)1#'!^/*/*c#!1~1{1]1^1/1(10|0|_1:1<1[1e+C'}1|1112131415161r}7181r}9101a1b1c1v|d1e1",
"f1g1h1i1$.j1k1l1m1X>n1o1p1q1r1N}o>s1t1u1v1/}w1x1y1z1A1B1C1;!n:=)M^,*D1E1F1G1H1I1U|@|@|J1K1L1M1N1O1P15,Q1R1V'S1T1U1V16_6_6_W1X1Y1)|Z1`1 2>]>].2+2@2#2$2%2&2*2=2-2}|}|_|;2>2,2e~'2=)!^/*t@.1)2!2~2{2]2^2/20|d_(2_2:2<2^*C'[2|1}2|212223242r}52r}62j|72829202s|a2b2",
"c2d2e2f2g2h2i2j2k2l2m2n2o2F[p2[<q2r2s2t2u2v2w2x2y2z2A2B2C2>* 2D2 <E2F2G2H2G1I2J2K2L2M2N2O2P2Q2R2/[b=&!@#>_&!k<S2T2U2V2>|]~W2X2Y2Z2`2 3])>]<}.3+3@3#3$3%3&3*3=3-3;3>3,3'3)3!3~3{3]3o}/*t@#*^3/3(3_3:3<3[3}3|3 %1323U&33(=4353|16373839303a3b3c3m|42d3e3f3K[g3h3i3",
"j3k3l3=)V$m3n3m1o3p3q3r3s3t3u3,_v3w3x3y3z3A3B3o|C3D3M|E3F3C>W<G3E)H3I3J3K3L3M3N3O3P3Q3R3S3T3U3V3W3X3U'>_>_@%I&G'Y3Z3`3 4.4+4@4#4$4%4&4o>*4=4-4;4>4,4'4)4!4~4{4]4^4/4(4_4:4<4[4k~{! 2z& *k<}4o$|4142434d_G@4454@^64748'C'84t~94*404<<a4b4c4d4e4f4g4h4i4j4k4l4m4n4",
"c;o4o4p4q4r4s4t4u4v4&}w4L!x4y4$'T&z4A4B4C4D4E4F4G4H4I4J4K4L4J#M4N4O4P4V3Q4R4S4T4U4O3V4W4X4Y4Z4`4 5.5+5D)@5>_#5b=r'$5%5&5*5=5m*-5;5v!>5P;@#H/,5'5)5!5~5{5]5^5/5(5_5:5<5[5}5%:|5152535456,Z*55b%6575859505a5f#b5$^e[%{7*c5F|d5e5j1f5g5h5i5j5k5l5m5n5o5p5K[q5r5n4s5",
"t5u5,-v5%@w5x5o5y5Z4j<z5A5B5C5D5E55,u!F5G5H5I5J5K5L5M5N5O5P5Q5G^R5W)S5T5U5I5V5W5X5Y5Z5`5 6f~R_.6+6@6#6$67%%6&6*6B=q_=6-6;6>6,6-6'6t[w;)6q$0 :#W|!6~6{6]6^6/6(6_6:6<6[6C>G&9<}6|6162636f{m]4656@^R<6676e/8696K 06a6a~b6c6d6e6f65>g6h6i6j6k6l6m6n6n6o6p6q6r6u5s6u5",
"t6u6D<;%43*6v6w6x6y6z6A6B6C6D6E6c;F6G6H6I6J6K6L6M6N6O6P6Q6R6S6T6U6V6W6@/X6Y6Z6`6E: 7f~2(.7+7)* .@7#7$7%7&7*7=7-7/~+-k[w!;7K6>755)*,7,706'7)7!7~7{7]7^7/7);W[(7_7P;:7<756[7}7|7172737475767+:5677879707(!a7b7c7d7e7f7P]g7h7i7j7k7l7m7n7o7R_R_s_p7q7v3r!r7C)s7Z't7",
"u7u7v7 5v721r7z%w7Q=q'u.X<x7y7z7k~A7B7C7:=D7H6E7F7G7H7I7J71#K7L7M7N7O7f[P7Q7R7S7T7U7[<V7W7X7d[Y7{*Z7B4`7 8.8+8@8#8Q<d[J6Y7Y7Q*$8X7%8%8P;&8*8=8-8;8>8,8#8'8Q*)8!8!8~8{8)*)*t[]8^8/8(8_8:8<8Y)k[Q*Q<z%;.;.Q*)*[8P-}8%{|818283848586878p>[8'8Q<'8'8,_,_{*88}<|2D~98",
"08a8b8c8d8e8f8g8]%+&d#h8n*94u!i8j813s]k8l8m8n8x/o8p8q8r8W$s8t8l{u8v8w8x8 %y8z8._._._[ A! % %A8x/m8B8C8D8E8F8G%G8H8I8J8K8L8M8N8O8P8Q8Q8R8S8T8U8V8~*W8X8i2Y8Y8Z8`8`8z,`8 9.9+9@9#9$9%9&9*9=9-9;9n;>9,9'9'9Z8Y8)9!9~9{9]9^9/9/9(9_9:9<9[9;9}9|9,9|9`8|919293949d859",
"697989699909a9b9c9d9e9f9g9h9i9j9k9l9m9n9o9Q3p9<|q9r9s9t9u9v9w9x9y9z9A9B9C9D9E9p8F9F9w]G9H9I9U2J9K9L9M9N9O9P9Q9R9S9T9U9V9W989X9Y9Z9`9 0.0+0@0#0$0%0&0*0=0a1-0-0-0;0>0-0=0,0'0)0!0~0{0]0^0/0(0_0:0<0[0}0|0|010|02030405060/:70809000>0a0b0c0d009e0e0f0g0h0i0j0k0l0",
"m0n0o0p0q0r0s009t0u0A]v0[|P}/}w0x0%<y0z0A0B0C0D0E0F0G0H0I0G0J0K0L0M0N0O0P0Q0R0{~S0T0U0V0W0X0v^v^v^Y0Z06~`0 a.a+a@a#a$a%a&a*a=a-a;a>a,a'a)az]!a~a{a]a^a/a(a_av_:a<a[a}a|an0B0J0K01a2a#63a4a5a6a6a7a8a9a0a0aaa9aba7acaaadaeafagahaiajakalamanaoapaqarasataua89vawa",
"P%t>xa`[ya^$zaI;I;}3|3}3]$}3AaBaCak*Da];EaS*FaGaHaIaJaKaLaMaNaNaOaPaQaRaSaTa7~E=UaE=Va4 4 u(Waz=XaX$YaR*ZaF'`a]%E$ b %e^./././q:./J >+;*r#4=Y-.b.b2%b%+bU:@b+b#bZ<j}#5$b%b&b*b&b=b-b;b:%W%[&e&h%>b,bO*'b)$)bA^!b=$~b{by;]b^b/b(b_b:b<b[b}b|b1b2b3b4b5b6b7b`[E%8b",
"g%9b0bn*)&abbbbbcbbbbbbbp&B#p&dbdbdbeb%%z;l*fbDa6>gbhbi#z=ibjbkblbmbnbobpbqbrbsbtb2 0#ubP:vbvb,%._wby80#._cbB#3 Q%G$xbp&._ybO_zbg!cbB#p&AbxbBbBb&&CbCbB#ubDbDbEbEbFbEbEbGbHbIbJbJbGbFbFb,!FbGbKbW%LbMbNbObPbQbO@c[RbZ$Sb`$#%z$>&._Q%eb3 Q%Q%dbdbQ%dbQ%L%TbUb1]s>",
"Vbc Dbabn$%&f&WbEbk9WbGbWbWbEbEbWbGb>&,%Xb<&<&YbL%54A!Zb`b c.c+c@c#c$c%c&c*c=c-c;cubA!A!._._>cO_Db,c.%t6t6'c)c!c~c{c]c^c/c(c_c_c_cP]M@m$d+d+d+d+d+v>:c!-V'b&Jb<c[c[cGbGbGbGb>&JbJbDbDb}cDbDbx[2 |cw%1cx%2c3c4c5c95956c95|%~&FbGbt$N_N_DbN_ybybVbVbN_ybyb0#._7c8c",
"x&9cx&x&x&W/x&0cacac/~bccc):cc[{dcecfcgchchcicgcgcgcjcfcfckckckclcgchchcfcmcmchcncecncjcncicicgcgchcocpcococqcrcsctcucscscq*vcwcxcvcxcxcucucocycycycuczczcycucoclclcAclclcococycycycycyczcyclczcocycAcgclcycucucucycBcCcDcEcFcGcHcHcHc/~'*x&s#IcIcIcIcIcx&x&x&-~",
"JcJcKcLcMcNcNcOc_&PcQci W&4'RcScTcUcUcUcVcUc4!m<m<m<UcUcWcWcUcVcVcVcXcVcVcYcYcWcZcVcVcVcVcVcUcUcVcZcVcVcVcVcYcYcYcYcScScZc`c d.d+dSc.d.d.dZcZcZcZcSc+d@dScVcVcScSc.dZcScSc.d.dZc d d#d#d#d#d$d$d%d&d$d*d=d-d-d;d>d;d,d'd)d!d~d{d]d^dZc.dVcVcVcn[/dm[m[Kcr=(d_dJc",
"JcJc:dJ*(*'*J*/~<d[d}&r#v&>!}dSc|d1d2d3d4d5d6d6d6d7d6d8d7d9d0dadbdcdddedfdgdhdhdidjdkdfdldedmdndodpdqdrdjdsdtdudvdwdxdydzdAdldBdCdCdDdhdkdkdfdmdedEd7dFd9d6dGdHdIdJdKdLdLdMdNdOdPdQdRdSdTdSdUdVdWd|dXdYdZd`d e.e+e@e#e+e$e%e&e*e=en=3)o&<~McPc-e<~ .).).G&>!;eJc",
"JcJc^[>e+%,>s@j%t.H/z8#&,eDb'e)e!ebd~e{e]e^e/e(e_e:e<e:e[e}e|e1e2e3e4e5e6e6e7e7e7e6e8e9e9e0eaebecedeeefegeheiejekelemenekeoepeqeresete8e6eue0eve0ewexeyezezeyeAeBeCeDeEeFeEeGeHeIeJeKeLeMeNeOePeQeCeReSeTeUeVeWeXeYeZeTeSe`e1e f.fK..!#%V$+/+f+f@ff[}&}&.1#%#fJc",
"JcJcGc$f%f&fx%h#`$3,*fA^=f-f;fZc>f,f'f)f!f~f{f]f(e^f/f(f}e_f:f<f[f}f|f|f1f2f3f4f4f4f8e9e9eve5f6f<f7f8f2fke9fie0fleafbfnenecfdfefffgfhf4f6eveve9e0exezeyeifjfkflfmfnfofpf<eqfrfsftfufvfwfJexfOeyfcecezfAfZeBfUeBfCfDfBfZeSeEf) FfGfHfF'F'+6IfJfKfLfMfNfOf=%~&r=Jc",
"PfJcr=@^D-QfRfSfTfUf]3VfWf-$XfYf>fZf`f g.g+g/f@g#g/e]f$g%g}e&g*g=g}f8e8e-g2f4f;g>g7e8e2f3f7e,g'g*gce)g!gke~g{g{gbf]g^g/g(g_g:g<gre[g}g|g8e6e8eueue0eif1g1gye2g3g4g*g5gaexe6g7g8gsf9g9g0gagbgcgdgCeceegfgggOehgigjgkglgmgngogpgqgl( =m,rgsgtgugvgwgxgygzgAg_7BgJc",
"JcCg@^5>DgEgFgGgHgIgJgKgLgMgNg7<!eOgPg.gQgRgSgTgSgUgVgWgXgYgZg`g h.h+h@h#h$h%h&h*h=h&h&h-h;h>h,h'hCe)h!h~h{h]h^h;h]h/h(h=h_h=h:h<h[hrd}h|h1h2h3h4h5h6h7h8h9h0hahbhchdhehfhghhhihjhkhlhmhnhohphqhrhshthuhvhwhxhyhzhAhBhChDhEhgfWdg2Fhd/GhRfHhIhn,y+e^&%>&e/r&JhJc",
"JcJcKhLh(2MhNhOh<-PhQhRhRhShThUh=gVhWhXhYhZh`h i.i+i@i#i$i%i&i*i=i-i;i>i,i,i'i)i!i~i{i]i^i/i(i_i:i<i[i}i|i1i2i3i4i5i5i|i6i7i8i9i0iaibi>gcidieifigihiiijikiliminioipiqirisitiuiviviwivivixiyiziAiBiCiDiEiFiGiHiIiJiIiKiLiMiNiOiPiQiRig8p8SiTi &]%J%UiVi];43F*WiJc",
"CgJcXiYiZi`i j.j+j~&@jU:#j$j%jg2&j*j=j-j;j>j,j'j)j!j@i~j{j]j^j/j(j_j:j,i<j[j}j|j!i~i~i1j4i5i2j3j4j5j6j7j8j2i9j0j0jajbj9j1i6icjdjejfjgj}hhjgi|jijjjkjljmjjinjojnipjqjrjsjtjujvjwjvixjyjzjAjBjCjDjEj(jFjGjHjIjJjHiKjLjMjNjOjPjQjjcRjj*U*v^SjTjUjZ2|#VjWjXj%$S,YjJc",
"JcZj`j k.k+k@k#k$k%k#b&k*k=k%j-k;k>k,k'k)k!k~k{k)j]k^k/k(k_k:k<k[k}k|k|j[j<jfi1k2k1i3k4k5i5k2k6k7k8k9k0k)i7i1i5i{iakaj~i0jbj9jbkckdkekfkgkhkgi}jgikjhiljikjkojkklkmknkokpkqkrksktkukvkwkxkzjykzkAkBkCkDkEkFkGkHkLiHkIkNjJkKkLk}&RjMkNkOkW|PkQk}|3}]'z3RkB@S,YjSk",
"JcTkUkVkWkXkYk!$Zk`k l.l+l@l#lQi$l%l&l*l=l-l;l-l>l,l'l)l!l~l{l]l^l/l(l_l:l<l[l}l<l|l|l1l2l2l_l3l4l5l6l7l8l9l3l0lalblcldlelflglhliljlklllmlnlolplqlrlsltlulvlwlxlylzlAlBlClDl0dElFlGlHlIlJlJlKlLlLkMlNlOlPlQlRlSlTlUlVlWlXlYlZl>+`l m.m+m@m#m$m$m%m&mf9u0*mS,YjSk",
"JcJc'*=m-m;m>m,m'm)mE&!m~m{m#l#l$l]msh^m/m(m_m:m<m:m[m}m}m|m1m2m3m4m5m6m7m7m8m9m0mambmcmcmdmemfmgmhmim'>jmkmlmmmnmompmqmrmsmtmumvmwmxmymzmX:nmAmu6BmCmDm/mEmFmGmHmImJmKmLmMmLmNmOmPmQmRmSmTmUmVmWmXmYmZm`m n.n+nMm@nl_#nk}$n%n%.l!&n!1*n=n-nf9$m;n>n>1,nK%66'n)n",
"JcJc!n~n{np&]n^n/nA/J1(n_n:n#l#l<n[n}n|n1n2n3n4n5n6n7n7n8n9n0nanbncndnendndndnfngngnen3lhn3linjnknlnmnnnhn3lonononpnqnrnnnsnontnunhmvn3lwnonhnalxnynalzngnAnBnCnDnEnFnGnengndndnenAnHnHnInInJnKnLnMnNn6nOnPnQnRnRnSnIlTnUnVnWnCc`lXnYnZn`n o!_.o+o@o#oU|U'$o%o)n",
"JcJc%@&o4%U'*o=oq8-o;o;o>o,o#l#l;kS>'o@g)o!o~o{o]o^o/o(o_o:o<o[o}ohd|o1o1o1o2o3o4o5o6o7o8o9o0oaobocodoeofogohoiojokolomono7joopoN^qorosotouovowovoxoyovo4ozo4oAoBoCoDoEoFoGoHoHoHoHoIozoJoJoKoLoMol NoOoPoQoRoSoToUoVoWoXoYoZo`ol! pYn.p+p@p#p$pSb%p&pu1*p.2r&)n",
"JcJc+/=p:>-ps>;p>p-o;o;o,p'p#l%jde[n'o@g)p@i!p~p{p]p!p^p{j/p(pWm_p:p<p[p}p|p1p>i}jhk)i6i1i1j4k2pkn$n3p4p5p6p7p7p8p9p8p5p0papbpcpdpepfpgphp2j8ibjipjp8i8ikplphkmpnpopppqplpkpkprpsptptpupvpwpxpypzpApBpCp$iDpukEpFpGpHpIpJpKp[!R=LpMpNpOpPpQpRp-<SpTp_|UpVbVpF*Wp",
"JcJcXpYpZpk(Y[U'`p q.q;o+q@q#l%j#q$q'o%q&q*q!pui=q-q;qtj>q,q'q)q!q~q{q]q^q|p>i/q(q[j_q8i:q<q4k[q}q|q3p1q2q3q3q4q3q5q6p0p6p6q7q8q9q0q8laqbq!i6iajcqkp8idqkphk[jeqnpfqgqhq2iiqaj8ihk8ikpcjcjjq}jkqlq^cmqnqoqpqqqrqsqxjtquqvqwqxq).yqzq++Aq0%BqCqDqEqFqGqHqVb7*IqJq",
"TkTkfcKq*!*!Lq_'Mq qNqOqPqQq#l%jRqEj'o%qSqTq>jUq^ktjVq^kWqXqYq)q!qZq{q`q r.r+r@r#r$r_qkp~i1j~i%r&r'-*r1q3q3q3q=r3q3q0p0p-r;r1j8q>r,r'r)r!r{iajaj2icj8ilp|j'ifi~rWmopgq{r0j6iaj8ihk8icj]rjq[j^rkq/r(r_r:r<r[r;q{kuq}r|r1r|r2r3r).yq4r++5r6r.57r$pE{8r#ow]n$/b9r0r",
"arTk%.brcr!%,'_'Mqdr37erfrgr#l%jRqhr'o@girwi,jjr!ptjkrjrlrmrnrorprqrrrsrtr rurvr#rupkphk{i4k(iwr&r8qxr1q3q3q3q3q3q3qyr0pzrbpArBrCrDrErFrGr1i{i!i1i2iajHr2j8i)iIrJr,rKr0k5i5i5i1i_qhklp2j'i$rLrMrNrOrmqPrQrRrSr;qTrqq|rUrVrWrXrYrl!Zr`r s|@.so8+s@s#s;1$syb%s0.)n",
"&s*sH6=scrr:Ub_'4%-s;s>s,s'sl!Qi)s!s~s]f{s]s>j^sUqtj/s~j(s_s:s<s[s_j}s|s1s2s3s4s5skpkpkp8i2i~i6s7s8s9s0s3q3q3q3q3q3qasbscs1jArdsesDr9lfs=h5i9j{i1i5i{i{iaj{i)igsorhsisjs!i1kaj!ikshklskpms|jnsosNrpsqsrssstsusvswsxsys|rJpzsAsBs`l&*Cs.pDsEso825FsGsHsp80#IsJs)n",
"Tkara>*km9KsLs#%}2Msz>Nsv:'s#l%jOsBo~s^ePsQsRs^stj=qSs$iTsUsVsWsXsZqYs rZs`s3s t@r2jaj8i5i5i1j.t+tnm9s@t2q2q2q2q2q2qyrzr#t1j1jum$t%tBn/g=h5i:q1i1i1i1i1i1i~i1i&tor*t=tjsHr!itpcq{iajcq_q|jfitposZm-t;t>t,t't)t!t~t~t{t]t^tWr/tn l!d$(t_t:t$po8o8<t[t}tu(5%|tM^0r",
"ZjSkW71t!% &2t#%}23t4t5t6tv;l!l!Z&7t~s#g8tTs9t0tRs`h(satatbtctlqXsZqdtetft3sftvrjj!i7iaj1i(i~i.tgtfjhtitjtjtktcscscscsAr1j1iltummtDr9lntotpt2kptqtqtqt2k(i(i2krtorDm=tjsHrHr]r2i{i]r1k_q|jstfittLmom;t>tutvtwtxt~tytytztAtBt&rs##l6,CtDtEtDqo8FtGtHtIt3>5%Jt-=Kt",
"ZjLtH6Mt[ ~%w~Nt}2OtPtQtRtStl!LpTt7tUtVtWtXtYtZt`t u.u+u@u+u#u$u%u&u*u=u-u;u>u,u'u)u!u~u{u{uIr]u^u/u(u_u:u&t<u[u{u}u|u1u|u2u3u@74uEn5u6u7u8u!u)u9u9u9u)u0u)uaubucufmdueu8u!uau~r~rfugu'uhuiujukuejlumunuoupuquru usutuuuvuwuP+J #lxuCtyuzuDqAu8(BuCuDuEu_bFuM^)n",
"arLt%@Gu!&HuL{IuJuKu{7LuMuNu#lQiOuPuQu'&fjRuSuTuXsTul_}mUu7m#nVuWu![l-*tXuTmYuZu`u4lKm v.v vor+v@vSmo%$u)q7k)qRm#v!q$v%v&vC$*v=v-v;v>v,v'v/u)v!v~v~v~v~v~v_m{v]v^v/vOs/t(v)qej_vKm:v<v9m7m}m[vS>ejMl}v|v1v}m4j2v3v4vRm5vMlXp6vO%#l7v8v9vHtDq0vavbvcvdvFsr8evJs)n",
"fv)nchgvI%hv oivjvkvlvmvnvov%jQiTtpv<%'&a&qvM@rvm$v>sv:-tvB%OuuvvvQuwvxvtvtvtvtvtvyv&v'cqvqvv>'-zv<v&*u$u$.%Avv>C$b&l-e%Bvrv*vCvDvEvD>fqFvIbGvXmHvXmFvIvu%x[x[JvuvKvLvm$sv'cMvFbFbNvGbDbIvIvIvsvLmt6r*OvZ&| qvPvQvRvSvTvUvI*VvWvl!HfXvYvZvDq`v w.w+w@w#w$w%w8')n",
"ZjWp&w*w#<u1=w=w-w;w>w,w'w)w%jv;!wpv~w{w]w^w/w(w_w:w<w[w}w|w1wKm2w3w4w5w6w6w7w8w9w0w8w7w5wawbwcwgtSmdwewfwgwhwgwiwjwkwlwmwnwowds4u-tpwqwrwsw}wtwtwuwvwwwxwywzwAwBwEmCwDwEwFwvwuwGwuwHwIwIwJwKwLwck@#MwNwOwPwQwRwRwSwTwUwVwWwVvXw%jK6YwZw`wDq x.x+xDu@x#x$x%x&x)n",
")nLtwb*x#<]!=w=x`v-x;x>x8[Tt%j%j,x'x)x!x~x{x]x^x/x(x_x{r:x<x[x}x|x1x2x3x4x5x6x7x8x8x9x8x0x0x0xaxgtbxhtcxdxdx9xdxexfxfxgxhxixjxkxDvnmlx9emxnxoxpxqxrxsxtxuxct+uvxwxepxxyxzxAxBxCxDxExFxGxixHxIxJxkn`)KxLxMxNxOxPxQxRxSxTxUxVxWxj}%jXxYxZx`x y.y@o+y@y#y$y%y w&x)n",
")n)ne&I0k(&y=x=x*y=y-y;y>y,y%jQi'y)y!y~y{ySsat`sjjhkjp]y^y/y~u(y_ywd:y6i2jaj<y:q^i#t[y[y[ycszr}ygt|y1y@tbszr8p2y8pcsAr]r<j3y4y5yCr6y7yae8y9yjkik0yaybycydyey%ifyDngyhyiyZsjyky'tlymyjjnylpoyuppyqys@ryix|psytyuytjvy/svywyxyyyzy%j'*AyByCyDyEt25EyFyGyHy`pIy&x)n",
")n)nJyKyLy'3My=xNyOyPyQyRySy%jQiZ&TyUyVyWyXy%iYy}j,ihk_qdq!i{uZyop`y}i!i]r1k z.z.z[y[y[y[ycsjt+zgt!v@z0s6pbsbs6p#tcs~i#z<j3y$z%z&zOr*z=z-z;z>z>z,z'zby)t'z)z!z~z{z} hy]z^zws~k~k/z(z_z,juiws!z:z<zO},k[z}z2s|zuy1zwy2z2z3z4z5z6z%j>!7z8z9z0z-:azEybzczdzezfzgz)n",
"Zj)n]$hzizjzkz@olz'3>sPymznzLp%jZ&ozpzqzrzszmrljtz5suzgijp7i{uvz[cydhqdq1kwz{i1j#t#t#txz[ycsap+zgtyzzzitbsbsbsbscsAz#zBz<jBzdq%zCzDzEz=zFz~t~twtGz)tHzGzIzkyJzKzJrLzMzNzAt!kOzPz/zQzwi>jRzSzTzUzVz:cWzXzYzZz`z A.A+A@A#A$A%AWx&A%j3$*A8zCy=AavQp-A;A>A,A'A)AgzLt",
"Zj)n[bhzKs!A~A{Alz]A^A/A(A_A%jv;,xoz:A<A[A}A`sjk9yZs|A1Afifi2A3A<cxd4A]r z{iHr_qcq1j#t#tcszrcs5Alqjl6A7Abs8A8A#t1jHr9A0AaAgigibAcADmEzdAeAfAgAhAhAkyoqiAwsoqjAkA{zlAmAnAoApA~kqA/z{krAAtpAxksAtAbo)-uAvAwAxAyAzAAABACADAEAFA6vz8%jGAHAIAJAKALAMANA;AOA0vViPAgzLt",
"Zj)nQARASAh9~ATAJt8rIA5t|aUA-k-kZ&VAWAXA[AvjWq_k_k'zYAjj1ktpZA`A/cyd}i{i!i!i_q_q{i1i1i.zcscscs5A B8s.Bitbs+Bcs#t@B<jny9A#B$B%B&BcAdm*B=zeA!j'j=Bts-B'jgA'jfA;B>B,BlA'B)B!B!B!k~B!k{B]Bxk{BYz^B/B0iB%(B_BwA:B<B[B}BBA|Bxh1B2BZm=o%j3B4Ber5B6BCu7B8B9B0BaBVibBgzLt",
")n)ncBdBXaeB`}fBgBfzhBiBjBkB)<m<l lBmBnBoBvjpBss%iqB_k}z|juprB+vsBrdtB!i[j#zuB!i9j1i7q1jAr#tAr.tvBwB.B7AxBcs[y1jyB<jzBAB/q|ABBbA:ndmCBDBEBFBGBwsHBIBJBztKBLBMB>BNBOBPBQBQzQzJp{BRBsASBxk{BTBsAUBVBO}WBXBYBZB`B C.CBA+C@C#C$C%Cc^Qi&C*C=C-C;A5B;C>C,C'C)C_b!C&xLt",
")n)n~C{C]C^C/C~A#1(C_C:C<C[Cm<N]v%}C|C1C2C>jtj(k3Cmr,zvr4C5C6C7Cb&id8C_q<j_q)i{i{i2k:q2k2k~i~i9CvB0CaCbC#t[y;r]rcC9A#BdC|A,zly%zeC$>fCkfgCIBhC'j'jiC_zPz_zKB,jjCkCMnlCmC]snCoCpCRBqC]BYzrCAjsCtCuCY#vCGjwC`BxCyCzCACBCCCDCEC+vD#%jFCGCHCICFyJCizKCLCMCNC'AOC&xLt",
")n)n~CPCh#QCC7`}NyRC_CSCTCUC-k-kl VCWCXCYCZCSx`C D.DDxBxix+D@D#DIvfp$D%D&D*D=D-D;D!u~r!u>D1u,D'D)D!D~D{D]D^D/D(D_D=uiu6C:D&i<D8q[D}D|D1D2Dsu3D4Dsu5D6D7D6D8D7D9D5mMn0DaDbDcDdDeDfDgDhDiDjDkDlDmD}xY#nDoDpDqDrDsDtDuDvDwDxDyD^m>!QizDADBDCDDDEDFDG3GDHDIDJDevm-Lt",
"Zj)nKDLDMDNDOD/CPDQD5tRDSDTDUD-k'&VDWD(&XDYDXwFmFmFmZD`D[s E.E+Es:@Enm#E$E%E&E*E=EC;ej3v3v-E;EknQmnm'- v>E)q>E v,EvB5v'E)E!E_cGm~E}Dn-tvyz{E7kMm3v3v]E3v4v@v@v^E/E(Eu%_E:E]E]E]E<E[E;E}E|E1E2E3Euvj%(&>,A%=}4E5E5ES:EbD_Eb>,6E>!7E8E9E/A0EaEbEHyEscEdE.x>peEJsLt",
")n)nfELDg#NDC8gEhEiEjEkElEmEm<)<X&nE>!a%!!SvFb,!S:D_D<S:qvUvv>oEs.7'svyvpEqEyvrEsEB%B%V'<ctEzluEvEwE;*rEyv{&D<u%qvu&C$u&u&u&/cxEyEzEAEm$EbGbFbf&XwBECEDEEEFEGEHEIEJEm$KEZuEEEELEXwMEt6.!B%| | O+NEqv@EOE|.PE| svb&HbHbJb<cQERE>!-k8ESE>sTEUEVEr8WEXEYEev2@ZEJs)n",
")n)nfELD*~`EC8 F.F+F@F#F$F%Fm<m<2']8WC&F*F=F-F;F>F,F'F)F!F~F{FWm]FIn^F/F/F/F(F(F_F_F_F:F<F<F[F}F4v|F_l1F2F:F3F4F5F6F7F8F9F0FaF8q9!bFcFdFeFfFgFhFiFjFkFiFlFmFnFoFpFqFrFsFtFuFvFwFxFyFzFyFyFAFAFBFCFHbDFEFFFGFHFIFJFJFKFLFMFNF ht*UDOFPF/AQFdERFr8SFTFYEUFVFaB0.)n",
")n)nWFXF*~^CYFZF`F G.G+G@G#Gm<)<yc$G|C%G&G;j*G{s{s=GCp-G;G>G,G`AxEld'G)G!G!G~G{G]G!G^G/G/G(G]G_G:G]cgq<G[G}G|G1G2G1G3G4G4G5G6G%zZmln7GVy8G9G0GaGbGaGaGcGcGdGeGfG%ugGhGiGjGkGkGlGmGlGmGnGoGpGqGrGNBsGtGuGvGwGxGyGzGyGAGBGCGuADG>!UD&4EGFGGGHGLh'AJDIGHCJGKGLGr%)n",
")n)nf#MGNGIGOGPGQ3VEQGEDRGSGm<m<wcTGUGVGWGXGYG,jHBZG>zey`Gik H.H{c+H@Hgi#H$HcCcC<j<j9AijeiuB#z%H{v&H*H<x=H-H`G;H>H,H0y9y'H)Hay!H~Hln{H]Hkh{k^Hyj/HYz(H_HTB:Hyj<H[H}H|H1H2H3H3H4H5H6H7HwA8H9H0HaHbHHbcHdHeHeHfHgHhHiHjHkHlHmHoinHm<oHpH/A#sqHrH'AO4`nerPD]bNCl9Lt",
")n)n[3MGNGw8sHtHuHvHRCwHxHyHm<m<q*zHAHBH~zqBhC(z/zwsus0yCHjkDHEHFHGHHHljIH@r$BcC9AcC9AnyaABzJHKHLH_cMHNHOH,HPHQHRHSHTHcyUHVHWHXHYH/cZH`H IOzQz{B^B.InC_H+I@I]B#I&rXm$I%I&I*I=I-I;I>I,I'Izi)I!I~I7CHbcH{IeH]I^I/I(I_IjH:I<I[I}InHm<|I1I_C2IKG3I'AO44I5I6ID{7IZpWp",
")n)ne{MG8I9IsH0Iu]8(t]vHaISGm<m<bIcIdIeIfI!thCgIOzhIwtayxtUHiIqmjIkIlI`G^qmI,HnI-H$H<j#z9AoIpIeq+EqIrIsItISH`GtIPHuIVH!twt)zvIGdwI]cxIyIzIAIBICIqCSBoCDIEIFIGIXzHIIIJIKILIMINI0HOIPIOIOIQIRISITILkBkUIVIWIXIYIZI`I J.JDC+J@J#JQum<gr$J%JU1&J*J'Ar8Et=JA7B8-J':Lt",
")n)n;J>JV;,Ju]'J'J)J!J~J{J]Jm<m<^JTt/J(J_Jts:J<Juq[J}J;z|JHB1Ja%-t2J3Jcy4Jmicy5JPH6JcCeiIHIHhi7JLm8J9J0JTHaJbJcJjyVHVH!tiAvIiAdJeJl-fJgJhJiJjJkJzilJmJnJoJPIpJqJJvqFrJsJtJuJvJwJNIxJyJzJAJBJCJDJEJFvFJGJHJIJ_IJJKJLJMJ.JNJOJPJn m<v;QJ%JRJ>CSJSJTJUJVJ,AFsWJt)Lt",
")n)nP@XJQbYJ'JZJuH8(`JPt K.Km<m<+K|!@K#K$K%K&K^tuq!kPz*K]k=K-KZ&om;K>K%i,Kayay5JxtRHRHur'Kki)K(G!K8s~K{KwtayVH5J]K^KiA}J/K~txs(K_K|.:K<K[K}K=I*IOI|KxJ1KxJ2K3K4K5K;v6K7K8KMjIj9K0KaKbKcKdKeKfKgKlmXmhKiKjKkKlKmKnKoKpKqKrKsKtK0cm<..uKQyvKwKKGxKyK*J*JxKzKzKM@AK",
")n)nBKCKQbDKMy)JEK!JPt-oFKGKm<m<zqHKIKVyJKKKLK^tUrMKNKMK1ruqOK5K6yPKQKxtQrxt,K5JRKhASKmrTKUKUKVKl-WKXKQgssYK>z]K<r!tZK`K L.L+Lnd@LsE#Lag$L%L&L%L*L|KFi=LFi-LAJ;L5K>L,L'L3KxJ)L!LSI~L{L]L^LCJCJ/L^m(L_L:L_IWI<L[LJk}L|Lwhwh1L!D>!m<q -:%J2L3LA74L*JSJSJSJFsFs5L6L",
")n)n7L8L9L0LaLbL/C!JPt-ocLSGm<m<jcdLeLPdfLgLhLiLgLjLkLlLmLnLoLpL}vqLrLsLtLuLvLwLxLyLzLALBLCLDLELt#dcFLGLHLILJLKLLLMLNLOLNLPLQLRLSL(&TLULVLWLXLYLWLZL`L M.M+M@M#ME-(&$M%M&M*M=M=M=M-M;M>MMe,M'MWB)M!M~M{M]M^M/MXL(M_M:MEh<M[M}M';m<)<|MQt2L+y1M2M#1xKSJxK*J`23M0r",
")n4M5M6M7M(b=x8MbL9M-xPt0MaMm<m<@>bMTt)M|vcMdMeMfMfMgMvm;EQm)qBwhMpv|EiM EjM*|l_kMWslMlMQmQmQmmMUu<vnMoMlMpMqMvBrMRmmM^urMsMmM<vUutMuMej;EvMgmwM@nnMQmRm:GSmxM8myMTuzMAMBMCM$>EmDMEMEMEMYu0mFMgmLm+EGMHM+_tM0ml_IM[vVBJM!c'vKMLMm<)<|MMMNMc6OMPM#1#1QMxKRMSMTMLt",
")nUMBKVM*yWMXMYMB/ZM`M N.N+Nm<m<zqxExExEBk@N3 &&=&$'#N#Ncbcb$N$Nbb8cg!G%G%@N]F%N@Nbb&N*N=N`ul_&E}m-NxM;NYD>NYD,N`D`D`D>N>N,N EFms.lA@Ns.1.Rv'NfqLzoplAopXmLzfq|Fop]Fs.]F]FCo@N@NoplAx+x[Db[cEbMvD_D_ _z$MvD_EbEbGb[cIvgG)N!N~ND~4!)<{N]N2Ic6k]SA4L#1gBgB^N0vTMLt",
")n/NBK(NIu_N`}YMB/:N`M<N[N}Nm<)<N~B6|NN]1N{}2Ns_D=H&3$s#F-R<3&s*-=3Nx~0:4N4N5N6N6N6N6N7N4N8Ngr9N6N4N0NaNaN0N5N9N5N0N0N0N0N0NbNcNdNcNbNQqF-QueNfNgNhNncuciNjNkNlNmNnNoNpNqNrNrNsNtNuNuNvNwNxNyNXpI/v3zNzNR<nclc2'ANBNCNqj3$,*DN..4!UDENFN2IGNHNk]IN#1xKKGJNDyTMLt",
")nKN0 LNbv9{h9R}fBMNNNONPNQNm<)<C$(cI RNSNTNUNVNWNVNj~XNS!YNZN`NVN O.O+O@O#O$O%O&O*O*O=O*OG+12-O;O4B>O}@,OUN'O)O!O~O{O]O^O/O!1@.(O_O:O<Om5[O}O|O1O2O3O3O4O4O4O1O5O6O}O7O8O9O0OaObOcOdOdOdOeOfOgOhOiOjOjOkOlOmOnOoOpOqOrOsOH@V#tOm<0<uO@y@pvOwOwOF|#1SJxOyO0vX3zO",
")nUMe{AO(2@:UpBOBOCONNkvDOEOm<)<FOGOHO+,H^IOJOJO5_5_JOJO5_KOLOJO5_5_MOMOMOMOMOMOJOJO{7NO~7~7~7~7OOJOPOQOJOROSOTOUOVOMOMOWOWOWOIOXOYOZO`O P#$#$.P+P@PS@#P$POOOOJOJO5_VOMOMOMOMOVOVOa5VOa5a5%P&P*P=P-P;P>P,P'P)P&;!P~P{PN$v{x8X$ <m<)<]P^P/C/P(PJu$1gBSJ_P:P0vc}<P",
")n[Pi>}Px/@:o8|P`M1P2PGs3P4Pm<m<)MrEz$X$5P5c,eW$6PM%W$W$T%Ls7P8P9P0PaPbPcPMOQOdPQOePePMOMOMOMOMOfPMOMOMO=fgPhP~PiPa5jPjPa5VOVOMOMOMOVOkPMOMOMOMOVObPlPmPbPMOMOMOnPoPpPqPrPsPtPuPE{@svPwPbvG)xPyPzPAPBP#O|_CPDPEPFPGPHPIPJPKPx5>&m<0<LPIAMPmENPOPPPxKxK_PQPlzX3<P",
")nRPSPTPx/6'UPVPWPQpRJGsXPYPm<g2tvc<ZPF]F]S@`P`P Q.QG;D^3%R&+Q@Q!%~}#Q$QuPD|EqE{E{%QWax86cx58-B@-<%%6c5c&QE$E$*Q8P=Qo8o8E{`$-Qz@iPcPMOF]s1%P;Q`P>Q,Q=P'QXMJ|)Qg>!Q~Q{Q]QA@9P8-^Q/QU%U%P9`$H;(QY,v=N$ ;_QR@:Q`P;Q<Qi9Xa`@DECE[QMng20<}Q|QeB>8(POP1Q2Q,A3Q4Q&J/)<P",
")n4M5QKyx/u~v~6Q$waz7Q8Q9Q0Qm<g2H%P]pEU'Y'V'D<6'_N@:4%#<aQ[c[c}cg!bb$&bQcQdQ`$7-eQN#fQH;H;%;9P`$Y[gQ5%hQWbD<D_MvaQiQjQ0#~&0#)%f&i@g!kQ;%j%V'&@j%:c:c:c.!V'!-!-!-:c)-:c:cj%I }c[cD%D_M@MvWbVbf&jQfqfqlQWvmQ[c[cDb<cM@m$m$qvEb>&V'm<)<nQoQZipQUJ2QqQrQNysQtQuQvQ<P",
")nUMwQxQK%Zb`pyQzQ({AQBQCQUim<g2DQDQEQFQGQGQGQn[o:HQIQJQKQLQStMQIqQ&NQOQ.-IqB6PQPQIq}*D&RjQi's:!a<}*}*o=|* =C&u.0=C:0=q n>NQNQv;.,v;:!Q&QQw7D:IqOQOQ.-G&PQRQ[*4[3N^>B)SQ+-K.TQp*N=UQVQWQWQXQC&K.Q&9='sYQw7n-Q&ZQZQ|*q l[`Qo~o~v;m<)< R.R.o+RxKUJ+y@RFs#R$R%R&R<P",
")nUMqF*RK%j*=R-R;R>R,R'R)RWfm<Uh!R~R{R]R^R/R/R(Rt#m-_R:R<R[R}R|Ry&>!1RodG#&*562Ro%3RDc1R4R~R0<ln%.t*5R6R5R7R8R9R0R1daRn[^RbRbRRj~Rb_shX#E#o&`&cR^RdRR=eRi6i6fRgRhR}*.d[ROsC$%.o&iRJdjR![s&G&`&kRt#MQWilRQ&mR9&p=nRH&oRpRvQqR/R%jm<)<rRsR]QtRxK#1uR@RFsQpvRwRxRzO",
")nyRzRARK%BR=RCR^)DRERFRU*GRXcb_HRIR~RqRqgqg/R(R9&B5&*JRKR[R}RrETt'&m-LROEv>Fh'&R=:RjRjRMR,;2^>NrEtvC##>E-:RNR9&R=3R%.Q=t*/*R%0=0={}OREbPRsEQRt*<%X#/*<%Vb)&Z*)&@&7,}*RRSRTRURVR-&-&QRLsLsd/~&TbWRXR0.YR;*ZR,v';t[`RQQiR S5RMQ0=4!UD.S+SEq@S-8Fs#S@REuzK$S%S&S<P",
")nyR*S=SK%-S;S>S^),S'S)SU*84m<b_RQ!S~S3RR%G#F#B}{S>_L%V$]S^SC=8PU%h8@-/SaQM#c^(S_S_S@-:SM^e[R7<S=&#&@&[SI)@-@-}SSLH#&v|S/S1S@-C=;.W7;EK%d#Zp2SC}@-@-@-@-iQ3S4S5SM#(=G&6SKM7Sw~VR8S=}y*/QXa+:`<M#q!9S3;KQxv0SURr#`*k&+-.*0.t*JR,~4!UDaSbS/QcS>pdSeSfSFsFsgShSw~<P",
"LtiSjSkSd#lSmS>SCRnSCQoS)mpSUD7<iRaRqSSLrSrS_SsSgQ6'dQD'tSuSw!vS/Qh8@-1Sd:3S5)wS_S_S_S_S!^*)xSxP8cz$X3HfyS@-@-_S_S^&Wv|SzS1S@-%!B=%{oM;Sn85%_'@-@-SL@-@-ASX$X3BSTbM^G&RRCSDS=R':ESH~V)c_B@+:Q1FSq!==1(GSHSISK#VRF#.* SH&3&X#t#QQ)<)<JSKSLSMSrQdSNSOPzKzKOSPS+j<P",
"<P)ne[gOgQQS.&RSO9W)SS;3F^TSm<US1dqSo&@-@-VS:S_'WS{SXSJ YSZSs'`S/QT%}S1S4EI%*4rS:S_S_S_S`*,* T.T;%+Ti]/=@-@-@-}S_Sn&{& /@T@-@-#8C:p7#T$T%TVbyS@-@-_S_S@-@-w~BS!!K#(' !lR&ToP>%*T=T-Tc;X$W$X).&;T`R _f,g2<d>TLsOEP[f+[%o&h@e+3RB=m<m<,T'TF{)T!TzK~TJuzK{Tl8]T+j<P",
"Lt)nn-^TgQQS;S>S>S^)/T(Tv1_Tm<US1d:T-=@-:S:S:Sr)7r2t<TC'4&[T,_}TB@3S|T@-@-C}1T:S_S:S@-zSM^2T T.TNt]#':w*@-@-@-:S:Sn&3T4T@T@-VSH6^>p75T6T7Tj%8T@-:S_S_SVS9T0TY'jQ`=%: !aTbToPcT.1@-@-d:B@{;dTeTfTq! _u>I,gThTY[}SiT[,s*o& S+-#>C=m<m<A/jTkTlTmTnToTxK*J#1pTqTA*<P",
")n)n('3>rT%ssTtTtT;R$!(2C]F|m<7<!S:To&:S:S_S:SuT0T7*vTi&QQwTO&xTyT=RzT_S_S1Sy~1S_S_S':33M^.7$<ATr)C}VRr&@-@-1S:S:Sm&BT,*/S_S_Sd[CT`4DT;<C}z$8S@-@-:S:S:S@-@-G/4Eq!c#ETL[m;FTGTR<@-VSBTHTWSX)$TIT:SJTO%N~CTKT{;LTj&G&o&LRLRLRgz4&m<)<E|.RMTNTOTPTQTgBKG@RRTSTLq<P",
")n)ny%FDDKF|<TtTm9k~%sTT=f>8m<7<fR:T S:S:S_S_S_S_S_S_S]##*UTP-VT^QmQ5]_S:S:S@-:S_S_S7T98o}>7$<pPl9C}@-@-@-9TVS:S:SWT;<>*:S_S_SGAq'XTl}A%@-WR8S9T@-9T1S:S_S@-zS@-YTR<k<ZT`TDq U7v@-@-9T8S6T.UA%1S_S_S)]'s.7+UP9@Uk&3Ns*#UCdCdLRE<0<0<$UsR>TYPTSEuQT2@JD%U@j&Ubv<P",
")n<Pd/*U=UOS-U;U>UyQf{4%i9,Um<7<RQ(R_&:S_S_S_S_S_S_S_SC}4;'UGA)U!U'c<%_S:S:S_S_S_S_S7Txu~Ux~y4Qb{U@-@-@-@-@-9T9T]UQ(^U$T_S_S:SGAT))w`:C}@-=}}S@-9TC}zS1S@-_S_S_S/U%(#8(U!&yT_Us)_S@-9T9T9T@-@-:S_SH~k&.[d[+U6-.!i&G&o&#UH&H&&xk[:U7E<U[U)bYP}UgBxKSJeT|U@S1Uw~<P",
")n<P2Ux{3U4U5U6Um9k~%s7U8Un]-k&|N= =UQC&C&,<+-+-C&C&9U1%ZQ+^k[zM0UYrIqPQD:D:D:@*D:D:#*a>O= / /W#J D:D:@*@*@*u.C&u.aUp~+*B&9U,<N=y4p>V$@*o  ! !o @**)~8u.C&C&u.C&9Ud;k[bUq&O%UiB&3&1%C&C&C&C&C&1%1%[%u.^>o>u%>_F-+-C:9=|*|*|*0={}Uc)<&kcUdUeUfU8BQMD5gUhUiUIGv~Lt",
")n<POE+5jUkUBb=|O9lU#:@:r:5)7EmUN~q q ..2^q N~N~N~N~StN~N~..$<nUnUG(N~N~N~StStStStSty4y4St's*6R7*6*6*6*6's's*6*6's'sa={}'s'sq StSt....*6R7*6*6*6*6*6*6R7R7*6*6*6*6*6's's*6*6's's*6..StoUStoU....StSt..StSt..V7....'s*6*6*6*61NN~4!UDn}pU]'qU$1rUsUtU]%uUvU^C2@Lt",
")nLtQ;wUdPc6xUH}LyyUBR@:5%P,I,zU4&B=AU3&3&[%.1%&1_BUCUDUEUFUGUHUIUJUKUI%$'$'$'KU%&2&F&LUMUMULULUp:p:NU$&%&kQk(>%*&OU bPU5c95955c4c4cQUF&RUP_VF+&A8SU1c b8PN#x5x5TU%fUUVU,&_:WU<b<bXUYUZU`U V.V.V+V@V#V$Vh#j><b8P:bJUsEZQT)D7('3$VcUD%V$P]A&V>8pSQP>p*V=V}U xQMLt",
")n)n7,-VA@;V:>>VH}EyO}_N=Rr%I,zUr_ SQcWT8',VMqDq$p$p$pp8S$`$6cx5eQ'V'V9P%;)V)V)VL$L$!V~V{V$VTRgb&,]VpP^Vl/$p/V(VM$Pb_V:V<V3U[V}V|V1V2V3V4V5V5V6V6V[V7V[V[V8V<V9V_V0V_VQbaVaVqPbVZ$cVZ$eQ`$S$p8dV yN4eVfVFtWSgVgUhVeTiVGT>p{;jVgQZcUDkV.$lV&VmVpSF|nVoV4UpVqVxKLt",
")nLtR=rVjQmVsVtVtVqQuV.5=Rf,vVzUr_qS^[}1wVw~v~VFv~+jv~>pk]7%x/x/x/]%7%>prT=R=R`pm9crm9r:m9;SVF;SxV`piVxV;S;S6%M*D5v~;S;SxVxVxVxV=RxVv~hVFtHTF9N4F9DqDqDqDqDqDqDq-<o8DqDqDqDqDqHTDqDqDq{;_UyV2@zV;SiVAVWMdTlUBV>U;UK{CVeVF9l/~V#&VcXc%VDVv0EVmVpSF|OS4UFV8,>nGVLt",
")n<Pgz.sHVIV$!$!$!gSJVKVLV,VMVNVr_+-B=u.^*6&7,7,5,7,0.0.6,6,6,6,33o}%*;,;,;,c&k&':7TC}VR@-@-@-@-]U:S:S1S1S1S]U]UOV:S1S]U@-@-VSVS@-@-@-@-=}4%HufVKsiVgUPVQV-<_URVSVTVUVEyf{VV]3fUo<Q1>]WVo<pVTSVfR1Gh#:D2@5&!Y'G!XViVBVX)R1O%C#(*Tcm<YVZV`VEVmVpS WV8=|=|vU.W+WLt",
")nLtk<@Wx7c}$!$!$!=|$1QSG!/)@<NVr_ S_&+T@-@-1S_S_S_S_S_S:S:S:S:S:S_S_S@-i&#Wj&m&WTk&':':/)i&#Wj&Q;;,(=(=./(=;,D#Q;WT#Wj&#Wj&j&j&j&^&;,o}M^#'D'J 6,q:s)[SS%$W#%sEr%{)-_r'U$OumRbM`RqEv>{&NtNtn,n,y+#%'c!!Y-,VC#]&S%q)O}!!JT| rE#WUhm<%W&W*WFVmV=U>8<4tVtV=W-W]*)n",
")nLta>~:=*;W$!$!$!>V>W~:G!63bUzUr_[%3Ni&_S:S_S_S_S_S_S_S_S_S_S_S_S_S_S1S@-=}@-,W,W1S}S,W,W,W4E4EOEOE=}@-=}VRq)bQ'W/)C}/SVRA%a[/)7TzS/S/SVR@-@-}S_S_S:S}S8T5Ev&-T5E-TC#C#|.|.|.|.|.Z&.bC#C#C#C#C#.b|..b.bZ&|.|.|.v&.b|.xvPEPEtv>,m<Vc)W!W~W{WmVmV>8&V-Af{@j=W]*Lt",
")n<P|SsV`Q/']W$!$!tV=U^WG!h6/WNVr_[%C&(=j&j&j&j&WT#W#Wj&j&j&WTWT}$WTWTWTWTWTWT;$;$WTWTWTWT;$WT;$;$;$^Uc&s)s)>]>]>]C';,c&c&;,C';,;,c&c&c&;,c&Q;Q;WTWTWTWTWTWT}$WT}$}$#W}$i&7'k%7'w;k%k%k%i&w;k%7'7'&*@>D#D#E-%*%*%*q:9#D>0.('F*s[)<UD(W_W~Wc6gSH}qQ:WsVtV*T<W/=Lt",
")n)n[W}W|W1WVQ2W,<3W4W5WYj6W}W7W8W9W0WaW0WaW0W0W0WaW0W0W0W0W0W0W0W0WaW0W0W0WJh0W0WbWbWbWbWbWbWbWbWbW0W0WcWcW8{8{8W8WdW8W8WeWfW8WeW8W8W8W8WeWeWeW0W0W8W0W0W0W8W8W0WeW0W0W0W0W0W0WaW0W0W0W0W0W0W0WgWaW0WaW0W0WaWhWhW5W5WiWiWiWiW8WjWFQUQD=c:E<UQA5p*A5A5A5n>kWlW)n",
"LtfvfvLtLtLtLtLtmWfvLtLtmWLtmW<PJcJcJcJcJcJcnWnWJcnWoWJcJcoWpWJcqWnWpWoWpWJcnWJcnWJcJcJcJcJcJcJcJcoWpWnWoWCgCgrWJcCgnWJcJcnWJcCgJcJcqWJcJcJcJcrWnWoWJcJcoWqWnWnWJcnWnWJcJcJcJcCgJcoWJcnWqWpWpWnWJcJcJcJcJcJcJcJcsWJcJcnWpWJcJcJcmWfv)nLtfvfvLtLt<P<PLtfvfvmWmWLt"};
