/* XPM */
static const char *p_head[] = {
/* columns rows colors chars-per-pixel */
"32 32 6 1 ",
"  c #00000000",
"o c #0005957b",
"O c #0000b69b",
"+ c #00545656",
"@ c #00F2FCFF",
"# c #00FF00FF",
/* pixels */
"################################",
"################################",
"################################",
"################################",
"################################",
"###########    #################",
"###########    #################",
"#########  oo  ####      #######",
"#########  oo  ####      #######",
"#######  oo@@  ##  ooOO  #######",
"#######  oo@@  ##  ooOO  #######",
"#######  oo@@          #########",
"#######  oo@@          #########",
"#######  ooooOOOOOOOO  #########",
"#######  ooooOOOOOOOO  #########",
"#######  oooooo   ooooo  #######",
"#######  oooooo   ooooo  #######",
"#####  oooooooo   ooo      #####",
"#####  oooooooooooooo      #####",
"#####  oooooooooooooo      #####",
"#####  ++++@@@@@@@@@@@@@@  #####",
"#####  ++++@@@@@@@@@@@@@@  #####",
"#######    ++++@@@@@@    #######",
"#######    ++++@@@@@@    #######",
"###########          ###########",
"###########          ###########",
"################################",
"################################",
"################################",
"################################",
"################################",
"################################"
};
