/* XPM */
static char *fc8553510f1b4e7faf40560ae783469c0YCYOZ0ZwZiQv1m0[] = {
/* columns rows colors chars-per-pixel */
"128 128 256 2 ",
"   c #052F18",
".  c #02391B",
"X  c #082D27",
"o  c #043423",
"O  c #0A3726",
"+  c #033C23",
"@  c #043B2B",
"#  c #0C3B2B",
"$  c #14382A",
"%  c #102F36",
"&  c #063B35",
"*  c #173935",
"=  c #233031",
"-  c #2C3335",
";  c #273836",
":  c #2D363A",
">  c #2D393C",
",  c #323636",
"<  c #323639",
"1  c #343938",
"2  c #34393A",
"3  c #09470D",
"4  c #02461A",
"5  c #02521B",
"6  c #024323",
"7  c #074629",
"8  c #095628",
"9  c #13502E",
"0  c #044637",
"q  c #174539",
"w  c #055537",
"e  c #27443A",
"r  c #0B692A",
"t  c #1F732B",
"y  c #0A6839",
"u  c #15663B",
"i  c #0B763C",
"p  c #12763C",
"a  c #153B48",
"s  c #293B46",
"d  c #353D42",
"f  c #11514D",
"g  c #294747",
"h  c #35454A",
"j  c #374A55",
"k  c #2C5251",
"l  c #3B545A",
"z  c #096947",
"x  c #0B6C45",
"c  c #156946",
"v  c #0C7645",
"b  c #127C44",
"n  c #177648",
"m  c #0B6C57",
"M  c #157755",
"N  c #277350",
"B  c #104A62",
"V  c #195D6A",
"C  c #165E72",
"Z  c #2B5968",
"A  c #3A5764",
"S  c #086B68",
"D  c #18656C",
"F  c #156374",
"G  c #0A7370",
"H  c #17777A",
"J  c #2B706F",
"K  c #475457",
"L  c #4B5659",
"P  c #4D5A5D",
"I  c #41625D",
"U  c #445665",
"Y  c #465966",
"T  c #4A5A65",
"R  c #465B69",
"E  c #4B5D6B",
"W  c #525E62",
"Q  c #515F6A",
"!  c #4A5F72",
"~  c #486769",
"^  c #4D606E",
"/  c #556669",
"(  c #53636D",
")  c #4F756C",
"_  c #4D6372",
"`  c #496973",
"'  c #576773",
"]  c #546674",
"[  c #556975",
"{  c #5A6B76",
"}  c #566B79",
"|  c #5B6D7A",
" . c #4B757A",
".. c #587677",
"X. c #5C717B",
"o. c #616E79",
"O. c #63757D",
"+. c #278D2B",
"@. c #2B922A",
"#. c #33982B",
"$. c #278B35",
"%. c #209036",
"&. c #329037",
"*. c #47AE35",
"=. c #4DA03A",
"-. c #59B93A",
";. c #5DC13C",
":. c #168548",
">. c #14894D",
",. c #2A8D52",
"<. c #3B9659",
"1. c #1AA15E",
"2. c #2BAF54",
"3. c #38AA58",
"4. c #3BB755",
"5. c #169071",
"6. c #2B926F",
"7. c #11AE78",
"8. c #16B67A",
"9. c #30AB6D",
"0. c #45984E",
"q. c #5AB743",
"w. c #47B253",
"e. c #43BB54",
"r. c #45B758",
"t. c #4B8E72",
"y. c #699A6A",
"u. c #47A764",
"i. c #48B868",
"p. c #52B26B",
"a. c #27C66F",
"s. c #45C14D",
"d. c #4EC252",
"f. c #62C747",
"g. c #55D376",
"h. c #66CF74",
"j. c #157D83",
"k. c #3A7089",
"l. c #497886",
"z. c #5B7682",
"x. c #657883",
"c. c #6B7E86",
"v. c #717F86",
"b. c magenta",
"n. c #148586",
"m. c #189186",
"M. c #2B9487",
"N. c #11B685",
"B. c #27AA8A",
"V. c #35AD8E",
"C. c #25B589",
"Z. c #29A995",
"A. c #26B595",
"S. c #338DAF",
"D. c #3C93BA",
"F. c #38A0BB",
"G. c #4E8F8F",
"H. c #5D838A",
"J. c #588798",
"K. c #6F8086",
"L. c #668589",
"P. c #6D8289",
"I. c #6E8B8B",
"U. c #718287",
"Y. c #728389",
"T. c #7A868F",
"R. c #728A8D",
"E. c #79898B",
"W. c #6B938C",
"Q. c #698A95",
"!. c #768793",
"~. c #7B8692",
"^. c #738C91",
"/. c #7D8B94",
"(. c #7D8D98",
"). c #6C9896",
"_. c #729393",
"`. c #7B939B",
"'. c #78989A",
"]. c #47AF96",
"[. c #6AA49C",
"{. c #75A49D",
"}. c #4685A2",
"|. c #5394AC",
" X c #4898B9",
".X c #6499AC",
"XX c #779BA4",
"oX c #7B9CA3",
"OX c #55A6B5",
"+X c #77A7AA",
"@X c #7AA3A9",
"#X c #6CB1AD",
"$X c #76ACB2",
"%X c #74B5B7",
"&X c #0DC284",
"*X c #14C385",
"=X c #26D18A",
"-X c #61DC86",
";X c #55E786",
":X c #6BC4BD",
">X c #2E9BCC",
",X c #369AC7",
"<X c #3AA7CF",
"1X c #4699C1",
"2X c #48A5C7",
"3X c #52B1D0",
"4X c #6FB6C9",
"5X c #50B8E4",
"6X c #5BCECF",
"7X c #67C9C6",
"8X c #72CCCF",
"9X c #68C9D6",
"0X c #68D9D6",
"qX c #77D7D6",
"wX c #67E2D9",
"eX c #6CD1E6",
"rX c #6FF5F0",
"tX c #828E97",
"yX c #818D98",
"uX c #849296",
"iX c #889697",
"pX c #86949B",
"aX c #89969C",
"sX c #859A9D",
"dX c #8C999E",
"fX c #919B9F",
"gX c #8BA19D",
"hX c #8798A0",
"jX c #8C9AA1",
"kX c #919CA3",
"lX c #8CA3A6",
"zX c #96A7AC",
"xX c #88AFB6",
"cX c #96AAB1",
"vX c #9BACB2",
"bX c #9DB3B5",
"nX c #9BB6B9",
"mX c #A3B5BB",
"MX c #A4B5B8",
"NX c #A9B6BA",
"BX c #A6B9BE",
"VX c #ABBABD",
"CX c #8ABAC5",
"ZX c #A6BAC0",
"AX c #A9BBC1",
"SX c #B2BFC5",
"DX c #8BCFD6",
"FX c #B0C5C8",
"GX c #94DAE7",
"HX c #8DECEC",
"JX c #98E7EA",
"KX c #88FAF5",
"LX c #99F9F8",
"PX c #A6FBFA",
"IX c #B0F4F6",
"UX c #C6F9FD",
/* pixels */
"b.b.b.b.b.b.b.b.b.b.b.b.b.b.b.b.b.b.b.b.b.b.b.b.b.b.b.b.b.b.b.b.b.b.b.b.b.b.b.b.b.b.b.b.b.b.b.b.b.b.b.b.b.b.b.b.b.b.b.b.b.b.b.b.b.b.b.b.b.b.b.b.b.b.b.b.b.b.b.b.b.b.b.b.b.b.b.b.b.b.b.b.b.b.b.b.b.b.b.b.b.b.b.b.b.b.b.b.b.b.b.b.b.b.b.b.b.b.b.b.b.b.b.b.b.b.b.b.",
"BXBXBXBXBXBXBXBXBXBXBXBXBXBXBXBXBXBXBXBXBXBXBXBXBXBXBXBXBXBXBXBXBXBXBXb.b.b.b.b.BXBXBXBXBXBXG G >.>.>.BXBX2.5 5 l BXBXBXBXBXBXBXBXBXBXBXBXBXBXBXBXBXBXBXBXBXBXBXBXBX}.}.}.}.}.}.>X>Xb.b.}.}.}.}.E.E.dXVXBXBXBXBXVXVXVXVXVXVXVXVXBXBXBXBXVXVXVXVXBXVXVXVXBXBXBXBX",
"BXZXBXBXBXBXBXBXZXBXBXBXZXBXBXBXBXBXBXBXBXBXBXBXBXBXBXBXBXBXBXBXBXBXBXZXb.b.b.AXBXBXBXZXBXo 8.B.G H >.>.z.i.2.e.e.5 5 ZXZXZXBXZXZXBXBXBXZXBXBXBXBXBXBXBXBXBXBXBXBXBXBXBXBXdXdXk.J J k.k.l.D.>XdXdXBXVXVXBXBXBXBXVXVXVXVXVXVXVXVXBXBXBXBXVXVXVXVXBXBXVXVXBXBXBXBX",
"MXAXBXAXBXZXBXBXBXBXbXvXvXvXvXvXvXmXBXZXAXAXVXAXAXMXzXjXaXpXpXpXpXpXBXmX| b.FXBXZXBXBXBXnX8.5.C.8.B.) >.L.7 2.2.2.2.2.7 AXZXBXBXBXBXBXBXBXBXBXBXBXZXBXBXBXBXBXBXBXBXBXBXBXBXBXdXE.E.k.E. X XE.E.BXBXBXBXBXBXBXmXBXBXBXBXvXpXaXjXlXbXBXBXVXVXVXVXVXVXVXVXBXBXBXBX",
"aXaXaXaXaXaXaXaXaXaXaXaXaXaXaXaXaXaXaXaXaXaXaXaXaXaXaXaXaXaXaXaXaXaXaX[ | b.FXZXBXaXhXpXo 8.8.8.8.6.@ :.X.~ F 9.2.2.2.u.Y.aXaXjXaXpXpXaXpXpXpXpXpXpXpXpXBXBXBXBXBXBXBXBXBXBXBXBXBXE.k.E.mXY.aXpXaXpXpXpXpXaXaXpXpXpXpXpXpXpXpXaXaXpXpXpXpXpXpXpXpXpXpXpXaXaXaXaX",
"aXaXaXpXaXaXaXaXaXpXaXaXaXaXaXaXaXaXaXpXaXaXaXaXaXaXaXaXaXaXs aXaXaXaX| X.b.FXBXaXaXaXaX6.8.8.8.8.X n z D Z.Z.F F F & ~ z.aXaXaXaXaXaXpXpXpXpXpXpXpXpXaXaXpXpXpXaXaXpXpXpXpXpXpX[ } k.E.mX).pXpXpXpXpXpXpXpXpXpXaXpXpXpXpXpXpXpXaXpXpXpXpXpXpXpXpXpXaXaXaXaXaXaX",
"aXaXaXaXaXaXaXaXaXaXaXaXaXaXaXaXaXaXaXaXaXaXaXaXaXaXaXaXaXaXaXaXaXaXaX| X.b.FXZXaXaXaXsX9.9.c # 7 7 v M.A.G A.Z.F F F * aXaXaXaXaXaXpXpXaXpXpXpXpXpXpXpXpXpXpXpXpXpXpXpXpXpXpXpX( } Z aXmXE.pXpXpXpXpXpXpXpXpXpXpXpXpXpXpXpXpXpXpXpXpXpXpXpXpXaXaXaXaXaXpXaXpXpX",
"aXaXaXaXaXaXaXaXaXaXaXaXaXaXaXaXaXpXaXaXaXaXaXaXaXaXaXaXj aXpXaXaXaXaX| X.b.FXZXaXaXaXjX) jXaXu.4.i e.i.A.A.Z.A.F F F f pXaXaXaXaXpXpXpXpXpXpXpXpXpXpXpXpXpXpXpXpXpXpXpXpXpXpXpX| [ k iXmX).pXpXpXpXpXaXpXpXpXpXpXpXpXpXpXaXpXpXaXpXpXpXpXpXaXaXaXaXaXaXpXpXpXaX",
"aXaXaXaXaXaXaXaXaXaXaXaXaXaXaXaXaXaXaXaXaXaXaXaXaXaXaXaXaXaXaXaXaXaXpX} | : FXZXaXaXaXaXlXsX  s.e.3.s.e.Z.A.5.A.& F F C pXpXpXaXaXpXpXpXpXpXpXpXpXpXpXpXpXaXpXpXpXpXpXpXpXaXaXpX/.[ Z iXmXDXpXpXaXpXpXaXpXpXpXpXpXpXpXpXpXpXpXpXpXpXpXpXaXpXaXaXaXaXaXaXpXpXpXaX",
"aXaXaXaXaXaXaXaXaXaXaXaXaXaXaXaXaXaXaXaXaXaXaXaXaXaXaXaXaXaXaXaXaXaXaX[ X.: FXZXaXaXl n v v p s.2.s.s.s.Z.A.A.A.] } k f ] pXaXpXaXpXpXpXpXaXpXpXpXpXpXpXpXpXpXpXpXpXpXpXpXpXpXpXaX[ }./.mXpXpXpXpXpXpXpXpXpXpXaXpXpXpXaXpXpXpXpXpXpXpXpXaXaXaXaXaXaXaXaXaXaXaXaX",
"aXaXaXsXaXaXaXaXaXaXaXaXaXaXaXaXaXaXaXaXaXaXaXaXaXaXaXaXaXaXaXaXaXaXaX| O.- FXZXaX7 v i v v :.s.i e.s.4.C Z.A.A.] hXc.] ] pXpXaXaXpXpXpXpXpXaXpXpXpXpXpXpXpXpXpXpXpXpXpXaXpXpXaXaX[ }./.mXpXpXaXpXpXpXpXpXpXpXpXpXaXpXpXpXpXpXpXaXpXpXpXjXaXaXaXaXaXaXaXaXaXaXaX",
"aXpXP.aXaXaXaXaXaXaXaXaXaXaXaXaXaXaXaXaXaXaXaXaXaXaXaXaXaXaXaXaXaXaXaX[ ] - FXZXaXw i v v v r s.e.s.e.F F C D ].} (.uXpXuXaXpXpXaXpXaXaXpXpXpXpXpXpXpXpXaXpXaXpXpXaXpXaXaXpXaXpX' [ k./.vXpXpXaXaXpXpXpXpXpXpXpXpXpXpXpXpXpXpXpXaXuXpXc.pXaXaXaXaXaXaXaXaXaXaXaX",
"pXh T pXaXaXaXaXaXaXaXaXaXpXaXaXaXaXaXaXpXaXhXaXaXaXaXaXaXaXaXaXaXaX' [ ' : FXmXaXpXX 6 n c 6 s.s.e.V D C C C ..} hXuXpXpXpXpXpXaXpXaXpXpXpXpXpXpXpXpXpXuXpXpXpXpXpXpXpXpXpXpXuX} [ k._ ] aXpXpXpXpXtXpXuXuXpXpXpXpXpXpXpXpXpXpXpXuXs Y pXpXpXaXpXpXaXaXaXaXaXaX",
"j [ { s aXaXpXpXaXaXaXaXaXaXaXaXaXaXaXaXaXaXh aXpXpXpXpXaXpXaXaXaX| } | 2 2 { ( (.aXaXpX& D H d.r.c f % C F F g } jXpXpXpXpXpXuXpXpXpXpXpXpXpXaXpXpXpXpXpXpXpXpXpXpXpXpXaXaXhX} } | k.> ' } jXaXpXuXuXtXpXuXpXpXpXpXpXpXpXpXuXuXuXj [ { s aXpXpXpXpXpXaXaXaXaXpX",
"[ } { h } } [ [ } [ } | } } } } } } } } } } | j [ [ [ [ [ | } } } [ ] 2 2 2 { | | [ } 0 A.Z.G H 0 7 % f ~ f F % ] ] ] ] ] ] ] ] ] ] ] ' ] ] ] ] ] ' ' [ [ [ [ [ [ [ [ ] [ [ [ [ } 2 S.s 2 ( ] ] ] ] ] ] ] ] ] ' ] ' ' ' [ [ ] [ l [ [ { s [ ] ] ] } } } } } } l ",
"{ | | s } [ [ } } } } } } } } | | | } } } } X.| } } } [ } } } } } { 2 2 2 2 2 [ | | [ V.A.S A.F & q [ f f 0 q j [ ] [ [ [ ] ] [ [ [ [ [ ] ] ' [ [ [ [ ] ] [ [ [ } ] ] ] } } } [ 2 2  Xs 2 2 { [ [ [ [ ] ' [ ] [ [ [ [ ] ] [ ] s [ [ { { s ] ] [ } } } [ } } s | ",
"2 2 2 2 2 2 2 2 2 2 2 2 2 2 2 2 2 2 2 2 2 2 2 2 2 2 2 2 2 2 2 2 2 2 2 2 2 < 2 2 2 : $ Z.S A.A.G @ ; g n.5.H H * < , < , , < < , , < , < < , , , 2 , < 2 2 2 2 < < 2 2 2 2 2 d s k k.GXs > 2 < < 2 < < , , , 2 < , 2 < , < , , , , , < 2 , - - 2 2 2 , , 2 2 2 2 ",
"2 2 2 2 2 < < 2 2 2 | | | _ _ _ { { { { { { | | | | | | { | | | | | | | | | | | ~ :.M A.Z.A.A.& * g % n.n.5.n.H - , 2 2 2 2 2 < < < , < , { [ [ [ { { { | { | J.z.{ | 3X|.D.D. X|.|.l.[ T E E T T T T E T T T T T T T T T T T T T T T U T Y E E E E E 2 2 2 2 2 ",
"2 2 2 2 2 < < < h h | | | | { { | | | | | | | } _ } } } [ } | X.X.| | X.| | X.A :.:.m A.A.V.y ~ M M u.n.n.n.S n.* > - - - > , < , , , - { [ [ [ } ' [ [ [ | | | | | 4Xz.l.2X X| { | } E R T E Y T Y E Y T T T T Y T E T T E Y Y T Y T T R E E E E E E E 2 2 2 2 ",
"2 2 2 2 2 [ _ _ _ _ ] [ [ _ _ _ _ _ _ _ _ _ _ _ h _ ^ E E ^ ] _ _ _ _ ] ] _ ~ b :.:.m A.G 0 i # ,.d.d.9.n.n.n.n.f ] ^ ^ } X + ; , , - ' ' [ R Y E E Y Y Y Y R U E R  XR 8XLXA R U R R Y R Y E R T T T T T Y E T E Y E E E E T E T T T E E E R E E E ^ E E 2 2 2 ",
"2 2 : , : AXaXaXaXaXaXaXaXaXaXaXaXaXaXaXaXaXaXaXaXzX^ ^ vXaXaXaXaXaXaXdXdXgXu :.:.:.z >.:...y . e.e.%.s.i 5.n.n.H aX/.tX] X.7 x . , , jXjXc.c.K.K.K.K.K.K.K.K.K.U.U. XO.9XIXK.K.K.K.K.K.K.Y.K.K.K.c.K.K.c.K.K.K.K.K.K.K.K.K.K.K.K.K.K.K.K.K.Y.U.Y.U.Y.R R : < 2 ",
"2 2 AXAXBXaXaXaXdXdXaXaXaXaXaXaXaXaXaXaXaXjXaXdXaXaXs K aXaXjXaXdXjXaXaXaXaX] } * 7 + O } ..i q e.s.i s.N i i v H ( aXpXaX| : o c X , lXc.c.v.c.c.K.c.K.U.K.c.K.Y.c.4Xc.9X8XK.U.K.c.c.P.K.c.U.c.K.K.c.K.K.c.c.K.K.c.K.K.P.Y.K.K.K.c.K.K.c.K.c.Y.Y.Y.Y.v.E E 2 2 ",
": FXlXlXaXaXaXaXaXaXaXjXlXaXaXaXaXaXaXjXaXaXaXdXaXaXhXU kXaXjXaXaXaXaXaXaXaXjX[ } ] _ ~ X l v q O s.s.d.* b b i ~ E aXjXaXaX= Y c u 2 lXv.c.c.U.c.c.K.U.K.c.K.P.c.c.qXc.eX9XK.K.c.K.v.c.K.K.K.K.v.c.Y.K.K.c.Y.K.Y.U.K.K.K.K.U.Y.K.K.U.U.U.U.K.Y.U.Y.Y.Y.Y ^ ^ , ",
"K mXdXdXdXdXaXaXdXdXaXaXdXdXdXaXaXdXaXaXaXaXaXdXdXdXaXj dXaXaXaXaXaXaXaXaXaXjXdXdXpXX C C F n + ] . s.5 | ..+ b [ ( pXaXaXpX; E u c ; lXv.c.U.K.K.K.K.K.K.P.K.c.K.c.DXK.9X9XK.P.U.K.K.K.K.c.v.c.K.K.P.K.K.K.K.K.K.Y.P.K.K.Y.Y.Y.Y.Y.Y.Y.Y.Y.Y.Y.Y.Y.Y.Y.!.E E 2 ",
"K mXdXdXjXdXdXdXaXaXdXaXdXjXaXaXaXaXaXaXaXjXaXaXaXaXaX^ aXaXaXaXaXaXaXaXdXaXhXaXaXX C F F C o c [ n 3.n } [ P.` ] ] pXaXaXaX' E w v ; lXv.v.U.U.Y.K.K.U.v.K.c.K.K.K.DXK.3XCXK.v.K.P.K.c.K.P.Y.K.Y.K.Y.K.Y.Y.Y.Y.Y.Y.Y.Y.Y.Y.Y.Y.Y.Y.Y.Y.Y.Y.Y.Y.Y.Y.Y.Y.E.E ^ 2 ",
"P mXdXdXdXdXaXaXaXaXaXdXdXdXdXaXaXaXaXjXjXdXaXaXaXaXaXjXK h aXaXaXaXaXaXaXaXaXaXg C F S m @ ` i g n v i o ] iXaXaXaXpXaXaXaXs ^ 9 v $ lXv.Y.U.U.v.U.U.U.U.c.K.K.K.K.).c.3X+Xv.Y.P.c.K.c.Y.c.c.U.Y.Y.K.Y.c.Y.Y.Y.Y.Y.Y.Y.Y.Y.Y.Y.Y.Y.Y.Y.Y.Y.Y.Y.Y.Y.Y.Y.E.E ^ < ",
"P mXdXdXdXdXaXaXjXjXaXdXdXdXdXaXaXjXaXdXdXdXaXaXaXaXaXdXjXo.aXaXaXaXjXaXjXaXaXaXaXsX4 2.2.6.f y w 7 i i 7 [ X.aXaXaXaXaXpXaXj ^ u b * lXv.c.U.U.v.U.U.c.U.c.P.K.P.c.H.c.OX.XK.v.Y.c.L.Y.P.P.c.c.c.K.Y.Y.K.P.Y.Y.Y.Y.Y.Y.Y.Y.Y.Y.Y.Y.Y.Y.Y.Y.Y.Y.Y.Y.Y.Y.E.E E < ",
"P mXaXaXdXdXdXdXjXjXdXdXaXdXdXaXaXjXdXdXdXdXdXdXaXdXaXaXaXaXaXaXdXdXdXaXjXaXjXaXdXsX2.2.v n.j.H i N 6 y u O { } aXaXiXaXaXaXh ^ u b t.lXU.U.K.U.v.Y.Y.K.Y.U.c.K.P.P.H.K.OX.XK.c.c.L.L.K.P.c.K.c.K.Y.Y.Y.Y.Y.Y.Y.Y.Y.Y.Y.Y.Y.Y.Y.Y.Y.Y.Y.Y.Y.Y.Y.Y.Y.Y.Y.x.E Q , ",
"W BXdXdXaXdXdXdXaXaXdXdXdXaXaXaXaXaXdXdXdXdXdXdXaXaXaXaXaXaXaXaXdXdXdXjXjXaXaXaXdXO 2.z n.7.n.G p $ 7 v :.4.u.Y } pXaXaXaXaXaX. * b q O p.r.u.) v.U.U.Y.Y.c.c.c.K.P.H.K.|..XK.K.c.oX$XY.K.K.K.Y.K.c.K.U.U.U.Y.Y.Y.Y.Y.Y.Y.Y.Y.Y.Y.Y.Y.Y.Y.Y.Y.Y.Y.Y.Y.Y.X.E E , ",
"W BXdXdXaXdXaXjXaXaXaXdXdXdXdXaXjXaXdXaXaXdXaXdXdXdXdXdXdXdXaXaXaXaXaXaXaXaXaXaXdX+ 2.j.5.7.n.b u 7 $ 4.4.i 4.0.| aXpXaXpXlX# c T b 4 v b u.e.r.* U.Y.Y.Y.Y.c.c.c.c..XK.J.|.K.c.K.L.xXc.K.Y.Y.Y.K.K.K.K.U.Y.Y.Y.Y.Y.Y.P.Y.Y.Y.Y.P.Y.Y.Y.Y.Y.Y.Y.Y.Y.Y.Y.( E ^ , ",
"P vXjXjXdXdXdXdXdXdXdXdXjXdXdXdXdXdXdXdXdXdXaXaXdXdXdXdXaXdXaXdXjXaXjXdXaXaXaXdXdX+ 5.n.n.5.b v + i ..r.4.4.:.4.sXaXaXaXsX6.S >.` ,.3.e.w.e.r.r.w.  K.Y.Y.U.c.c.c.c..XK.J. Xc.K.U.U.K.K.K.c.Y.Y.K.c.K.U.U.Y.Y.Y.Y.Y.Y.Y.Y.Y.Y.Y.Y.Y.Y.Y.Y.Y.Y.Y.Y.Y.Y.Y.E E ^ , ",
"W jXdXdXdXaXdXdXdXdXdXdXdXdXaXdXdXdXdXdXdXdXaXdXdXdXdXdXdXaXdXaXaXaXdXdXaXaXaXaXaX7 n.& + v v b lX,.# 7 4.4.4.4.7 dXaXaX. 1.6.1.O 6 3.u.4.e.4.r.i.4 K.P.U.K.P.U.v.c.Q.U.J. XK.K.U.U.K.K.K.K.K.K.c.c.K.Y.Y.Y.Y.Y.U.Y.Y.Y.Y.Y.Y.Y.Y.Y.Y.Y.Y.Y.Y.Y.Y.Y.l l A A A 2 ",
"/ dXdXdXaXaXdXdXdXdXaXaXdXdXdXdXdXdXdXaXaXdXaXdXdXdXdXdXdXdXaXaXaXaXdXdXdXaXdXaXjXlXjXkXo p v O _.5 N [ O r.4.4.,.dXaXaX<.m 1.1.o k 3.. 7 . 7 l ^ E Y.K.K.K.U.U.U.Y.U.Y.J. XP.K.c.c.K.K.K.K.K.Y.Y.Y.Y.Y.Y.Y.Y.R.zXY.Y.Y.Y.Y.Y.Y.Y.Y.Y.Y.Y.Y.Y.Y.Y.l { { { { { , ",
"/ dXaXaXaXaXaXaXaXaXdXdXaXaXaXaXaXaXaXaXaXaXaXaXaXdXdXaXaXjXaXjXaXaXdXdXdXaXaXdXdXjXdXaXgXi i 7 6 O :...} X.# 5 p.aXaXaX<.m 1.1.* 8X4 3.^ E U ~ U.U.U.c.c.c.v.v.v.Y.K.Y.J. Xc.v.c.c.K.K.K.K.Y.Y.Y.Y.Y.Y.Y.Y.Y.Y.Y.Y.Y.Y.Y.Y.Y.Y.Y.Y.Y.Y.Y.Y.Y.Y.l { { { { o.{ 2 ",
"/ jXaXaXaXaXaXaXaXaXdXaXaXaXaXaXaXaXaXaXjXaXaXaXaXdXaXaXaXaXaXaXaXaXdXdXdXdXdXaXdXaXdXdXdXi.4.1.4.O u.# } kXx.| } pXaXjX. m 1.6.' 7X:Xr.<.~ D Z.B.0 U.U.c.Y.v.v.U.c.).U.J.3Xc.v.v.c.K.K.U.K.Y.Y.Y.Y.Y.Y.Y.Y.Y.Y.Y.Y.Y.Y.Y.Y.Y.Y.Y.Y.Y.Y.Y.Y.Y.Y.x.{ { | O.o.{ 2 ",
"W dXaXaXaXaXaXjXdXdXaXdXaXaXaXaXjXdXaXdXjXaXaXaXaXaXjXaXjXaXjXaXaXdXdXdXdXjXdXdXaXdXjXaXe e.:.4.4.o u.w f 0 8 n O iXaXaX* 1.1...' . w 7 3.S Z.Z.G Z.0 c.Y.U.U.v.U.Y.DXY.J.9Xc.c.Y.c.K.K.Y.Y.Y.Y.Y.Y.Y.Y.Y.Y.Y.Y.Y.Y.Y.Y.Y.Y.Y.Y.Y.Y.Y.Y.Y.Y.Y.Y.x.{ | | | | | , ",
"/ aXaXaXaXaXjXaXaXaXjXaXaXaXaXjXaXaXjXaXaXaXdXdXaXdXaXaXaXaXaXaXaXdXdXjXaXdXaXaXaXjXaXdX. i.e.e.r.[ + G G Z.x p p u dXdXaX6.  [   r.i.p.O 9.Z.Z.B.B.Z.@ Y.U.U.U.U.U.Y.Y.J.DXc.c.U.U.P.Y.Y.Y.Y.Y.Y.Y.Y.Y.Y.Y.Y.Y.Y.Y.Y.Y.Y.Y.Y.Y.Y.Y.Y.Y.l l x.x.{ { { o.| | | , ",
"/ aXaXaXdXdXjXdXaXaXjXaXaXaXaXjXaXaXjXdXaXdXdXdXaXaXdXaXaXaXaXdXaXdXdXjXaXaXaXaXaXdXjXaX. 4.e.r.O [ @ A.A.S B.i p b . aXdXO uX] u.i.e.w.U 8 9.w 6.@ & 0 Y.K.U.U.U.U.c.K.|.JXc.c.Y.U.U.Y.Y.Y.Y.Y.Y.Y.Y.U.Y.Y.Y.Y.Y.Y.Y.Y.Y.Y.Y.Y.Y.Y.Y.Y.l { { { | { o.| | | { , ",
", : jXjXaXaXdXaXaXaXaXaXjXaXaXaXaXaXaXdXaXaXdXdXaXaXdXdXaXaXaXaXdXdXaXdXdXaXaXaXaXdXaXaX4 e.. ..} lX# Z.B.A.A.# l X.| aXaXaXdX' p.e.e.N E ~ r.4 Y.Y.Y.Y.Y.K.K.U.U.U.U.U. X2Xc.Y.Y.U.U.Y.Y.Y.Y.Y.Y.Y.Y.Y.Y.Y.Y.Y.Y.Y.Y.Y.Y.Y.Y.Y.Y.Y.Y.l { { { { | | { { | { { - ",
"2 2 fXfXdXjXaXaXaXaXdXdXfXaXjXaXaXaXaXaXdXaXaXaXaXaXaXdXaXaXaXaXaXaXaXdXdXaXaXaXdXaXaXdX7 ~ } jXO u . ,.& V.A.0 | [ c.pXaXaXaX[ . w.p.zXR.E u y R.Y.Y.Y.K.c.K.U.U.U.Y.Y. X2Xc.P.c.U.U.Y.Y.Y.Y.Y.Y.Y.Y.Y.Y.Y.Y.Y.Y.Y.Y.Y.Y.Y.Y.Y.Y.Y.Y.l { | { o.E O.| { { { { , ",
"2 2 2 2 Y.aXaXaXaXaXaXaXaXaXaXaXaXaXaXaXaXaXaXaXaXaXaXdXaXdXaXaXaXaXdXdXaXdXaXaXaXdXaXaXkXx.aX* n p 4 ,.z.} * & | aXaXdXdXpX' | q 8 JXjXR.~ 9 n 6 Y.U.c.c.K.v.v.U.U.U.U. X2XP.Y.c.K.U.Y.Y.Y.Y.Y.Y.Y.Y.Y.Y.Y.Y.Y.E.Y.Y.Y.Y.Y.Y.Y.Y.Y.l { o.| { { O.{ { o.{ { { 2 ",
"2 2 2 2 , aXaXdXdXdXdXdXdXdXaXaXdXdXdXdXaXjXaXaXaXaXdXdXdXdXaXaXdXaXaXaXaXdXaXaXjXdXaXaXaXjXjXu p b y H H D & ] } dXaXaXaXaX] [ { 4XHXO 6.D $ w n K.c.K.c.v.U.U.Y.c.v.v. X Xc.c.Q.U.U.U.Y.Y.Y.Y.Y.Y.Y.Y.U.U.Y.E E E Y.Y.Y.Y.K.K.Y.Y.' { | | { { { { E E E ^ 2 2 ",
"2 2 2 2 2 | | | ' ' [ ' 2 2 | | | ' [ ' [ [ [ | O.E.pXaXjXjXjXjXjXjXjXjXhX(.O.[ | | | | | X.x.b p + 3.f B.S C.f [ ' [ [ [ ] [ [ [ JXGX5.D D l # r u c q e p.r.r ..c.c.c.S.,XY.v.IXU.U.Y.P.Y.P.c.x.{ E Y E R ^ ^ U E E E E E E E E E E E { { { E E E E E ^ 2 < 2 ",
"2 2 2 2 2 2 { | | | | | 2 2 2 { | | | | { | { { | { { | | X.| | X.X.X.| X.{ } [ { X.| { } { X.X.| k 3.k B.A.5.V.] ' [ [ } [ [ } ' KX0 S D X U q c ~ 6 i m i.<.w.r.7 E E ,X>XT T E E E E E E E E E E ^ E E E E E s ( E E E E E E E E E E ^ ^ E E E E E E ( 2 2 2 ",
"2 2 2 2 2 2 2 2 2 2 2 2 2 2 , 2 2 2 2 2 2 2 < 2 2 < < 2 2 < 2 2 2 , 2 2 2 2 < o 9 2 2 2 , < d d d . N ; 6.A.C.B.: : 2 2 h h s Z KX0 D J $ - - * G.N n c ,.e.w.w.r.p.f k.>X>XPXJ d 2 ; : 2 2 2 : 2 : 2 2 2 : < < 2 2 2 2 2 2 2 2 2 2 2 2 2 2 2 2 < 2 2 2 2 2 2 2 ",
"vXzXcXvXcXcXcXzXzXvXvXvXvXzXvXzXvXvXzXvXvXvXvXzXvXvXvXvXvXvXzXvXzX/.: 2 2 2 < O u - VXVXVXFXf f f 3.& l.l.f V.B.DXJXDXeXeX8XJXDXDXCXCXJ.2 2 - <Xw b n q 3.c ,.D V f CX4X4X4X4X.XS., * < 2 2 < 2 2 < 2 VXAXVXBXMXAXAXVXBXAXVXVXAXMXVXBXVXBXVXVXBXBXVXVXVXVXVXMXVX",
"BXBXBXjXjXjX/././.jXcXvXcXcXcXcXcXcXcXcXcXcXcXcXcXzXcXcXcXcXcXcXcX_ E Q < 2 2 7 c ; BXBXZXJ S H f <.| mXVX| } ..[ VXZXLXCXmXVXVXzXpXpX| .XOXPX2Xn b b ..  3.D D C D X MXMXMXMXMXS.< 2 < 2 < < < 2 < 2 ZXZXZXZXmXBXmXmXZXZXZXZXZXBXZXZXAXAXAXZXZXZXBXmXZXZXZXBXBX",
"/./././././././././././././.T.T.E.Y.Y.Y.Y.Y.E.T.T.T.Y.Y.E.Y.Y.Y.E._ ( R = - 2 N c MXMXpXX G n.J u.+ | dXaXaX[ | o.aX.XPXaXaXaXdXaXaXT = IX3X,Xk.c n # O.# 3.,.C C C V { dXfXdX[ ] ] 2 2 2 2 2 < 2 BXBX/./././././././.tXtX/./././.yXyXyXtXtX/./.tXtXtX/.tX/./.tX",
"tXtXuXtXtXtXtXtXtXtXtXtXtXtXtXtXtXtXtXtXtXtXtXtXtXtXtXtXtXtXtXY.Y.E.^ . w.u.c n f MXaX& H n.m.+ 3.M 7 gXaXaXiXjX/.aX|.2XaXaXaXaXaXaX] ; IX>X1Xk.$ { aXjX* 4 3.f V V & % dXdXdXaXc.` s 2 2 2 2 < 2 BXmXyXyX/././././.(./.yX/./././.yX/./.yXtXtXtXtXtXtX(.tXtXtXtX",
"tXtXtXtXtXtXtXtXtXtXtXtXtXtXtXtXtXtXtXtX/.tXtXtXtXtXtXtXuXuXtXY.K.c.4 r.,.w.:.c HXMXaXjX[ [ X.3.5 r.i.N aXdXaXaXaXaX|.JXaXaXaXaXaXaX] * PX>X X,XuXpXpX@ D D 4.O | | X.o.dXaXaXaXaXU 3X: 2 2 2 2 2 AXBX/././././.(.(.(.yX(.tX(.tX/.(././.yXyXtXtX/.tXtXtXtXtXtXtX",
"tXtXtXtXtXtXtXtXtXtXtXtXtXtXtXtXtXtXtXtXtXg tXtXtXtXtXtXuXtXY.Y.Y.y.w.r.e.e.b & DXaXdXjXjXdX~ 3.7 e.p r.aXaXaXaXUXaX|. XaXaXaXaXaXaX' l <X>X X,XaXaXV.B.V.C.n p.aXaXsXO O iXaXdXaXjXl.l 2 2 , , = AXAXyX(./././.(.`.(.(.(././.(.(./.(././././.tX/.tXtXtXtXtXtXtX",
"tXtXtXtXtXtXtXtXtXtXtXtXtXtXtXtXtXtXtX/.tXcXtXtXtXtXtXtXtXtXY.Y.Y.7 e.e.w.r.M C $ dXaXaXdXdX. 7 ..r.4.i.jXaXaXaX%XhXXX XaXaXaXaXaXaX( s >X>X1X1XaX`.C.Z.B.B.f 4.7 sXN 4.3.p.sXdXdXaXA OX> 2 2 = bXyX/./.yX/././.).@X`.(.(.(.pX`.`.`.`.(.`.(././.`.(.tXtXtXtXtXtX",
"tXtXtXtXtXtXtXtXtXtXtXtXtXtXtXtXtXtXtXtXtXtXtXtXtXtXtX/././.Y.Y.Y...` U @ v V C V aXdXiXiXsX3.~ | [ 0.5 aXaXaXaXY.aXhX1XpXaXaXaXaXaX: vX<X5X X XaX..B.B.B.A.n 3.8 6 1.5.G 5.9.aXdXjXpX' ~ g , L mX/.yX(./.yX(./.).'.`.`.`.'.'.XXXXXXXX'.`.`.`.'.$X(.tXtXtXtXtXtX",
"tXtXtXtXtXtXtXtXtXtXtXtXtXtXtXtXtXtXtXtXtXtXtXtXtXtX/././.Y.Y.Y.U.E _ l n n D C V aXE.3.9.G ,.[ aX[ X.} aXaXaXpXpXaXaX2XaXaXaXaXpX= VXaX<XeX9X|.aXT.A.B.V.M v + :.) 5.1.5.5.1.6.aX{ aXfX( IX, W MXyXyX/.tX/././././.'.`.`.XXXX@X@X+X@XXXXX'.`.(.`./.tXtXtXtXtXtX",
"tXtXtXtXtXtXtXtXtXtXtXtXtXtXtXtXtXtXtXtXY.tXtXtXtXtX/./.Y.Y.Y.Y.Y.Y.c.X ,.# D C V jX<.>.9.2.<.g / fX/.} aXdXaXdXpXxXpX2XaXaXaXaXE NXjXaX5XeX9X.XpX| V.V.M b   L.n 6 @ 6.5.5.6.c X dXaXaX' PX2 W MXyXyX/.yX/.(./.tX(.`.`.XX@XGX+XJX+X+X+X@XXX'.`.tXtXtXtXtXtXtXtX",
"tXtXtXtXtXtXtXtXtXtXtXtXtXtXtXtXtXtXtXtXtX/./././././.Y.Y.Y.Y.O.O # k 7 n T & C X I.2.2.2.<.9 C C V jXaXaXdXaXaXaXhXaX2XaXaXaXaX: P aXpX5X5X4XoXpXo.0 ) b n x.g f b O z.X.} | X.aXdXdXaX] HX2 / bXyXyX/././././.tX`.`.XXXX+X$XJXHXJX%XJX+XoX'.`.tXtXtXpXtXtXtXtX",
"tXtXtXtXtXtXtXtXtXtXtXtXtXtXtXtXtXtXtXuX/././.x./././.Y.Y.R.u b b p b 3.@ Q LXZ bXo 2.<.O X 7 F F C & O.aXdXaXaXaXpXpX9XaXaXaXjXd : pXaX3X5X4XpXpXpXX.hXo X.% F F 0 n e pXpX@ A.V.0 @ jX[ HX2 / mX/.yXyX/./.yX/.tX`.'.XX@X$XJX%X:XKX#XLX$X+XoX'.`.`.tXtXtXtXtXtX",
"tXtXtXtXtXtXtXtXtXtXtXtXtXtXtXtXuXuXuXtX/././.BX/./.Y.Y.~ n b b D V.m 3.~ T LXMXdX..lX[ } g 7 B C C C } aXaXdXaXaXpXaX9XaXaXaXaXU : uXpX5X9X4XsXaXdXpXaXY.{ & D D V 7 n . lXS G M.C.@ dX} PX2 W mX~.yXyXyXyXyX/./.`.XXXX+XJX%X7X7X7XKXHX%X+X@XoX@XpXuXpXuXtXtXtX",
"tXtXtXtXtXtXtXtXtXtXtXtXtXtXtXtXuXuXuX/././././././.Y.K.n :.b M A.V.Z.9.E T LXMXaXdXaX] aXlXn x.& V V * pXaXaXaXaXaXaX9XpXaXaXuXjXc.VXaX9X9X7X'.pXaXaXaXaXaX& C C V z.6 3.M z B.B.o E.lX& 8X, P mX~./.yXyXyXyXtX/.`.oX@X+X%X:X6XrX6X7X:X%X$X@X$XHXoXtXtXtXtXtXtX",
"tXtXtXtXtXtXtXtXtXtXtXtXtXtX/./././././././././././.P.Y.~ # 6 6.B.Z.A.9.^ ( LXMXuXaXaXaXpXiX<.| } ] [ | } dXaXaXaXaXaXqXaXpXaXh aXjX2 pX0X0XqXaXaXaXaXaXaXaXl C D * x.X.q <.3.M o jXzX5.5.5.z * mX/./.yXyXyXyX/.(.`.oX@X$X%X:XrX6X6X7X7X%X$X@X+X%XhXtXtXtXtXtXtX",
"tXtXtXtXtXtXtXtXtXtXtXY.tX/././././././././././././.Y.Y.x.E E V.5.A.5.3 # # IXMXpXaXaXaXdXaX@ ].@ aXaXaXaXdXaXaXaXaXaXqXaXpXpX/ jXaXj '.0X0XqXaXaXaXaXaXaXaXaXV & dXc.x.z..   4 4.3.0 6.5.5.7.g mX~./.yXyXyXtX/.`.`.XX@X$X%XrX6X7X7X7X%X%X+X@X'.`.`.tXpXtXtXtXtX",
"tXtXtXtXtXtXtXtXuXuXuXuXtX/././././././././././././.Y.Y.Y.Y.Y.A.A.0 ,.4 5.>.w.. uXaXaXdXaXI.B.G C.* kXaXaXaXaXaXaXaXaXqXdXh ZXaXdXdXaXH.0X0XqXaXaXaXaXaXaXaXaX(.aXaXaXy.i.n w.z.z.6 3.<.q 0 > K MX/./.yXyXyXyXyX(.`.oXXX+X#XrX:X7X7XHX%X$X+XoXoX`.`.tXtXtXtXtXtX",
"tXtXtXtXtXtXtXtXuX/././././././././././././././././.Y.Y.Y.Y.c.q ^ _ u.. 1.1.m w.I.dXpXaXaX$ C.H A.f | aXaXaXaXaXaXaXaXqXvXaXaXaXdXdXaXf wX0X8XaXaXaXaXaXaXaXaXdXaXaXpX8 i.r.e.~ X.9 i 6 3.0 2 e 4 . T.tXyXyXyXyXtX`.'.oX@X+X#XHX%X%XGX$X+X@XoX`.@XtXtXtXtXtXtXtX",
"tXtXtXtXtXtXtXtXtX/././././././././././././././././././.Y.Y.E ! | E <.8 1.1.1.5.4 aXaXaXaXgXC.A.A.0 } dXaXaXaXaXaXaXs qXaXaXaXaXaXdXaXk KX0X8XaXaXaXaXaXaXaXaXaXdXaXpXN i.e.e.X.jXn b :.# >.# ,.3.4.p.`.tXtXyXtXtXpX`.'.oX@X+X$X$X$X+XxXoXoX'.`.`.tXtXtXtXtXtXtX",
"tXtXtXtXtXtXtXtX/././././././././././././././././././././.Y.U.U.O . 6 p.7 1.1.1.N aXaXaXaXaX@ A.A.* | aXdXaXaXaXaXjXzXqXaXdXaXaXaXaXaXB LX3X9XaXaXaXaXaXaXjXdXdXaXaXaX. r.e.4 | pX+ :.:./ q c 3.4.i.r.p./.tXyXyXyX(.`.`.oXoXXX@X@X@X@XoXoXoX`.`.tXpXtXtXtXtXtXtX",
"tXtXtXtXtXtXtXtX/./././././././././././././././././././.Y.Y.Y.$ r.i.M 3.R T 7 6.,.aXaXaXaXdXiXM.A.x.( aXdXaXaXaXaXT aXDXaXdXaXaXaXaXaXZ LX<XIXaXaXaXaXaXaXjXdXaXaXaXaXsXr.p.z.' aXX.N b [ DXc r e.4.4.e.7 tXtXyX/.tX(.`.`.oXoXXXoXoXoXoX`.pXpXtX(.tXtXtXtXtXtXtX",
"tXtXtXtXtXtXtX/./././././././././././.Y././././././././.Y.Y.U.p.r.m 4.,.g Q LX| _.aXdXaXaXaXaXaX& X.dXaXaXaXaXpX( j aXxXaXaXaXaXaXaXaXXXLX<XPXE jXaXaXaXaXdXaXaXaXdXaXaX..g | aXaXjX| $ ( JX$ n '.O O ` [ /.yXyXtX/.(./.`.`.`.`.oX'.`.`.pXtXpXtXtX/.pXtXtXtXtXtX",
"tXtXtXtXtXtX/./././././././././././././././././././././.Y.Y.I.e.M e.4.x 5 ( HXiXaXaXaXaXdXdXaXaXdX/.aXaXaXaXaXaX] aXdXjXdXaXaXaXaXdXdX'.LX0XOX3X` T aXaXaXaXaXdXaXdXaXaXaXjXx.aXaXaXaXhX( JXe n ~ ] ] ] pXtXtXtXtXyXyXtX/.(.(.`.`.`.`.`.+XpXtXtXtXtXuXpXtXtXtXtX",
"tXtXtX/././././././././././././././././././././././././.Y.Y.e r.i.e.4.V 4.$ HXaXdXaXaXaXaXdXaXaXdXaXaXaXaXaXaXaXE aXaX$XdXaXaXaXaXdXdX'.PX0XpX#X3X^ aXaXaXaXaXaXaXdXaXaXaXaXaXaXaXaXaX] ( LXe c o ] ] ] ( tXtXtXtXyX/.yXtX/././.`.(.(.(.tXtXtXtXtXtXtXtXtXpXtXtX",
"/./././././././././././././././././././././././././././.Y.Y.. 4.4.r.m C z u.HXpXaXaXdXaXaXaXaXaXaXaXdXaXaXaXaXdXl aXaXJXaXdXaXlX&.. aX'.PX0XaXaXqXJ aXaXaXhXaXaXaXaXaXaXaXaXaXaXaXdX} ] ' KX2 w O ] ] ] } tX/./.(.(.yXyXyXtXtXyX/./././././.tXtXtXtXtXtXtXtXtXtX",
"E E E ^ ^ ^ ^ ^ ^ ^ ^ ^ ^ ^ ^ E ^ ^ ^ ^ ^ ^ ^ ^ ^ ^ ^ ^ ^ ^ o p.o V F C V 6 <.$ e ' [ ' ( ( E.aXaXjXjXjXjXdX^ j E fXaXHXgXy.&.;.-.-.3 # 9 f K.K.q PX^ zXjXjXjXjXkXT.( ( ' ' ' ] ' [ [ o.2 rX, + 6 2 2 d } R R ] ] K o.o.| } | P./.(./.(.pXtX/././.pXpXtXpXv.E E ",
"] ^ E E E E ^ ^ E ^ ^ E ^ [ ] ] [ [ [ [ [ [ [ [ [ ^ ^ _ ^ ^ ~ ^ ~ C F C & f 8 8 N u.7 } [ } } [ { | | X...l q.q.3 &.q.q.-.-.-.-.-.-.-.;.-.-.q.q.-.-.3 3 O * [ g 6 7 l { X.{ { [ [ [ | { 2 rX, , 6 7 7 7 * ] ] ] ] ] ] ] ] [ ] ] [ [ ] } ] [ ] [ [ } } } } } { } ",
": : - > : > > > : < : : : > > : : : > : < > : > > > > > < : 2 : ; D F V 2X>XIX<.6 k.9 O : 2 - : > d 4 0.=.&.-.-.-.-.-.-.*.-.q.-.-.+.*.@.+.q.-.-.-.-.-.-.y x c y -.%.$.$.,.c 6 * < < : 2 2 rX2 2 2 ; 7 7 # : : > : > > : : > : : > : > : : - : : : : : > > > > : ",
"P W : < 2 < < 2 2 2 2 d Q P P L P P P W W Q Q W W W T Q W T P T W & D l.}. X X.Xu.#X|.) G.DXqXrXwXZ 0.0.0.0.#.#.#.&.-.+.$.+.+.+.+.$.$.+.$.$.$.y $.$.v x z x x x y n i z z z z 7 P K K K K rXL K P K L P P W P P P W T T P T P P P P P P P P P ~ < P W W W W W W ",
"ZXBXvX2 2 @ < < 2 2 2 SXBXZXZXBXmXBXAXMXhX/.T.~.E.E.E.E.Y.!.pXcXmXlXL.x.bXvXAXx.r N 0.mXbXMXmXnXKXA 2 kXMXmX$ $ 9 y i x %.$.+.+.f.+.+.+.p z x c z z x c 9 c c x c c 0 0 @ O $ mXBXBXmXmXmXKXZXBXmXBXBXBXBXBXZXBXBXBXZXZXZXZXBXBXBXBXBXBXBXBXBXs AXmXBXBXBXBXBXBX",
"dXjXjXE E @ @ @ @ : FXAXT./././././././.yX/././././././././.E././.~.x./.~.~.P.] w.u.s.~ ~.~.~.~.LXj : zX~.~.~.T...c x x x y f.y -.;.@.y z x $ vXbXe q S.* }.lXw 0 ,X,XAXLXZXcXpXpXpXaXaXaX%XsXaXaXaXaXjXdXdXaXjXcXBXBXBXZXBXBXbXzXbXzXjXaXsXjXs dXaXjXjXdXdXdXdX",
"jXjXjXaXpXU @ m @ h BXvXyX/./././././././././././././././././././././.~.~.T.c.] ,.e.e.$ ~.~.T.T.GXs bXE.~.~.T.T.T.FXY.l x x x z $.q.y x z c lXdXdXdXpXS.Z E aXxX>X>X.XpXJXdXaXaXaXaXaXdXaX%XsXaXaXaXaXjXjXjXdXdXjXdXjXjXjXjXjXdXdXdXjXjXjXjXzXlXjXjXjXaXdXdXdXdX",
"jXjXdXjXzXT ( c m P BX/././././.yX/././.yX/./././././.!./././././././.~.T.~.~.] ..r.e./ ~.~.T.T.OXs tXT.~.~.~.T.T./.T.E.c x c x >.$.z c bXaXjXdXdXaXaXS.|.E jXhX>XPXXXpXJXdXaXaXaXaXdXdXdX%X'.aXaXaXaXjXjXjXjXjXjXjXjXjXjXjXdXjXjXjXjXjXjXjXl aXjXjXjXjXjXdXdXdX",
"dXjXdXaXdXBXc c m L BX/./.yXyX/./.yX/./.yX/././././././././.!././.~././.T.T.~.T.} A r./././.~.T.S.g T.~.~.~.~./.T.!.T.~.~.T./.O z x z w MXdXpXxXpXaXaX,X}.U pXaX,XPXXX`.DXaXzXdXaXaXaXaXaX$XoXaXaXaXaXjXjXjXjXjXjXdXjXdXjXjXjXjXjXjXjXjXaXjXh aXdXjXjXjXdXdXdXdX",
"dXjXdXdXjXdXc m c K O ~./.U./././.yX/.yX/./././.`.'.'.`.`.`././././.'.wX/.~././.T.} g /./.UXT.~.D.j ~.~.~.~.~.~.T./.~.~.~.~././ c z x . kXjXc.4XpXaXaX X Xj A pX<X<XoXsX%XjXh aXaXaXaXaXaX+X'.aXaXaXdXjXjXjXjXjXjXjXjXdXjXjXjXjXjXjXjXjXdXaXj dXjXjXjXjXjXdXdXdX",
"dXdXdXdXdXdXc c @ . b p.r./././.~./.yX/././.`.`.'.XXXXXX'.`.`.(./././.'./.T.~.~.~.T.~.~./.IX~./.S.j ~.~.~.~.~.~./.T.~.~.~.~.~.Q ~ x x 7 dXaXjX..aXaXhX1X XU U hX<XeXhXsX+Xx.aXaXaXdXaXaXaX'.sXaXaXaXdXjXjXjXjXjXjXjXjXjXjXjXjXjXaXjXaXjXzXs FXjXaXdXdXdXdXdXdXdX",
"jXdXaXaXdXjXc . n 3.e.:.i.u.) /./././.'.'.`.`.oX@XCX+X@X@XXXoX`./././.~.~.~.T.~.~.~.~.~.~.~.~./.D.^ ~.~.~.~.~.~.XX!.~.~.~.~.~.Q l x x c dXaXdXaXaXaXhX2X2XE U sX5X5XhXsXXXaXaXdXaXaXaXaXaXpXaXaXaXaXjXjXjXjXaXjXjXjXjXjXjXjXjXdXjXdXjXpXdXjXdXdXdXdXdXjXjXdXdXdX",
"dXdXaXdXaXjXc @ 4.p.e.e.r.e.r.q /.~.~././.'.oX@XDXDX$X$X+X@XXXoX`././.~.~.~.~.~.T.~.~.~.~.~.~.T. Xl ~.~.~.~./.~.XXDX~.~.~.~.~.( ] c x 7 aXaXaXaXaXaXaX3X2Xs K hX5X5XhXaXXXaXaXaXaXaXaXaXaXaXaXaXaXdXjXjXjXdXdXjXjXdXjXjXjXjXjXaXjXaXjXj jXjXjXdXdXdXjXaXdXdXdXdX",
"dXdXaXdXdXaX@ i 4.4 e.e.e.e.r.Y./.~././.`.XX@X+XGXHX%X%XHX#X+XXX`././.~.~.~.!.~.T.~.T.T.~.~.~.Y. Xh ~.~.~.~.~./.` ^ ~.~.~.~.~.O.( c c MXjXaXaXdXaXaXaX3X3Xl R jX5X5XhXsXXXaXaXaXaXaXaXaXaXaXaX$XsXaXdXjXjXjXjXjXjXjXjXdXjXaXdXdXaXdXaXvXdXjXaXdXdXdXdXdXdXdXdXdX",
"dXdXdXdXdXdX@ 4 3.Y O . 7 e.i.  /.~./.(.'.XX+X$XGXKXrX:X8X%X+XXX'.(././.~.~.~./.~.~.T.~.~.!.~.E.4XK ~.~.~.~.~.~.~.~.~.~.~.~.~.~.^ c c mXaXaXaXaXaXaXaX3X3XP.s hX5X5XhXpX'.dXaXaXaXaXaXaXaXjXaX%X!.aXdXdXjXjXjXjXaXjXjXdXdXdXdXaXjXaX/.jXjXjXjXjXdXdXdXdXdXdXdXdX",
"dXdXdXn c aX@ i 3.,.E Y l Y Y 7 ~./././.'.XX+X%X7X6X7XKX7X%X$X@X'.(./.~.~.T./.~.~.~.~.T.~.~.~.Y.B .X/.~.~.~.~.~.~.T.~.~.~.~.~.~.^ ; J mXjXaXaXdXaXaXaX3X3XaXBX^.,X5XpXpX'.aXaXaXaXaXaXaXaXlXaX| aXaXjXjXjXjXjXjXdXjXjXdXdXdXdXaXjXaXjXdXjXjXjXdXjXdXdXdXdXdXdXdX",
"dXdXn b v :.i :.7 3.A Y Y Y Y Y ~./././.oXXX+X%X7X0X7X7XHX%X$X@X'.`./.~.T.~.T.~.~./.~.~.~.~./.h 4X9X~.~.~.~.~.~.~.~.~.~.T././.k ^ = KXmXkXaXaXaXaXaXaX3X3XaXaXmXF.,XpXaXaXaXaXaXaXaXaXaXaXxXaXaXaXaXjXjXjXjXjXjXaXjXjXdXdXaXaXdXdXaXdXdXjXdXdXdXdXdXdXdXdXdXdXdX",
"dXo :.:.:.:.:.| - D BXY Y Y Y Y /./././.'.XX+X%X7X6XKXHX:X8X$X@X'.'.XXoX/.~.~.T.~.~.~.~.~./.s 9XQ.eXGX/.~.~.~.~.~.~.~.~.  n b v n ; o bXlXaXaXdXaXaXaX3X4XaXaXdX0X3XhXaXaXaXaXaXaXaXdXaXaXCXaXaXaXaXjXjXjXjXjXjXdXjXjXdXdXdXdXdXdXdXdXdXdXdXdXdXdXaXdXdXdXdXdXdX",
"| | | :.n :.n | - K BX/.~././.Y /./././.'.XX+X$X%X7X7X4XDXJX@XXX'.oXHX$X/.~.~.~.~.~.~.~./.J.4X~.~.1XE.~.~.~.~.~.~.~.~.T.O v b b :.8 c bXzXdXaXaXaXaXaX6X4XaXaXaXqXeXA aXaXaXaXaXaXaXaXaXaXIXaXaXaXaXjXjXjXjXdXjXjXjXdXaXdXdXdXdXdXjXdXdXaXjXaXdXdXdXdXjXdXdXdXdX",
"dXdX| | [ ~ 0 # - K BX/././././././././.`.'.XX+XDX%X%X%X$XGXXXXX`.'.%X@X~.~.!.~.~.~./.~.J Q.~.~.~.|.~.~.~.~.~.~.~.~.~./.^ * n b b n c bXzXpXaXaXaXaXaX6X4XaXaXaX8X0Xl aXlXaXaXaXaXaXaXaXaXxXaXaXaXaXjXdXjXjXjXdXjXjXdXdXdXdXdXdXdXaXdXdXdXjXjXdXdXaXjXdXdXdXdXdX",
"dXdXaXdXjX. m S f K BX/./.~.~.~./.~././.`.'.XXXX@X+X$X+X+XGXoX`.(./.`.(././.~.~.~.~.~./.4X~.~.~.T..X~.~.T.~.T.T.T./.~./.c.] ] ~ 6 c D bXaXaXaXaXaXaXdX6X4XaXaXaX6XeXl aXaXaXaXaXaXdXaXaXaXsXaXdXaXdXjXjXjXjXaXjXjXjXjXjXjXjXaXdXdXjXdXaXdXdXdXdXdXdXjXjXdXdXdXdX",
"w w w dX@ . m A.n.0 AX/./././././././.`.DXXX`.XXXX@X@X@XoXoX`./././.~././.~.~.~.~.~.~.c.2X~.~.~./.Q.~.~.~.T.o V.C.C.6./.T.T.T.. z * eXjXaXaXaXdXaXaXdX0X4XaXaXaX7XqXA aXaXaXaXaXaXdXaXaXaXsXaXaXaXaXdXjXjXdXaXjXdXdXjXjXjXdXaXdXdXdXjXdXdXdXdXdXdXjXdXjXdXdXdXdX",
"C.C.].3.r i w A.G V.vX/././.~.~././.~.'.HXXX`.`.`.'.'.'.'.`.`./././././././.~.~.~.~.~.Z ^.~.~.~.~.Q.~.~.T.@ B.C.G S S ]./.T.4 c m Z 3X( Q aXaXdXaXaXaX0X7XaXaXaX8XqXA aXaXaXaXaXaXdXaXdXaXaXaXaXaXaXaXaXdXaXdXjXdXjXdXdXdXaXdXaXjXdXdXdXdXdXdXdXdXaXdXdXdXdXdXn.",
"m.m.m.@ @ c 5.C.M.K pX/.~././././.~././.`.`././.`.`.`.`.`./././././././.~.~.~.~.~.~.~.PX/.~.~.~.!.Q.~.T.T.T.* V.C.C.C.H o 8 i 0 C.5.0 ^ Q dXaXdXdXaXaXwX8XaXaXaXqX0XaXhXcXT aXaXaXaXdXaXaXaX'.aXaXaXdXdXaXdXdXjXdXdXdXjXdXjXjXjXdXaXdXdXdXdXdXdXdXjXjXdXdXn.n.C.",
"C.C.M 5 i aX` 0 B.B.T.yX/././.~.~././././././././././././.(././././././././.~.~.T.~.!.$XT.~.~.~.^.Q.T.~.T.o.] ] 7 B.C.z 5 y c M A.S V.Q ( kXdXaXaXaXaXwX8XpXdXaXqX0XaXaXsXaXaXlXaXaXdXaXaXpXsXaXaXdXdXdXdXjXjXjXdXdXdXdXdXaXjXdXdXdXdXdXdXdXdXjXdXdXdXdXdXq V.C.",
"w _ ) u.7 } } ~ m K E././././.~./.~././././././././.!././././././.~.~././.~.~.T.~.~.E.$X^.~.~.~.Q._.O O y.~.T.o.[ ^ ) 0.i N ] @ B.m.M ( ( ( aXaXaXaXaXwXqXaXaXaXqXwXaXsX'.aXaXs aXaXdXaXaXaX'.aXaXdXdXdXaXjXjXjXdXdXdXdXjXdXdXdXaXaXdXdXjXdXdXdXdXdXdXdXdXdX6.6.",
"@ # 3.n A.0 } E - > ~./.~.~././././.~./././././.~././.~././././.~.~./././.~.T.~.T.T.pX3X'.~.~./.6 n v b b O /./.T.# 3.x . [ ] ~ B.B.0 ' ( Q aXaXaXdXaXDX0XaXaXdXqX0XpXsX@XaXaXzXjXaXaXaXaXaX`.aXaXdXdXdXdXjXdXjXdXdXdXaXdXaXaXaXaXaXjXdXdXaXaXaXdXdXaX[ | q o 2.",
"# >.M B.G C.# - 2 2 ' /././././.~.~./.~././././././././././././.~.~././.~.~.~.~.~.Y.U OX%X~.~._.N b b b b n T.T.6 4.M S 9.@ E.^ 6.@ 6X2 Q ( ( jXdXdXpX8X0XaXaXaX0X0XaXsX+XaXaXaXaXaXdXaXaXjXpXaXsXaXaXjXjXdXaXaXjXdXjXjXhXE.O.] [ | [ [ [ [ | | | X.X.| | o M z ",
"4 n + H C.S C.7 2 2 K ] E./././././././.(./.!.Y.O.] ^ ] ] ] x.!././././.(./.~.~.O.] ' |.8X~./././.+ b b b n :.,.n O B.B.S C.O ] g 2 PX, , 2 2 d [ ( ' 8X0X[ | [ 6X7X[ ` DX[ } [ ` ~ | X...c.| } ` | | | | X.X.| | | | | | | | | | | | | | | | | | | | | | . m `.",
":.r ~ H C.5.C.$ 2 2 2 ( ] ] ] [ [ } } [ [ } } } ] [ ] ] } [ [ [ ] ] [ } [ ] ] * E ] _ |.$Xs s ^ _  .t.6 + n b w ` l C.C.S C.o ( ( 2 rX> 2 2 2 - [ [ | 8X0X` [ ' 8X9 3 9 t.[ $ 3 q.-.5 I [ H.z. ...O # ) | X.X.| | | | | | | X.| | | | | | | | | | w w 6.# ,.b :.",
"r 2 2 z C.C.V.K 2 2 2 2 < 2 2 2 2 2 < < < 2 < < < < < < < 2 < < 2 < 2 < < 2 2 > 4XB k.2XS.f # c N n n n v >.i.= - - w C.5.C.O - < 2 PXa > d f 7XOXV k 0X+ 7 $ 0.q.-.-.-.-.-.-.-.-.-.-.#.<.&.<.0.*.#.#.&.c v u 2 2 2 < 2 2 2 2 2 < < < 2 2 2 2 @ 0 B.m.m.Z.4.n v ",
"= P P L ] 0 7 @ W P P P W W P W / W P P P d , L P P P P W W P P P P K - 2 < a PX$X3X2X2X2XOX..* # * l O 4.M 4.. L K h z C.V.K K K B 8XIX0XPX9X9X9X0X0XHX&.&.$.q.-.q.q.-.t -.;.;.f.-.-.@.#.&.&.#.3.&.3.x x v i P P P K K P P P P P L P T W W @ A.A.A.B.B.6 + ,.i.",
"4.. mXBXpXpXpXpXmXmXBXmXBXvXcXcXcXbXBXBXBXvX- vXBXAXBXZXmXBXBXBXZX| E E < : <XnXnXnXbXnXnXnXbXmXmXbXnX4 i.4.4.. pXbXMXY.+ @ AXmXmXbXnX8XIX9XMXbXbXbXbXvXbX7 t t 5 t +.q.-.@.@.@.@.+.@.@.@.@.&.@.x x x v u O o bXbXbXnXbXbXbXbXbXbXbXnXbXnXbXnX@ w V.6.@ m b r.M ",
"4.Y Y x.x.Y Y E x.x.x.x.c.x.x.c.c.c.c.c.c.Y.X.MXU.T FXc.c.c.c.c.c.x._ E E s ,XbXnXY.U.U.Y.U.U.Y.U.U.U.0.4.4.p.Y Y.U.U.' E U U.U.Y.U.J.PXJ.J.v.Y.K.Y.Y.U.U.Y.T.I.6X~ 4 +.@.@.@.@.@.@.@.@.#.&.@.r x . nXg x.c.c.c.c.c.X.x.x.c.c.c.c.c.c.c.c.c.c.O.E U E ~ m u.<.4.",
"p.Y Y x.x.x.x.x.x.c.c.c.c.c.c.c.c.c.c.c.c.U.U.ZXU.j VXY.c.c.c.c.c.c.E E ^ A 2XbXmXY.U.U.U.Y.U.Y.Y.Y.Y.u.4.p.k E U.U.U.U.E U.U.U.U.K.OX3XJ.L.Y.U.U.U.U.U.U.U.U.Y.<XJ.K.&.+.@.r $.@.@.f.i f.r y x x ..cXc.c.c.c.c.c.c.c.c.c.c.c.c.c.c.c.c.c.c.c.x.x.x.x.7 u.@ <.4.",
"k Y Y x.c.c.c.c.c.c.c.c.c.c.c.P.c.c.c.c.c.U.U.vXY.Y.Y.Y.c.c.K.K.c.c.c.^ ^ A 3XnXU.U.U.Y.U.Y.U.Y.Y.U.Y.c $ E E Y.U.Y.U.U.U.U.Y.U.U.Y.D.>XJ.L.K.U.U.U.U.U.IXY.Y.Y.>XJ.Y.Y.4 r x x x v f.r #.x x x n cXc.c.c.c.c.c.c.c.c.c.c.c.c.c.c.c.c.c.c.x.I @ e O.x.r u.@ <.p.",
"Y Y x.x.c.c.c.c.K.K.c.c.c.c.K.P.c.c.c.c.U.U.U.s c.Y.Y.Y.Y.Y.K.K.c.c.c.E ^ A 3XbXK.U.U.Y.U.U.Y.U.U.U.U.Y.E O.Y.U.Y.U.Y.U.U.U.U.U.Y.Y. X>XJ.L.U.U.U.U.Y.Y.U.U.Y.U.S.J.Y.Y.X 6 . O 6 x x x r r x x bXc.c.c.c.c.c.c.c.c.c.c.c.c.c.c.c.c.c.c.O.c b b b n 7 3.g Y 2.* ",
"Y x.c.c.c.c.P.c.K.c.c.c.c.c.c.c.c.c.c.c.U.U.U.U.FXY.Y.Y.Y.Y.K.K.Y.P.P.E E A 2XbXv.U.U.U.U.U.U.Y.U.U.U.U.Y.U.U.U.U.U.U.U.U.U.U.Y.Y.U.|.>XH.L.U.U.Y.U.U.U.c.Y.Y.Y.D.|.Y.P.U.Y.Y.E.4 x x y #.#.x v bXc.c.c.c.c.c.c.c.c.c.c.c.c.c.c.c.c.c.c.n b b b u.v 3.7 E l 4.4 ",
"( c.c.c.c.c.P.P.c.c.c.c.c.c.c.c.c.c.c.c.U.U.U.Y.AXY.U.Y.Y.Y.Y.Y.Y.Y.P.E E l 2XbXU.U.U.U.Y.U.Y.U.Y.U.U.U.U.K.U.U.U.U.U.U.U.U.Y.U.Y.U.J.>XH.L.U.U.U.Y.U.U.CXL.U.U.D.|.Y.Y.U.U.U.Y.* y x y #.#.x 9 cXc.c.c.c.c.c.c.c.c.c.c.c.c.c.c.c.c.c.... y y * U u.p l Y E 9 Y ",
"c.c.c.c.c.c.c.P.c.c.c.c.c.c.c.c.c.c.c.U.U.U.U.Y.O.Y.Y.U.Y.U.U.Y.Y.Y.U.E E A 2XbXY.U.U.Y.U.U.U.Y.U.U.U.U.U.U.U.K.U.U.U.U.U.U.U.U.K.U.J.,XH.L.U.U.U.U.U.Y.4XXXY.Y.D.J.Y.Y.Y.U.U.U.U.K.g x #.,.x   vXc.c.c.c.c.c.c.c.c.c.c.c.c.c.c.c.c.c.R R E Y Y Y U b 7 Y Y R E ",
"c.c.c.c.c.c.c.c.c.c.c.c.c.c.c.Y.Y.c.Y.U.U.U.Y.U.U.Y.Y.U.U.Y.U.K.Y.U.U.E E A 2XMXE.U.U.U.Y.U.Y.Y.U.U.Y.K.U.U.U.U.U.K.U.U.U.U.U.U.U.Y.J.<XH.L.Y.U.U.U.Y.Y.^ U.Y.U. XJ.P.U.U.U.U.Y.Y.Y.y.x y x M 9 lXc.c.c.c.c.c.c.c.c.c.c.c.c.c.c.c.c.c.Y T Y c.M Y u b b g Y ^ ] ",
"c.c.K.c.c.c.c.c.K.K.c.c.c.c.Y.Y.Y.Y.Y.Y.Y.K.Y.Y.U.Y.Y.Y.Y.Y.Y.Y.Y.Y.Y.] ^ Y 3XbXY.Y.U.Y.Y.Y.Y.Y.Y.Y.Y.Y.K.K.Y.Y.U.Y.U.Y.U.U.Y.U.U.U.J.2XL.L.U.U.U.U.U.U.U.P.P.Y. XH.Y.Y.U.Y.Y.Y.U.Y.R.c x v N N pXc.c.c.c.c.c.c.c.c.c.c.c.c.c.c.c.c.c.c.c.@ @ G C.y b b # Y x.c.",
"c.c.c.c.c.c.c.c.c.K.c.c.c.c.Y.Y.Y.Y.Y.Y.U.U.U.U.Y.Y.Y.Y.Y.Y.Y.Y.Y.Y.Y.x.^ Y UXMXL.Y.K.U.L.K.U.U.Y.Y.Y.Y.Y.Y.Y.Y.Y.Y.Y.Y.Y.U.Y.U.U.U.J.3XL.L.U.U.U.U.U.U.U.U.Y.U.2XL.P.Y.P.U.U.U.U.Y.Y.~ 6 x J k hXc.c.c.c.c.c.c.c.c.c.c.c.c.c.c.c.c.c.c.c.z B.C.C.y y b * ^ c.c.",
"c.c.c.P.c.c.c.c.c.c.c.Y.Y.Y.K.P.P.Y.Y.Y.U.U.U.U.R.Y.R.Y.T.W.T.T.R.^.^.L.` ^ 9XbXK.I.K.K.W.R.Y.Y.O.Y.I.I.I.P.#XY.Y.Y.P.R.P.Y.U.K.U.Y.J.3XH.L.U.U.U.U.U.Y.U.U.Y.U.2XQ.Y.L.L.U.U.U.U.Y.Y.E   y N ~ jXc.c.c.c.c.c.c.c.c.c.c.c.c.c.c.c.c.c.c.c.c C.S C.U U y Y c.c.c.",
"c.c.c.c.P.P.c.c.Y.Y.Y.Y.Y.Y.K.Y.U.U.Y.U.U.U.E.Y.Y.R.T.R.T.R.R.T.R.T.T.X.` ~ f bXL.I.I.I.I.I.R.7 k Y.Y.R.R.R.I.T.Y.I.R.R.Y.R.Y.U.U.U.#X6XL.I.U.U.U.U.U.U.Y.U.U.Y.3XL.Y.Q..XU.U.U.U.U.U.U g y N ~ jXc.c.c.c.c.c.c.c.c.c.c.c.c.c.c.c.c.c.c.c.] V.B.V.q R R ^ c.c.c.",
"c.c.c.c.c.c.c.c.P.P.K.K.Y.Y.Y.Y.U.U.Y.Y.U.U.Y.E.R.R.R.~ ^.R.R.^.^.^.R.` ` ~ 0 o hXI.I.I.R.R.O N I.I.I.I.R.R.^.R.R.I.I.I.R.Y.Y.Y.Y.U.IX6XU.U.U.U.U.U.Y.Y.Y.U.Y.U.3XI.Y.L.$XY.U.U.U.U.Y.U o i N / hXc.c.c.c.c.c.c.c.c.c.c.c.c.c.c.c.c.c.c.c.[ k M.[ ] Y c.c.c.c.c.",
"c.c.c.c.c.Y.Y.Y.K.K.K.Y.Y.Y.Y.Y.U.U.U.U.Y.Y.R.I.R.R.'.h.R.^.R.R.^.R.^. . .` OXh.lX^.I.^._.o h.L.I.I.R.^.R.^.^.W.I.R.I.I.R.R.R.Y.R.Y.IX6XY.U.Y.Y.U.Y.Y.Y.Y.Y.Y.Y.3XI.U.L.IXU.U.U.U.U.U.E K 8 h o.jXc.c.c.c.c.c.c.c.c.c.c.c.c.c.c.c.c.c.c.c.c.[ A ~ [ c.c.c.c.c.c.",
"c.c.c.P.Y.Y.Y.Y.Y.Y.Y.Y.Y.Y.Y.Y.Y.U.U.U.Y.Y.R.H.I.^.R.6 I.# _._.^._._. . .A 7Xu 4 _._._.).h.p._.)._.^.:X_._._._.I.R.I.I.R.R.R.I.R.Y.PX6XY.U.U.Y.U.U.U.U.U.U.Y.Y.3XL.U.U.U.U.U.Y.U.U.Y.E ^ - K { lXc.c.c.c.c.c.c.c.c.c.c.c.c.c.c.c.c.c.c.c.c.| | c.c.c.c.c.c.c.c.",
"c.c.c.Y.Y.Y.Y.Y.Y.Y.Y.Y.Y.Y.Y.Y.Y.Y.Y.T.R.R.R.R.R.R.7 o 7 h._.q k )._.G. .` 9X@ -X'.).).O g.. ).).).W.wX)._._._.^.^.R.^.R.R.I.R.R.R.PX0XY.Y.U.U.U.Y.U.U.U.U.U.U.9XL.U.K.K.U.U.U.U.U.Y.E E - h { lXc.c.c.c.c.c.c.c.c.c.c.c.c.c.c.c.c.c.c.c.c.c.c.c.c.c.c.c.c.c.c.",
"Y.Y.Y.Y.Y.Y.Y.Y.Y.Y.Y.Y.U.U.U.Y.Y.Y.R.R.R.R.R.^.^.^.O h.5 # _._.g.4 '.G.t. .qXnX-Xq [.).h.g.).).).).).).).).).)._._.I.R.I.I.R.R.R.E.8X0XI.H.U.U.U.U.Y.U.Y.U.Y.U.9XL.Y.Y.U.U.U.U.U.U.Y.E E - < / vXc.c.c.c.c.c.c.c.c.c.c.c.c.c.c.c.c.c.c.c.c.c.c.c.c.c.c.c.c.c.Y.",
"Y.Y.Y.Y.Y.Y.Y.Y.Y.Y.Y.U.U.U.U.Y.Y.R.R.R.R.^.I.R.^._.^._.7 @ ).'.7 -X6 G.G.8 DXnX9.r [.6 g.w ).[.[.[.[.[.[.).).4 -X_._._.R.I.R.R.R.E.qX6XK.P.K.U.U.U.U.U.U.U.U.Y.6XH.H.Q.Y.U.U.U.U.U.U.T E - - ' bXc.c.c.c.c.c.c.c.c.c.c.c.c.c.c.c.c.c.c.c.c.c.c.c.c.c.c.c.c.c.Y.",
"Y.Y.Y.Y.Y.Y.Y.Y.P.P.P.U.U.U.U.Y.E.R.T.R.R.R.^.^.W._._.'.@X6.B.{.{.8.g.f f -XqXnXz -X#X-X9.7 [.#X[.[.[.7 -X0 N g.7 ).).).I.R.R.R._.Y.HX0XU.P.U.U.U.U.U.U.U.U.U.U.6X.XY.U.Y.U.U.U.U.U.Y.E E - , / bXc.c.c.c.c.c.c.c.c.c.c.c.c.c.c.c.c.c.c.c.c.c.c.c.c.c.c.c.c.Y.Y.",
"Y.Y.Y.Y.Y.Y.Y.Y.K.P.U.U.U.U.Y.E.T.T.R.^.^.^.I.I.).).).@XW.6.w {.).M 8.n 6 9.7XnX@ ;X$Xg.C.+X5 7 [.[.#X[.N A.M @ [.).).).# I.L.J J T.KX0XK.I.U.U.U.U.U.U.Y.U.U.Y.0X.XU.U.U.U.U.U.Y.U.Y.E E - 2 / bXc.c.c.c.c.c.c.c.c.c.c.c.c.c.c.c.c.c.c.c.c.c.c.c.c.c.c.c.Y.Y.U.",
"K.K.Y.Y.Y.Y.Y.Y.Y.Y.U.U.U.U.Y.T.R.T.k q ^.I._._.W.0 J 0 G.0 0 ).{.7 &X;X8 7.@ 0 + *X. 8.B.p.9.#X#Xf #X[.[.w o [.[.[.).& m.0 5.m.X Y.KX0XP.U.K.U.Y.U.Y.Y.Y.Y.U.Y.0XOXU.U.Y.Y.Y.U.U.O.E E E - 2 / bXc.c.c.c.c.c.c.c.c.c.c.c.c.c.c.c.c.c.c.c.c.c.c.c.c.c.c.c.Y.Y.Y.",
"Y.K.Y.Y.Y.Y.Y.Y.Y.Y.Y.Y.Y.Y.R.Y.T.T.T.M @ & A _.'.0 7.N.0 J 7 N.w *X&X&Xi 7.8.&X+ &X5 N.4 8.7 7 7 9.V.y [.@ t.q G.[.[.).{.M.& I.R.R.rX0X~ g U.U.Y.Y.Y.Y.Y.U.Y.Y.6XOXU.Y.U.U.U.U.' E E E E - 2 / bXc.c.c.c.c.c.c.c.c.c.c.c.c.c.c.c.c.c.c.c.c.c.c.c.c.c.K.c.K.c.Y.",
"Y.Y.Y.Y.Y.Y.Y.Y.Y.U.Y.Y.Y.E.E./.....L.g 5.q z '.'.).@ N.N.5.0 N.w &X8.&XN.8.&X&X5.8.8.*X=X&XN.N.=X8.7.8.7 7 W.C.0 [.[.[.).6._._.I.^.KX0XI.J c.O.o.[ ' ' ( ( ( ( 6XG.( O.x.( E E E E E E , , 2 K nXE E E c.c.c.c.c.c.c.c.c.c.c.c.c.c.K.U.K.K.c.c.c.K.K.x.c.c.c.Y.",
"E E ^ E ^ ^ ^ E E E ^ E E ^ E _ ` f j.k 6.0 m.l.0 w 7.7.7.7.B.8.8.N.;X&X&X&X&X;X8.8.&X&X&X8.;XN.&XN.N.7.N.7.6.N.t.B.N.0 o m  . . .f KX6X^ 5.~ % E E ^ E E E E E 6XOXE ^ ^ ^ E ^ E E E - , < < 2 > ^ E E E E ^ E E ^ ^ _ E ^ ^ ^ ^ ^ ^ ^ ^ ^ ^ ^ ^ ^ ^ ^ ^ ^ ^ ^ ",
"E E E E ^ ^ ^ ^ E E ^ ^ ^ ^ ^ ^ @ & H n.0 n.5.m 5.7.7.1.7.*X;XN.7.N.8.8.&X5.C.a.8.;XN.N.8.;X8.G G 5.a.7.N.N.a.N.C.5.G m H @ D @ m.f f qX* 5.6.0 ^ E E E E E ^ ( 6X6XE E E E E ^ E ^ Q , 2 2 2 2 2 ^ ^ ^ E E ^ E ^ E E ^ ^ ^ ^ ^ ^ ^ ^ ^ ^ ^ ^ ^ ^ ( E ^ ^ E ^ ^ "
};
