/* XPM */
static char *b6ef099b3ef4475f845ba8a3f4bc9851IFf92WbZZe2CxkZj[] = {
/* columns rows colors chars-per-pixel */
"128 128 256 2 ",
"   c #081E1E",
".  c #0E221D",
"X  c #02391A",
"o  c #082925",
"O  c #162726",
"+  c #083827",
"@  c #053B2A",
"#  c #12372A",
"$  c #043B37",
"%  c #153C35",
"&  c #26302B",
"*  c #2C3737",
"=  c #2D363A",
"-  c #323636",
";  c #373B37",
":  c #32363A",
">  c #34393B",
",  c #024719",
"<  c #05521A",
"1  c #044628",
"2  c #055828",
"3  c #064836",
"4  c #16473A",
"5  c #045638",
"6  c #135231",
"7  c #30443C",
"8  c #116926",
"9  c #086639",
"0  c #116D34",
"q  c #0B773C",
"w  c #44463D",
"e  c #2D3C44",
"r  c #095947",
"t  c #0F544E",
"y  c #155648",
"u  c #284847",
"i  c #354546",
"p  c #2B524D",
"a  c #364A55",
"s  c #2C5454",
"d  c #335454",
"f  c #3A565C",
"g  c #086947",
"h  c #146948",
"j  c #0B7545",
"k  c #117C44",
"l  c #177548",
"z  c #066758",
"x  c #126B59",
"c  c #177856",
"v  c #2B6F55",
"b  c #175E70",
"n  c #355B63",
"m  c #0D706C",
"M  c #0D6676",
"N  c #146575",
"B  c #396667",
"V  c #2F706F",
"C  c #484B45",
"Z  c #4B514F",
"A  c #485559",
"S  c #4D5A5D",
"D  c #525B5A",
"F  c #615F50",
"G  c #52655A",
"H  c #68695A",
"J  c #6E715E",
"K  c #465765",
"L  c #465966",
"P  c #4B5A64",
"I  c #455B6A",
"U  c #4B5D6B",
"Y  c #525E63",
"T  c #4C5F72",
"R  c #4D616E",
"E  c #486869",
"W  c #54636B",
"Q  c #4F746D",
"!  c #4D6372",
"~  c #496A76",
"^  c #536674",
"/  c #556976",
"(  c #5A6C76",
")  c #516779",
"_  c #566B79",
"`  c #5B6D7B",
"'  c #487476",
"]  c #56757B",
"[  c #5C717C",
"{  c #6A7268",
"}  c #61757D",
"|  c #1E8E30",
" . c #2B952D",
".. c #329632",
"X. c #58BB3B",
"o. c #5FC13B",
"O. c #0E884E",
"+. c #168748",
"@. c #148759",
"#. c #319050",
"$. c #1CAE56",
"%. c #2FAE55",
"&. c #3BB857",
"*. c #08886A",
"=. c #12906F",
"-. c #299271",
";. c #12AD74",
":. c #19AA79",
">. c #32AE70",
",. c #4CB450",
"<. c #44BA56",
"1. c #558F6E",
"2. c #4AB36A",
"3. c #13C47B",
"4. c #38D66D",
"5. c #31CD73",
"6. c #3ADA78",
"7. c #51C54A",
"8. c #45C356",
"9. c #4DCF6D",
"0. c #5AD462",
"q. c #4DE369",
"w. c #187B8A",
"e. c #2C7B8A",
"r. c #477A87",
"t. c #557487",
"y. c #557A87",
"u. c #657782",
"i. c #6C7E86",
"p. c #717F87",
"a. c magenta",
"s. c #158687",
"d. c #138F91",
"f. c #28908C",
"g. c #13B38A",
"h. c #29A989",
"j. c #25B588",
"k. c #30AD92",
"l. c #26B695",
"z. c #1292AC",
"x. c #18B0AD",
"c. c #49848A",
"v. c #4C8493",
"b. c #4D8995",
"n. c #538694",
"m. c #588E91",
"M. c #6E8086",
"N. c #6D838A",
"B. c #66898B",
"V. c #6C898D",
"C. c #718387",
"Z. c #728389",
"A. c #78878D",
"S. c #738A8D",
"D. c #6C938D",
"F. c #6C8B91",
"G. c #758693",
"H. c #7B8692",
"J. c #738C93",
"K. c #7C8B94",
"L. c #758D99",
"P. c #7B8D99",
"I. c #669393",
"U. c #6A9394",
"Y. c #689A9A",
"T. c #729394",
"R. c #73939C",
"E. c #7B939B",
"W. c #799799",
"Q. c #73999E",
"!. c #52AE93",
"~. c #63A19C",
"^. c #6AA59C",
"/. c #71A69A",
"(. c #5A9AA3",
"). c #639DA1",
"_. c #6D9EA2",
"`. c #7697A1",
"'. c #749AA2",
"]. c #7A9CA3",
"[. c #59ACAB",
"{. c #62A2A2",
"}. c #6BA7A5",
"|. c #7DA3A5",
" X c #77A7AA",
".X c #7DACAA",
"XX c #6BB0A5",
"oX c #77B4AB",
"OX c #75ADB1",
"+X c #7CADB2",
"@X c #6DB9B5",
"#X c #73B4B4",
"$X c #7AB3B4",
"%X c #73B9B5",
"&X c #78B8B9",
"*X c #0BC584",
"=X c #19C792",
"-X c #37D786",
";X c #30D092",
":X c #38E389",
">X c #25D9B5",
",X c #19E6BB",
"<X c #4CD388",
"1X c #5FDF8F",
"2X c #4EE688",
"3X c #6CC2BC",
"4X c #0E92CB",
"5X c #1EA6D3",
"6X c #11ACE9",
"7X c #0DABF5",
"8X c #13ADF5",
"9X c #65BAC7",
"0X c #16E7C6",
"qX c #14FBCD",
"wX c #11FAD2",
"eX c #2CE9D3",
"rX c #23E1E5",
"tX c #56D0C7",
"yX c #67C9C5",
"uX c #70C9CA",
"iX c #60F5E9",
"pX c #828F97",
"aX c #818E98",
"sX c #829296",
"dX c #86959C",
"fX c #89969D",
"gX c #86999E",
"hX c #8C999E",
"jX c #929D9F",
"kX c #8A97A0",
"lX c #869BA1",
"zX c #8C9AA1",
"xX c #909BA1",
"cX c #84A2A5",
"vX c #84A7A9",
"bX c #96A7AC",
"nX c #99ABB2",
"mX c #85B1B4",
"MX c #9CB6B8",
"NX c #A2AFB6",
"BX c #A3B5BB",
"VX c #A6B4B9",
"CX c #A6BABE",
"ZX c #AABBBE",
"AX c #8DC3BB",
"SX c #97BCC0",
"DX c #A7BAC0",
"FX c #A9BCC1",
"GX c #B2BFC5",
"HX c #98C8C7",
"JX c #95D0D1",
"KX c #A8C5C7",
"LX c #AECACC",
"PX c #91F6EF",
"IX c #97FCEE",
"UX c #A4E5EC",
/* pixels */
"a.a.a.a.a.a.a.a.a.a.a.a.a.a.a.a.a.a.a.a.a.a.a.a.a.a.a.a.a.a.a.a.a.a.a.a.a.a.a.a.a.a.a.a.a.a.a.a.a.a.a.a.a.a.a.a.a.a.a.a.a.a.a.a.a.a.a.a.a.a.a.a.a.a.a.a.a.a.a.a.a.a.a.a.a.a.a.a.a.a.a.a.a.a.a.a.a.a.a.a.a.a.a.a.a.a.a.a.a.a.a.a.a.a.a.a.a.a.a.a.a.a.a.a.a.a.a.a.",
"CXCXCXCXCXCXCXCXCXCXCXCXCXCXCXCXCXCXCXCXCXCXCXCXCXCXCXCXCXCXCXCXCXCXCXa.a.a.a.a.CXCXCXCXCXCXm m +.+.+.CXCX%.< < d CXCXCXCXCXCXCXCXCXCXCXCXCXCXCXCXCXCXCXCXCXCXCXCXCXCXCXCXCXDXDXDXDXDXDXCXCXCXCXCXCXCXCXCXCXCXa.a.a.a.a.CXCXCXCXCXCXCXCXCXCXCXCXCXCXCXCXCXCXCXCX",
"CXDXCXCXCXCXCXCXDXCXCXCXFXCXCXCXCXCXCXCXCXCXCXCXZXCXCXCXCXCXCXCXCXCXZXFXa.a.a.FXCXCXCXDXCX+ :.h.m m +.+.y.2.%.<.<.< < DXDXCXCXDXDXCXCXCXDXCXCXCXCXCXCXCXCXCXCXCXDXCXCXCXCXCXCXCXDXDXCXDXDXCXCXDXCXCXCXCXCXCXCXCXa.a.a.FXDXCXCXCXDXCXCXDXCXCXCXCXCXCXCXCXCXCXCXCX",
"BXFXZXFXZXFXZXZXZXCXMXnXnXnXnXnXnXBXZXFXFXFXZXFXFXBXbXzXdXdXsXdXsXdXCXBX` a.LXZXCXCXCXCXMX:.*.h.:.h.Q +.B.3 %.%.%.%.%.1 FXFXCXCXCXCXCXCXCXCXCXCXCXDXDXCXCXCXCXCXCXCXCXDXCXCXCXCXCXDXCXCXCXCXCXCXCXCXDXCXCXCXCXCXDXa.KXFXDXZXZXFXFXFXFXZXDXCXZXFXZXFXFXnXkXdXzXbX",
"fXfXfXfXfXfXfXfXfXfXfXfXfXfXdXfXfXfXfXfXfXfXfXfXdXfXfXfXfXfXfXfXfXfXfX/ ` a.LXFXCXfXkXdX+ :.:.:.:.-.@ +.t.E M -.%.%.%.2.Z.fXfXfXdXdXdXdXdXfXdXfXdXdXdXdXdXdXdXdXdXdXdXsXdXdXfXfXfXfXdXdXdXdXdXdXdXdXsXdXdXfXfX` ` a.ZXCXdXfXfXdXfXfXfXdXdXfXdXdXdXdXfXfXfXdXdXfX",
"dXfXfXfXfXdXfXfXfXfXfXfXfXfXfXfXfXfXfXdXfXdXfXfXfXfXfXfXfXfXe fXfXfXfX` [ a.KXCXdXfXfXfX-.:.:.:.:.o l g N l.k.M M M $ E t.fXfXfXdXfXfXfXfXdXdXfXfXfXfXfXfXfXfXfXfXdXfXfXfXdXfXfXfXfXfXfXfXfXfXfXdXfXfXfXdXfXfX` ` a.VXCXfXfXfXfXfXfXfXfXdXfXfXdXdXdXdXfXdXdXdXdX",
"fXfXfXdXfXfXdXfXfXfXfXfXfXfXfXfXfXfXfXfXfXfXfXfXfXfXdXdXfXfXdXdXfXfXfX` [ a.KXFXdXfXfXgX>.:.>.@ 4 @ j s.l.m l.k.M M M % fXfXfXfXfXfXfXfXfXfXfXfXfXdXfXfXdXfXfXfXfXdXfXfXfXdXfXfXa fXfXdXfXfXfXfXdXfXfXfXdXfXfX/ ` * BXBXdXfXfXfXfXfXfXdXdXdXdXdXdXdXdXdXdXdXdXdX",
"fXfXfXfXdXdXdXfXfXfXfXfXfXfXfXfXfXdXfXdXfXfXfXfXfXdXfXdXa fXdXdXdXfXfX` [ a.KXDXdXfXfXcXQ zXkX2.&.q 8.2.l.l.h.l.M M M t dXdXfXfXfXfXfXdXfXfXfXfXa fXfXfXfXfXfXdXfXfXdXdXfXdXfXdXa _ fXfXfXfXdXfXfXdXdXfXdXfXdX} _ * BXBXfXfXfXdXdXdXdXdXdXdXfXdXfXdXdXdXdXdXdXdX",
"dXdXdXdXdXdXdXdXfXfXfXfXfXfXfXfXfXfXfXfXfXdXfXfXfXfXfXdXdXfXdXdXdXfXfX_ ` a.KXFXfXdXfXfXcXW.o 8.&.%.8.8.k.l.=.l.$ N N b dXfXfXfXdXfXfXfXfXfXfXu.fXfXfXfXfXfXfXfXfXfXfXdXdXdXfXfXfXfXfXfXfXfXfXfXfXfXdXdXdXfXdXsX` * VXBXfXdXdXdXfXdXdXdXdXdXdXdXdXdXdXfXfXdXfXdX",
"dXdXdXdXfXdXdXfXfXfXfXfXfXfXfXfXdXfXfXfXfXfXfXfXfXfXdXfXdXdXdXdXdXdXdX/ [ * KXFXfXfXd l k q q 8.#.<.8.8.k.l.l.l.) ] p $ _ fXkXfXfXfXfXfXfXfXdXfXfXfXfXfXfXfXfXfXfXfXdXdXfXdXdXfXfX` fXfXfXfXfXfXfXdXdXfXdXdXdXkX` : NXBXdXfXfXfXdXdXdXdXdXdXdXdXdXdXdXdXdXfXfXdX",
"fXfXdXgXdXfXfXdXfXfXfXfXfXfXfXfXfXfXfXfXfXfXfXfXfXfXfXdXdXdXdXdXdXdXfX` } * KXFXfX1 j q k k +.8.q 8.8.<.M k.l.l._ zXZ._ ` dXfXfXfXfXfXfXfXfXfXdXdXdXfXfXfXfXfXfXfXfXdXdXdXdXdXfXfXa fXfXfXfXfXfXfXdXdXdXdXdXfXkX` * NXBXfXfXfXdXdXdXdXdXdXdXfXdXfXfXdXdXdXdXdXdX",
"dXfXN.fXfXfXfXfXfXfXfXfXdXfXfXfXfXfXfXfXfXfXfXfXfXfXfXdXfXdXfXdXfXfXdX/ / * KXFXfX6 q q k k 9 8.<.8.<.b M M N !.` dXdXhXhXfXfXfXfXdXfXfXfXfXfXdXdXfXfXfXfXfXfXfXfXfXdXdXfXfXdXfXfXfXfXfXfXfXfXfXfXdXdXfXfXdXfX( / * NXnXfXfXdXfXdXdXdXdXdXdXfXfXdXfXdXdXdXfXdXdX",
"dXi L dXfXdXfXfXfXdXfXfXfXdXfXfXfXfXfXfXfXfXkXfXfXfXfXfXfXfXfXfXdXfX/ / ^ > KXBXfXdXo 1 l l , 8.8.8.x b M M N ] ` kXdXdXdXfXfXfXfXfXfXfXfXfXfXdXfXfXfXfXfXfXfXfXfXdXfXfXfXfXdXfXfXfXfXfXfXfXfXfXdXfXfXfXfXdXdX` _ * ( / fXfXfXfXdXfXfXdXdXdXdXdXdXdXdXdXdXfXdXfX",
"a / ( e fXfXdXdXdXfXdXdXdXdXdXfXfXfXfXdXfXfXi fXfXdXdXdXfXdXfXfXfX` _ ` > > ( W P.fXhXfX@ m M 8.<.l x % b N M u _ zXfXfXfXfXfXhXfXfXfXfXfXfXfXfXfXdXfXfXfXfXfXfXfXdXfXfXdXkXkXfXfXfXfXfXfXfXfXfXdXfXfXdXkXkX` ` ` * * W ` kXdXdXdXdXdXdXdXdXdXdXdXdXdXdXfXdXfXdX",
"/ _ ( a _ _ / / _ / _ ` _ _ _ _ _ _ _ _ _ _ ` a / / / / / ` _ _ _ / / > > > ( ` / / ` $ l.k.M M $ 1 4 x ! t N % / _ _ _ _ / _ / / / / _ _ _ _ _ _ ` ` _ ` ` ` ` ` ` ` ` ` ` ` ` ` > _ ` ` ` ` ` ` ` ` ` ` ` ` ` > > > > W _ / / _ _ _ _ _ ( _ _ _ _ _ _ _ _ _ f ",
"( ` ` e _ / / _ _ _ _ _ _ _ _ ` ` ` _ _ _ _ [ ` _ _ _ / _ _ _ _ _ ( > > > > > ^ _ _ _ k.l.m l.M $ % _ x t t u f _ / _ _ / / / / / / / ^ / / / / / / / / / / / _ / _ / / _ / / / * > > > _ _ ` ` _ ` ` ` ` ` ` : > > > > > / _ _ _ ` ` / ` _ _ / _ _ ` / _ _ e ` ",
"> > > > > > > > > > > > > > > > > > > > > > > > > > > > > > > > > > > > > : > : > * # l.m l.l.M # * 7 s.s.=.s.* > > > - > - : : : : : > > > > > > > > > > > > > - - : > : : - : : > > : > - - - : : > > - - : - - : - - : - > - : : > > U > > > > > - - > > > > ",
"> > > > > : : > > > ` ` ` ! ! ! ( ( ( ( ( ( ` ` ` ` ` ` ( ` ` ` ` ` ` ` ` _ ` ` E k h l.l.l.l.$ % u o s.s.s.s.s.* : > > - > > : - : - : > ( ( ( ( ` ( ` ` ` ` ` ` ( ( ( ( ( ` ( ( ( ( ` K L L L L K L P P P L L L L L P P L L U U U U U U U U U U U U > > > > > ",
"> > > > > : : : i i ` ` ` ` ( ( ` ` ` ` ` ` ` _ ! _ _ _ / _ ` [ [ ` ` [ [ _ ` f +.+.z l.l.k.j E c c 2.s.s.s.z s.% * * * * > : : : > - = _ _ / _ _ _ ` / / ` ` ` ( ` ` ` ` ` ` ` ` ` _ U L L L L L L K L L L L L L L L L L L L K L U U U U U U U U U U U > > > > ",
"> > > > > / ! ! ! ! ^ ( / ! ! ! ! ! ! ! ! ! ! ! u ! R U U R ^ ! ! ! ! ^ ) R E l +.+.z l.z 1 0 % %.9.8.>.s.s.s.s.t U U ^ ` o + * > - - _ [ _ I I I I I I I I L L L L K L L L L L K L L K L L U L L L L K L U L L L L U L L L L L L L L U U U U U U U R U U > > > ",
"> > * * = FXfXfXhXhXhXfXfXfXfXfXfXfXfXfXfXfXfXfXfXbXR R nXfXfXfXfXfXfXhXhXhX6 q q +.z O.l Q 0 X <.<.+.8.j =.s.s.V kXsXdX_ [ 1 h + * * vXvXV.F.V.V.V.V.V.V.V.F.M.M.M.M.M.M.i.M.i.i.M.M.M.M.M.i.M.M.M.M.M.M.M.M.M.M.M.M.M.M.M.M.M.M.M.M.M.M.M.C.C.Z.C.Z.L I = : > ",
"> > FXFXCXfXfXfXfXfXfXfXfXfXfXhXfXfXfXfXfXzXfXhXfXfXe A fXfXzXfXhXkXfXhXhXfXU R % 1 @ % ` / j 4 <.<.| 8.l q q j m ( kXdXdX_ e + 9 # > |.V.V.F.V.V.V.V.V.B.V.F.B.V.V.V.M.M.M.M.M.i.i.M.i.i.i.i.M.i.i.i.i.i.i.i.M.i.i.M.C.N.M.C.C.i.i.M.Z.M.M.Z.Z.Z.Z.Z.p.U U R - ",
"* KXbXbXfXfXfXfXfXfXfXkXbXfXhXhXfXfXfXkXfXfXfXhXhXfXkXK jXfXkXfXfXfXhXhXfXfXdX^ ) ! ) E % f k % + <.8.<.4 q k q B ) dXE.kXlXe E h y * vXJ.V.V.V.V.V.V.V.V.V.F.V.V.V.V.V.V.B.N.M.M.i.M.p.i.i.i.i.i.i.i.i.p.M.Z.i.Z.M.M.Z.p.C.M.M.M.M.M.M.i.M.Z.Z.C.Z.Z.Z.L R R - ",
"A BXhXhXhXhXhXhXhXhXfXfXhXhXhXhXfXhXfXfXhXfXfXhXhXhXfXa fXfXfXhXhXfXfXfXfXfXfXfXfXsXo b N N l + ) , 8.< _ ^ 1 +.] _ dXgXW.gXe ! h h * vXV.V.V.V.B.V.V.V.V.V.V.B.V.V.V.V.V.V.V.N.M.M.M.M.i.i.i.i.i.i.i.i.i.M.M.i.i.M.C.Z.p.Z.M.C.i.C.i.N.i.N.Z.Z.Z.Z.Z.Z.A.U U > ",
"Z BXhXhXkXhXhXhXfXfXfXfXhXkXhXhXhXfXfXfXhXzXhXhXfXfXfXR fXfXhXfXfXfXfXfXhXfXfXfXdX$ N b N b @ h _ l #.l ) / } ^ ] ! gXgXgXlX^ R h @.u +XF.U.U.U.U.U.Y.Y.U.U.U.B.V.F.V.V.V.V.V.V.V.N.M.i.i.M.M.i.i.i.i.i.i.i.M.M.i.C.i.p.i.p.C.Z.p.C.M.Z.i.M.Z.Z.Z.Z.Z.Z.A.U R > ",
"S BXhXhXhXhXfXfXfXfXfXhXhXhXhXhXhXfXfXhXkXhXhXfXfXhXfXzXA a hXhXhXhXfXfXfXfXfXdXi b N m z @ E q u l k q + _ dXdXgXW.gXgXW.cXp ~ j @.4 +XF.U.U.U.U.Y.[.[.Y.I.U.U.U.U.U.B.V.B.V.V.F.V.M.M.i.i.i.i.i.i.i.i.i.i.i.i.i.C.i.C.p.p.Z.C.p.p.i.i.M.Z.Z.Z.Z.Z.Z.Z.A.U R : ",
"S BXhXhXhXhXfXfXkXkXfXhXhXfXhXfXhXzXfXhXhXhXfXfXfXfXhXhXzX} hXfXfXhXkXfXkXfXdXdXdXfX1 %.$.-.r 9 5 1 k j 6 _ [ gXgXgXW.cX|.|.f ~ @.@.u +XU.I.I.U.U.I.[.tXY.I.U.U.U.U.U.U.U.B.V.V.V.V.M.i.i.i.i.i.i.i.M.i.i.i.i.C.i.Z.C.C.i.p.C.C.C.C.C.C.C.C.Z.Z.Z.Z.Z.Z.A.U U : ",
"S BXhXfXhXhXhXhXzXzXhXhXfXhXfXfXfXkXhXhXhXhXhXhXhXhXfXfXfXfXfXfXfXhXhXfXzXfXfXdXfXsX%.%.j s.s.*.k v 1 j 0 3 _ _ W.cX|.|.|.|.f y.c @.y OXI.I.Y.Y.I.I.Y.I.I.I.I.I.I.I.I.U.U.U.U.V.F.F.V.i.M.i.i.i.M.i.i.i.i.i.i.M.M.M.C.C.i.p.p.p.Z.p.C.C.C.C.Z.Z.Z.Z.Z.Z.u.U U - ",
"Y CXhXhXfXfXfXhXhXhXhXhXhXfXfXfXfXfXhXhXhXhXhXhXhXfXfXfXfXfXfXfXfXfXhXzXhXfXfXfXfX+ %.g s.:.s.m j % 5 O.O.4.9.B t.|.|.|.|.|.cX3 u @.4 6 <X2Xj.' I.I.I.I.Y.Y.I.I.U.I.I.I.I.I.I.I.B.V.V.V.M.i.i.i.i.i.i.i.i.C.Z.i.i.i.i.C.i.p.C.Z.C.p.M.M.C.Z.Z.Z.Z.Z.Z.Z.[ U U - ",
"Y BXhXhXfXhXhXzXfXfXhXhXhXhXhXfXkXfXhXhXhXhXfXhXhXhXhXhXhXhXfXfXfXfXfXfXfXfXfXfXfX+ $.w.=.:.s.l 0 3 % &.4.O.4.2.t.|.|.|.vXvXy =.~ -.2 =.;.>X2X9.y Y.~.~.[.[.I.U.I.I.I.I.U.I.U.U.U.V.F.V.V.M.i.i.C.i.i.i.C.C.i.M.i.i.i.i.i.C.C.C.Z.p.i.Z.C.C.Z.Z.Z.Z.Z.Z.W U R - ",
"S nXzXzXhXhXhXhXhXhXhXhXxXhXhXhXhXhXhXhXhXhXfXfXhXhXhXhXfXhXfXhXzXfXzXfXfXfXfXfXfX+ *.w.s.:.k k @ j ] 2.4.5.=.5./.|.|.cXmX;Xd.l.r.-.-X6.6.-X:X6.-X5 ~.{.~.~.~.Y.I.I.I.I.U.I.I.I.U.V.V.V.V.V.M.M.i.i.i.i.C.C.C.i.i.i.i.i.M.C.Z.C.Z.i.M.C.p.Z.Z.Z.Z.Z.Z.Z.U U R - ",
"Y zXhXhXhXfXhXhXhXhXhXhXhXhXhXhXhXhXhXhXhXhXfXhXhXhXhXhXhXfXhXfXhXhXfXfXfXfXfXfXfX@ V + + q k k bXO.4 6 5.4.4.5.5 cXcX|.5 ;Xl.=Xx 5 -X<X6.<X-X;X<Xh ^.~.~.~.~.~.~.~.Y.U.I.I.I.I.I.I.V.V.V.V.V.B.i.i.i.i.i.i.i.i.M.i.i.i.M.C.C.C.Z.p.Z.C.p.p.Z.Z.Z.Z.f f f f f > ",
"W fXhXhXhXhXhXhXhXhXfXfXhXhXhXhXhXhXhXhXfXhXfXhXhXhXhXhXhXhXfXfXhXhXfXhXhXfXfXdXdXgXkXzXo q q + W.2 @.] 3 5.4.6.>.cX.X.X;Xd.=X;Xz n <Xg r 9 5X5Xv.r.{.~.~.~.~.~.~.~.~.~.Y.I.I.I.I.U.U.B.V.V.V.V.M.i.i.i.i.i.i.N.bXi.i.i.M.C.Z.Z.Z.Z.C.C.p.i.Z.Z.Z.f ( ( / / ( : ",
"W fXfXfXhXhXfXhXhXhXhXhXfXfXfXhXfXfXhXhXfXfXfXfXhXhXhXfXfXzXfXzXfXhXfXfXfXfXfXfXfXfXgXgXcXq q 3 2 6 =.] t.] 4 9 <X.X.X X;Xd.=X=Xx f 9 -Xe.r.6X5X}.}.).{.{.{.~.~.~.~.~.~.~.~.I.I.I.I.U.I.B.V.V.V.V.M.M.M.M.i.M.N.C.C.i.i.M.M.M.C.p.p.p.C.C.C.Z.Z.f ( ( ( ( [ ( > ",
"W hXfXfXfXhXfXfXhXhXhXfXfXfXhXfXfXfXhXfXkXfXfXfXhXhXfXfXfXhXfXhXfXhXhXhXfXfXfXdXfXfXkXgXzX2.&.>.8.3 <X4 ] vXB.n.y.OX.XOX5 d.=X;Xn.d p -X-.x 5XrX0Xz ).).Y.{.{.{.~.{.~.~.~.~.~.I.U.I.I.I.I.B.V.V.V.V.M.i.i.i.i.i.i.Z.i.M.M.M.C.i.p.Z.Z.Z.Z.Z.Z.Z.u.( ( ` } [ ( > ",
"Y fXfXfXhXhXfXzXhXhXfXhXfXfXhXhXkXhXfXhXzXhXfXfXhXfXkXfXkXfXzXhXhXhXhXhXfXfXfXdXfXgXgXgX7 8.O.8.8.3 !.c z t g -.r  XOXOXh ;X;Xm.n.6 =.h -Xx.rXrXx.0Xm Y.{.{.{.{.{.~.~.~.~.~.~.~.Y.I.I.I.I.I.V.V.V.V.V.M.i.i.i.p.i.p.i.Z.M.M.i.i.i.Z.C.Z.Z.Z.Z.Z.u.( [ ` ` ` ` - ",
"W fXfXfXhXhXkXfXfXfXkXfXfXfXhXzXfXfXzXhXhXhXfXfXhXhXfXfXfXfXhXhXfXhXhXhXfXfXfXfXfXgXdXdXX 9.8.8.8.] 3 d.z.0X*.=.=.-.$X.X$X;Xr n.3 q.:X1Xz >X0X0X0X0X0Xz {.{.{.{.{.{.~.~.~.~.Y.Y.~.I.U.U.U.U.I.V.V.V.V.N.i.i.i.i.M.i.i.i.Z.M.p.i.i.p.C.C.f f u.u.( ( ( [ [ [ ` - ",
"W fXfXfXfXfXkXfXfXfXkXfXfXfXfXzXfXfXkXfXhXhXhXfXhXfXhXfXfXfXfXhXfXfXfXhXfXfXfXfXfXgXgXgXX 8.8.9.4 ] r ,X0Xd.,X*.=.=.r $XOXy OXn.<XeX:X2Xv.O.=Xm >Xm z z ).{.{.{.{.{.~.~.~.~.~.~.~.~.I.U.U.U.U.U.V.V.V.V.M.i.M.i.i.C.N.C.M.i.M.C.i.M.C.C.f ( ( ( ` ( [ ` ` ` ( - ",
"- * zXzXfXfXfXfXfXfXfXfXzXfXhXhXfXfXhXfXhXhXhXfXhXhXfXfXfXfXhXfXfXfXfXhXfXdXdXfXfXdXgXgX, <., y.y.bXt >X,X0X0Xt V n.n.$X$XOXOXr.<X>X:X:.v.c.;X5X}.{.).{.{.{.).{.{.{.{.~.{.~.~.~.~.~.Y.I.U.U.I.U.B.V.V.V.N.i.p.M.i.i.i.M.M.i.Z.C.p.p.Z.Z.( ( ( ( ` ` ( ( ` ( ( * ",
"> ; jXjXhXzXhXhXhXhXfXfXjXfXkXfXhXhXhXhXhXhXhXfXfXfXfXfXfXfXfXfXfXfXfXhXfXdXfXfXzXgXdXdX3 E t.vX4 c 5 j.z >X0Xz n.v.m.OX$X$XOXv.5 :X1X&X).r.4X5X{.{.{.[.{.{.).).{.{.{.{.{.~.~.~.~.~.Y.Y.U.U.U.U.U.V.V.V.V.i.i.M.M.i.M.p.p.C.C.C.Z.Z.M.f ( [ ( [ U [ [ ( ( ( ( - ",
"> > > > C.fXhXhXhXhXhXfXfXfXfXfXhXfXhXhXhXfXhXfXfXfXfXfXfXhXfXfXfXfXhXhXfXdXfXdXgXgXdXcXvXy.cX% @.@.9 >.n.v.t x n.$X$X$X$XOXv.v.t j s &XY.c.6X8XN {.{.[.>X{.).{.Y.Y.{.{.{.{.~.~.~.~.~.~.I.U.U.U.I.B.V.V.B.M.i.N.Z.M.C.C.C.C.C.p.C.Z.Z.( [ [ ( ( [ ( ( [ ( ( ( > ",
"> > > > - fXfXhXhXhXhXhXhXhXfXfXhXhXhXhXfXzXfXfXfXfXhXhXhXhXfXfXhXhXhXhXdXfXdXgXdXdXdXcXcXvXvXc @.@.j d.z.d.z v.r.$XOXOXOX+Xv.v.b.s d r l.z.z.7X6X[.{.[.eX{.Y.Y.Y.Y.Y.{.{.).{.~.Y.Y.~.~.~.I.U.I.U.U.V.V.B.N.N.K L K N.i.M.M.M.i.M.C./ ( ` ` ( ( ( ( U U U R ( > ",
"> > > > > ` ` ` / / / / / / ` ` ` / / / / / / ` } A.dXfXzXzXkXkXkXzXzXzXdXP.} ) _ ] ] ] y.y.B.@.@.5 -Xm 0Xz.0Xm v.v.v.v.v.v.v.v.v.s s l.d.d.e.7XrX4Xf.x rX1X:X@.c.).).).).).).Y.Y.).{.~.Y.Y.F.B.y.] E I E I I R L U U U L U K U L U U U ( ( ( U U U U U R > : > ",
"> > > > > > ( ` ` ` ` ` ` ` ` ( ` ` ` ` ( ` ( ( ` ( ( ` ` [ ` ` [ [ } [ ` ` _ _ _ [ t.y.y.y.y.m.n.B 5.V ,X0Xx.eXv.v.v.v.v.v.v.v.v.n z.d.d.t e.8X6X8Xm =.=.;X;X:X:Xr e.r.r.r.e.r.e.r.r.r.r.r.r.~ ! ! ! U E I I U e U U L U L L U U U U U U U U U U U U U R > > > ",
"> > > > > > > > > > > > > > - > > : : > > > : > > : : > > : > > > - > > > > > @ h > i a i i d f f 5 -.s l.0X0X0Xs s d s s s s d d w.rXz.y s 4X7X7X7Xd.-.j.:X:X:X-X<Xs d s s d d d s s d d d d i i i i i i i > : > > > > > > > > : : : > > > > > : > > > > > > > ",
"nXbXbXbXbXbXbXbXbXnXnXnXnXnXnXbXnXnXbXnXnXnXnXbXnXnXnXnXnXnXbXnXbXK.* > > > > @ l u KXLXLXLXm z t -Xr n.m.m eX0XI.JXJXJXJXJXJXJXJXz.wXJXJXz.7X8X7X7Xz.m >Xg.h.s.f.t JXJXJXJXJXKXd d d d d d d d i i i KXDXMXMXBXBXDXZXZXFXZXZXFXZXZXCXZXZXZXZXBXZXZXZXZXZXZXZXZX",
"CXZXZXzXzXzXK.K.K.kXbXnXnXnXnXbXbXbXbXbXnXnXnXnXbXbXnXnXnXnXbXbXbX! U Y > > e 1 l u HXKXKXf.d.z.z -Xv.JXJXb.v.b.c.JXJXJXJXJXJXJXmXtXx.#X&X6X7X6X6X7Xd.(.z :Xs.d.d.d.$ JXJXJXJXJXd d d d d d d d i i i HXHXHXSXHXSXSXBXDXDXDXDXFXCXDXFXFXFXFXFXFXDXCXBXDXDXDXCXCX",
"K.K.K.K.K.K.K.K.K.K.K.K.H.H.H.A.A.Z.Z.Z.Z.Z.A.A.A.A.Z.Z.A.Z.Z.Z.A.! R U = * > c h HXMX|.$ s.x.k.5.5 c.$X$X%Xv.b.n.#X#X#X#X$X$X$X$X#X%X%X&X5X7X6XiX8XM (.m :Xl.z.z.d.w.m.$X+X$Xv.r.B d d d d d d i HXHXU.Q.Q.P.P.P.J.H.K.K.K.K.K.K.aXaXaXpXpXK.K.pXpXpXK.pXK.K.pX",
"pXpXsXsXsXpXpXpXpXpXpXpXpXpXpXpXpXpXpXpXpXpXpXpXpXpXpXpXpXpXpXZ.Z.A.R , ,.2.c O.y HXvXt d.d.k.r 5.-.9 &X%X%X#X&X}.#X$X#X#X$XuX&X$X$X&X3X3X4X6XwXwX8XuX5Xm g :Xf.z.s.t t $X$X$X$X).n.d d d d d d d HXHX`.'.Q.L.L.P.L.K.K.aXK.K.K.K.aXK.K.aXpXpXpXpXK.pXP.pXpXpXpX",
"pXpXpXpXpXpXpXpXpXpXpXpXpXpXpXpXpXpXpXpXK.pXpXpXpXpXpXpXsXsXpXZ.N.M., <.#.<.k c 4 KXvX+Xr.r.c.<Xj -X:X>.%X@X@X%X@X#X#X#X$X$XiXyX$X$X3XuXuX7XwXwXwX8XuX7Xz.z.;Xx v.v.n.n.$X#X#X$X$Xr.~ s d d d d d HXHXR.'.`.R.L.P.P.K.K.K.K.K.P.K.P.K.K.aXaXpXpXK.pXpXpXpXpXpXpX",
"pXpXpXpXpXpXpXpXpXpXpXpXpXpXpXpXpXpXpXpXpXu pXpXpXpXpXpXpXpXZ.Z.Z.M.<.<.<.<.q @ KXMXvXvX.X X' -Xh 2X=.-X%X@X#X%X#X#X#X#X$X$X$X$X$X&Xw.5X6X7XwXwXwX8Xz.6XrX0X=.<XOX+X$Xy r OX#X$X#X&XV ~ d d d d u HXKX`.'.'.`.L.E.E.E.K.K.P.P.E.K.P.P.P.K.K.K.pXK.pXpXpXpXpXpXpX",
"pXpXpXpXpXpXpXpXpXpXpXpXpXpXpXpXpXpXpXK.pXnXpXpXpXpXpXpXpXpXZ.Z.Z.1 <.<.<.2.c b @ |.|..X.X.X5 g c.2X6.2X%X%X#X#X#X#X#X$X$X+X+X+X$XuX8X8X7X8XwXiXwX6X4X7Xx.wXd.;Xt mX>.;X5.<X$X$X$X&XV V d d d u HXR.R.R.'.'.'.R.{.|.].K.L.P.P.E.T.E.E.E.P.P.K.K.E.P.aXpXpXpXpXpX",
"pXpXpXpXpXpXpXpXpXpXpXpXpXpXpXpXpXpXpXpXpXpXpXpXpXpXpXK.K.K.Z.Z.Z.Q E f + k V b V |. X X^..X-Xn v.c.>.g %X%X#X#X#X#X$XOX+X+X+X+X%Xz.7X7X7X6XqXiXqXwX7X8X8XrXd.;Xj g =Xl.d.g.;XOX#X&XmXr.v.d d ' HXR.R.R.'.'.Q.L.Y.Q.E.L.T.R.R.Q.R.'.Q.R.E.E.P.W.OXP.pXpXpXpXpXpX",
"pXpXpXpXpXpXpXpXpXpXpXpXpXpXpXpXpXpXpXpXsXpXpXpXpXpXK.K.K.Z.Z.Z.Z.U ! f l c b N e.vX/.5.;Xd.5.y..Xv.n.c.%X@X%X#X#X#XOX+X+X+X X+Xd.7X7XiXrXwXqXIXwXqXwX7X8Xz.g.x :.c.=X=X=Xl.=Xh.OXm.$X$Xv.n d ' HXR.Q.Q.'.'.'.P.P.L.Q.`.E.'.].]. X X].].'.E.E.K.E.K.pXpXpXpXpXpX",
"pXpXpXpXpXpXpXpXpXpXpXpXpXpXpXpXpXpXpXpXZ.pXpXpXpXpXK.K.Z.Z.Z.Z.Z.Z.M.# #.4 b N e.vX>.=.;X5.k.n 1.$Xm.r.%X@X#X#X#X#X$X+X+X.X+X$X4X7X7XwXwXwX0XIXqXqXqX6X8X6Xz OXg.r r =X=X=Xj.=.y OX+X$Xv.B d ' HXR.R._.Q.Q.'.L.P.E.R.'.]. XJX}.UXOXOX X|.].E.E.pXpXpXpXpXpXpXpX",
"pXpXpXpXpXpXpXpXpXpXpXpXpXpXpXpXpXpXpXpXsXK.K.K.K.K.K.Z.Z.Z.Z.} + # u 2 +.P $ V 3 /.5.5.5.>.c w.w.w.mX#X%X@X#X#X#X#X$X+X+X[.iX$X8X7XrXwXwXqXIXIXPXwXwXwX7X7X[.iXM =.t n.n.n.v.n.+XOX+X+Xv.B d B HX'.'.'.Q.Q.Q.L.L.R.R.'. XOXOXUXPXPX#XUX}.].].E.pXpXaXdXpXpXpXpX",
"pXpXpXpXpXpXpXpXpXpXpXpXpXpXpXpXpXpXpXpXK.K.K.u.K.K.K.Z.Z.S.0 k k k k &.@ P * V MX3 5.-Xr r 9 w.w.w.t n.%X%X#X#X#X$X$X+X+X XOX&X6X7XwXwXPXqXIXIXIXqXqXwX6XiXM d.d.z :.y +XOXr ,X>Xm t  Xv.B d ' HX'.'.'.Q.`.Q.L.L.R.'.'. XXXUX@X3XPX@XIXOX X].E.E.E.pXpXpXpXpXpX",
"pXpXpXpXpXpXpXpXpXpXpXpXpXpXpXpXsXsXsXpXK.K.K.BXK.K.Z.Z.E l k k m k.x %.E P > SX|.1.mXr.n.x 5 z w.w.w.n.%X&X#X#X#X#X$XOXmXvXvXOXrX7XwXqXIXiXIXIXiXeXiXqX6XiXM d.d.f.z ;.r $Xs.d.x.,Xz  Xr.~ d B HX'.'.Q.Q.R.R.E.E.'.].}. XUX@X3XyXyXPXPX#XOX|.].|.dXsXsXsXpXpXpX",
"pXpXpXpXpXpXpXpXpXpXpXpXpXpXpXpXsXsXsXK.K.K.K.K.K.K.Z.M.l +.k x l.k.k.>.I P i HX|..XvXy..XoX@.n.t V w.t }.%X#X#X#X$X$X+X+XvX.X X4X7XwXqXIXIXIXIXIXPXPXqX7X8XM d.w.e.n.g ;Xd.=.>X>Xr }.OXr B d ' HX'.'.Q.Q.`.L.L.R.'.]. XOX@X@XyXiXtXyX@X#X$X|.$XPX].pXaXpXpXpXpX",
"pXpXpXpXpXpXpXpXpXpXpXpXpXpXK.K.K.K.K.K.K.K.K.K.K.K.N.Z.E @ 1 -.h.k.j.>.I P 7 HX|..X.X.X.XoX!.n.y.y.v.v.v.@X#X#X#X#X$X+X+X.XvX.X9X8X6XqXPXIXIXIXIXIXiXqX8X4Xx d.d.t n.n.y <X:X=.r OX$Xl.x.=X*.y HXQ.'.R.'.`.R.L.R.Q.'. XOX@X3XiXtXtXyX3X%X$X X.X%XlXpXpXpXpXpXpX",
"pXpXpXpXpXpXpXpXpXpXpXZ.pXK.K.K.K.K.K.K.K.K.K.K.K.K.Z.Z.u.U U k.*.h.f.< # + 4 HX.X.X.X.X XoXz tXt mX#X#X%X%X#X#X#X#X$XOX+X+XvXB XXw.8XrXqXIXIXIXIXIXqXrX8Xw.XX/.o $X(.n.n.5 5 9 -Xj.z l.x.g.g.y HXQ.R.Q.'.'.R.L.R.`.'. X}.@XiXtXyXyXyX@X#XOX].].E.E.pXsXpXpXpXpX",
"pXpXpXpXpXpXpXpXsXsXsXsXpXK.K.K.K.K.K.K.K.K.K.K.K.K.Z.Z.Z.Z.Z.l.l.1 v X =.@.8.6 |.vX.X.X.XXX>Xx.0Xt &X%X@X@X@X#X#X#X#X$XOX+Xa 7 /.  &X5XeXtXIXUXIXtXeX5XN Y.XXw   $X$X~.<X:.-Xb.b.5 -X-Xr r s B HXQ.Q.'.'.R.L.L.L.`.`.|. X@XiX3X3XyXPX#X$X X].].E.E.pXpXpXpXpXpX",
"pXpXpXpXpXpXpXpXpXK.K.K.K.K.K.K.K.K.K.K.K.K.K.K.K.K.Z.Z.Z.Z.i.4 R U 1.X $.:.x 9.D..X.X.X.Xy ,Xz.0Xz b.%X@X@X@X#X#X#X#X$XOX+X  w 7 G ^.XX~.!.!.!.~.~.!.^.1.F w C O $X$Xk :X6.6.V v.@.=.g ;Xh d p 2 5 Q.Q.'.Q.L.L.E.E.`.]. XOXXXPX@X#XUXOX.X|.].E.|.pXpXpXpXpXpXpX",
"pXpXpXpXpXpXpXpXpXK.K.K.K.K.K.K.K.K.K.K.K.K.K.K.K.K.K.K.Z.Z.U ! ` K #.2 >.$.:.-.2 .X.X.X.X$X,X,X0Xz b.#X@X@X@X%X#X#X#X#X$X+XB E . - J J F H /.H w J H H - - - mXo $X$X-.;X6.6.n.&X=.;.=.5 :.r k.-X6.<XY.Q.J.L.L.P.E.R.W.]. X XOXOXOX XmX|.].E.E.sXpXpXpXpXpXpXpX",
"pXpXpXpXpXpXpXpXK.K.K.K.K.K.K.K.K.K.K.K.K.K.K.K.K.K.K.K.K.Z.C.C.# X 1 2.3 -.:.:.@..X X.X.X.Xr ,X,Xx b.%X@X@X@X%X@X#X#X#X#X$XOXOXO ; 7 * - - H J - - C Z ; ; O $X$X$X#X5 :X6.5 v.#Xr ;.=.' y =.6.6.<X6.<XR.L.L.P.L.L.P.E.`.].]. X|.|.|.].].].E.P.pXsXpXpXpXpXpXpX",
"pXpXpXpXpXpXpXpXK.K.K.K.K.K.K.K.K.K.K.K.K.K.K.K.K.K.K.K.Z.Z.Z.# <.<.x &.L E 3 >.>.vX.X X.X X.X;X,Xn.c.%X@X@X@X@X#X#X@X#X#X$X$XOX  - ; w 7 w H W.H H w H ; 7 o $X$X#X$X$X<X<Xn.v.&Xn.-.=.r.B -.O.6.6.4.6.6 L.L.P.P.L.E.E.E.E.].].].].].].E.E.sXpXP.aXpXpXpXpXpXpX",
"pXpXpXpXpXpXpXK.K.K.K.K.K.K.K.K.K.K.K.Z.K.K.K.K.K.K.K.K.Z.Z.C.2.<.j &.@.4 U i y.T.vX.X.X.X.X.X.Xr n.%X%X@X@X@X@X@X%X%X@X@X#XOXOXOXF.O O H H J H C C * O O cX$X$X$X#X#X#X1.v v.$X$X&Xc.y r.f 4 =.~.4 4 E ~ L.L.P.P.L.K.P.P.E.E.E.E.E.E.E.E.E.sXpXpXpXsXpXpXpXpXpX",
"pXpXpXpXpXpXK.K.K.K.K.K.K.K.K.K.K.K.K.K.K.K.K.K.K.K.K.K.Z.Z.S.<.c <.&.g 1 P i cXcX|..X.X.X.X.X.X.X{.#X%X%X%X@X@X@X@X#X#X@X#X#XoX$X$Xo ; - G i 7 * Z ; ; o $X$X#X#X#X%X#X%X&Xm.#X#X#X#X$Xr.f s =.B ) ~ ! E.E.L.L.K.L.K.P.P.P.P.P.E.E.E.E. XdXpXpXpXpXsXsXpXpXpXpX",
"pXpXpXK.K.K.K.K.K.K.K.K.K.K.K.K.K.K.K.K.K.K.K.K.K.K.K.K.Z.Z.4 <.2.<.&.b %.% i cX|.cX.X X.X.X.X.X.X$X#X#X%X@X@X@X@X%X@X@X#X#X#X$X$X$X$X  & ; J H - Z & o $X$X#X$X#X#X#X#X%X#X$X#X#X#X&Xv.n.n d =.3 ~ ! ! ! P.L.L.L.P.K.K.K.K.H.K.P.P.P.P.pXpXpXpXpXpXpXpXpXsXpXpX",
"K.K.K.K.K.K.K.K.K.H.H.K.K.K.K.K.K.K.K.K.K.K.K.K.K.K.K.K.Z.Z.X 2.&.<.x b r 2.i cX|.cX|..X.X.X X.X.X X#X$X%X%X%X%X@X@X@X#X#X#X#XoX<.0 oX#X' > Z J - Z   $X$X&X#X#X%X#X#X#X#X#X#X#X#X$Xb.v.n.n d g 1 ! ) ) ~ E.P.E.P.K.K.K.K.K.K.K.K.K.K.K.pXpXsXpXpXpXpXpXpXpXpXpX",
"U U U R R R R R R R R R R R R U R R R R R R R R R R U U R R + 2.+ b N b N 1 2.# 4 t.t.y.y.y.I. XOX&X&X&X&X&X&X&X%X#X#X$X$X1X2.q.q.q.q h & O - H Z Z i SX$X&X$X&X&X}.c.v.v.v.v.b.b.v.b.m.f d d 3 5 7 i i [ ! I ! ! f i.` ` ( ` i.K.P.K.pXsXpXK.K.K.dXsXaXsXp.U U ",
"^ R U U U U R R U R R U R / / / / / / / / / / / / R R R R R E R E b N b $ : 1 +.-.>.1 t.y.y.y.y.b.b.b.b.m.m.9.9.9 %.q.9.q.q.q.q.q.0.1XO C O w { C D 7 O h s b.x 5 h V b.b.b.b.b.v.v.b.c.d d i u 1 3 6 1 % _ ) ) ) ) / ) ^ / ^ ^ / / ) _ / ) / / / _ _ _ _ _ ( _ ",
"* * * = * = = = * : * * * = = * * * = * : = * = = = = = : * > * * b N b * : > 2.2 i 1 1 i i u u s p 2 >.&.&.q.q.q.q.q.q.4.q.q.q.#.oXoXXXw . Z 1.- O C 7  X/.  *.q.$.$.$.:.=.g y d s s d d d i i i 7 6 6 4 > e e e e = : : : * * = * = = * = * = = * * = = = = * ",
"S Y * : > : : > > > > e Y S S S S S P Y Y Y Y Y Y Y P Y Y P S P S $ N d Z Z Z p 2.4 E !.d E E E B y >.>.>.>.&.&.%.5.q.$.$.$.$.$.X J H H C O ; w w O * H J C   *.O.;.*.=.=.*.=.g Q ' ' E ~ E E E E E A f A S S S S S P A A A A A S S S S S S S W : S S Y Y Y Y Y ",
"DXCXnX> > @ : > > > > GXZXFXFXCXBXFXFXBXkXK.A.A.A.A.A.A.Z.A.sXnXCXvXN.i.BXBXDXt.q c >.HXHXHXHXHXHXHXKXJXJXHX4 y g *.@.*.$.$.$.$.X ; w & & i - H ; O - - & D o *.*.=.g 5 5 r y JXJXJXJXJXHXHXHXHXHXHXSXHXMXMXCXBXMXMXBXBXCXBXBXBXBXCXCXCXBXCXZXe FXBXZXCXCXCXCXCX",
"hXzXzXU U @ @ @ @ * KXFXA.K.aXH.aXK.K.K.aXK.K.K.K.K.K.K.K.K.A.K.K.H.u.K.H.K.i.! 2.2.4.Q R.R.R.R.R._.}.}._._._._.m.*.*.*.*.O.q.@.8 w ; ; C - C J ; . C C * F o g r JXJXJXJXJXHX#X#X#X%X$X.X.X.X.XvXcXcXcXlXlXgXlXnXBXBXCXCXBXBXnXbXMXbXzXfXfXzXe hXfXkXzXhXhXhXhX",
"zXzXzXfXdXK @ h @ a CXnXaXK.H.H.K.H.K.K.K.K.K.K.K.K.K.K.H.K.K.K.K.K.K.K.H.H.u.) #.8.4.4 R.R.R.R.R._._._._._._._.}.}.~.V *.*.*.j h . D C C w C { ; 7 - C C O [ &X&X@X%X%X#X%X&X%X%X#X$X.X.XvX.X.XcXcXcXcXcXkXgXkXfXfXhXhXfXkXhXhXfXhXzXhXzXzXbXcXzXzXzXfXhXhXhXhX",
"zXzXhXzXbXL W h h S DXK.K.K.H.K.aXK.K.K.aXK.K.K.K.H.H.H.P.H.K.K.H.K.K.H.K.H.H._ ] 8.8.Q L.R.R.R.R.R._._._._._._.}.}._._.=.=.=.=.c g t o C w 7 { 7 w w D   ` ~ %X%X%X%X%X%X#X&X&X$X$X.XvX.XvX.XvXcXcXcXcXlXkXzXgXfXfXfXfXhXhXhXhXhXzXzXzXzXzXf fXzXzXzXzXzXhXhXhX",
"hXzXhXhXhXZXh h h A CXK.K.aXaXK.H.aXK.K.aXK.H.K.P.P.K.P.K.P.G.H.K.H.H.P.A.H.H.H./ A 8.T.L.L.R.R.R.R.U._._._.}.}.}._._.'.'._.'.r *.z z r ; Z & J C F w & ` ` }.%X%X%X%X#X%X%XmX&X#X.X.XvX.X.XvXcXcXcXcXcXgXgXfXfXfXfXfXfXfXfXfXfXfXzXzXzXhXzXa fXhXzXzXzXhXhXhXhX",
"hXzXhXhXzXhXh h h A + H.K.C.K.K.H.aXH.aXK.P.P.P.E.E.E.E.E.E.P.K.K.H.E.iXP.H.H.H.H._ u P.L.L.R.R.R.R.R.R._._._._.}.}.}._._._._.r.*.=.z 3 . w - J C w D } t.` #X%X%X%X%X%X%X#XV $X.X.X.XvXcXcXcXcXcXcXcXgXgXgXfXfXfXfXfXfXfXfXfXfXfXzXzXzXhXfXa hXzXzXzXzXzXhXhXhX",
"hXjXhXhXhXhXh h @ X k 2.<.K.K.K.H.H.aXK.P.P.E.E.W.].'.].E.E.E.P.P.K.P.|.H.H.H.H.H.K.K.H.L.L.L.L.R.R.R.R.R.}.}._.}.}._._._._._.r.V =.r r o   . J C . O ` ] %X#X%X%X%X%X#X#XY.+X.XvX.X.XcXcXcXcXcXcXcXgXgXgXfXfXfXfXfXfXkXfXfXfXfXfXzXfXzXbXe KXxXfXhXhXhXhXhXhXhX",
"zXhXhXhXhXzXh X l %.<.+.2.2.Q K.H.H.H.Q.Q.E.E.].|.mX X X|.'.`.E.P.P.K.A.H.H.H.H.H.K.K.H.G.P.L.L.R.R.R.R.R.R.}._._._._._._._._.r.V =.z x _ ` 7 H 7 [ ` ) %X%X%X%X%X#X%XoX$X.X.X.X.XvXcXcXcXcXcXcXcXlXfXgXfXfXfXfXdXdXfXfXfXfXfXhXxXhXxXdXhXzXhXhXhXhXhXzXzXhXhXhX",
"hXhXfXhXfXzXh @ %.2.<.<.<.<.<.4 H.H.H.K.P.E.].|.JXJXOXOX X X].`.E.K.K.H.H.H.H.H.H.K.K.H.H.G.L.L.J.R.R.R.R.R.R._._._._._._._._.r.r.=.=.3 _ ` C { > [ ` ~ %X%X%X#XoXoXoX.XvXvX.X.X|.cXcXcXcXcXcXcXkXgXfXfXfXfXfXfXfXfXfXfXfXfXfXfXkXfXkXa zXzXzXhXhXhXzXfXhXhXhXhX",
"hXhXfXhXhXhX@ q &., <.<.<.<.<.Z.K.H.K.K.R.'.|..XUXPX@X@XPX}. X].E.P.K.H.H.H.H.K.H.K.K.H.H.H.L.J.L.J.R.R.R.R.R.R.R._._._._._._.n.r.*.*.' ` ` O { O ` ` y.&X&X#X$XoX.X.X.X.X.XvXcXcXcXcXcXcXcXlXkXgXgXfXfXfXfXfXfXfXfXfXfXfXfXfXhXhXhXfXnXhXzXhXhXhXhXhXhXhXhXhXhX",
"hXhXhXhXhXhX@ , %.L + X 1 <.2.X K.H.K.P.R.]. XOXUXPXiX@XuX#XOX].E.P.P.K.K.H.K.H.H.H.H.H.H.H.H.L.L.L.L.R.L.R.R.R.R.L.R._._._._.'.r.c *.HX` ` _ O ` ` ` ].oX.X.X.X.X.X.X.X.X|.cXcXcXcXcXcXcXkXkXkXfXfXfXfXfXfXfXfXfXfXfXfXfXfXhXfXzXfXK.kXzXzXzXxXhXhXhXhXhXhXhXhX",
"hXhXhXl l kX@ q &.#.U L f L L 1 H.K.P.P.E.].OX#XyXtXyXPXyX%XOX|.E.E.P.H.H.K.K.H.H.H.H.H.H.H.H.H.G.L.L.L.L.R.R.R.R.R.R.R.L.Q._._.r.u p HX` ` ` ` ` ` ` mX.X.X.X.X.X.X.X|.cXcXcXcXcXcXcXcXkXkXkXgXfXfXfXfXfXfXfXfXfXfXfXfXfXhXhXfXzXfXzXhXzXzXzXhXzXhXhXhXhXhXhXhX",
"hXhXl k k +.q k 1 %.B L L L L L H.K.P.P.E.]. X%XtXuXyXuXPX@XOX|.E.E.P.H.H.K.K.H.H.H.H.H.H.H.H.H.H.A.L.J.L.F.R.R.R.R.R.L.L.R.Y.V r.u i HX` ` ` ` ` [ R..X.XvX.X.XvXvXvXcXcXcXcXcXcXcXlXkXkXgXgXhXfXfXfXfXfXfXfXfXfXfXfXfXhXfXfXhXhXhXhXhXzXhXhXhXhXhXhXhXhXhXhXhX",
"hX+ +.+.+.+.k _ * m CXL L L L L K.H.P.P.E.]. X#XyXtXPXPX@XuXOX|.E.E.'.].K.H.H.H.H.H.H.H.H.H.H.H.H.H.A.J.L.L.L.J.R.R.R.R.3 c @.=.-.p u HXMX` ` ` ` ` |.vX.X.X.XcXcXcXcXcXcXcXcXcXcXlXzXzXfXfXdXgXfXfXfXfXfXfXfXfXfXfXfXhXhXhXhXhXhXhXhXhXhXhXhXhXhXhXhXhXhXhXhXhX",
"` ` ` +.l +.l ` * C BXK.H.K.K.L K.K.P.K.E.'. XOX&XyXyX3XJXUX X'.E.].PX$XP.H.K.K.K.H.H.H.H.H.H.H.H.H.A.H.A.L.L.L.L.J.L.L.3 c O.@.@.5 m SXBX_ ` ` ` ` vXcXcXcXlXcXvXcXvXcXcXcXcXkXgXkXzXfXfXfXfXfXfXfXfXfXfXfXfXfXfXfXhXfXhXhXhXhXhXzXhXhXfXkXfXhXhXhXhXzXhXhXhXhX",
"hXhX` ` ^ E 3 + * A CXK.K.K.H.H.K.K.K.P.R.Q.]. XJX&X#X#XOXUX].].R.W.&X XK.K.K.H.H.H.H.H.H.H.H.H.H.H.H.H.A.G.L.L.L.L.L.J.) p @.@.c c c MXnXi.` ` ` ` vXcXcXcXcXcXcXvXvXvXcXlXkXgXkXgXfXfXfXfXfXfXdXfXfXfXfXfXfXfXfXzXhXhXhXhXhXhXhXfXhXhXhXzXzXhXhXfXzXhXhXhXhXhX",
"hXhXfXhXzXX z m t Z BXK.K.H.H.H.K.H.K.K.E.E.'.]. XOXOX X XLX].E.E.P.E.L.K.H.K.H.H.H.H.H.H.H.H.H.H.H.H.H.H.H.H.A.G.T.A.L.G._ ) ' 5 @.4 DXcXcX` ` ` ` cXcXcXcXcXcXvXcXcXlXkXkXgXgXfXdXfXfXfXfXfXfXfXfXfXfXfXfXfXzXzXzXxXzXzXzXfXhXhXhXhXfXhXhXhXhXhXhXzXzXhXhXhXhX",
"5 5 5 hX@ X h l.s.3 FXK.K.K.K.K.K.H.K.E.JX].E.].]. X|.].].].E.L.K.P.H.K.K.H.K.H.H.H.H.H.H.H.H.H.H.H.H.H.H.H.+ !.j.j.h.T.K.L.F.@ x 3 > KXlXcXt.` ` ` cXcXvXcXcXcXlXzXkXgXgXgXgXfXfXhXfXfXfXfXfXfXfXfXfXfXfXfXfXkXhXhXzXzXzXhXhXhXhXhXzXhXhXhXhXhXhXzXhXzXhXhXhXhX",
"j.j.!.%.8 q 5 l.m k.nXK.K.H.H.H.K.K.H.E.PX].E.E.R.W.W.].E.E.E.K.P.K.K.K.H.H.H.H.H.H.H.H.H.H.H.H.H.H.H.H.H.@ h.j.m m m !.A.A.X h m x 7 / R cX` ` ` ` cXlXlXzXkXfXzXzXfXgXfXgXgXfXfXfXfXfXfXfXfXfXfXfXfXfXhXfXhXhXhXxXhXhXhXfXhXhXzXhXhXhXhXhXhXhXhXhXhXhXhXhXhXs.",
"f.f.f.@ @ l @.j.f.Z dXK.H.K.K.K.K.H.K.K.E.E.P.P.E.E.E.E.E.P.P.P.K.K.H.H.H.H.H.H.H.H.H.H.H.H.H.H.H.H.H.H.H.A.% k.j.j.j.w.@ 2 k 3 l.s.5 ^ ) zXu.` ` [ gXkXlXkXzXfXfXfXfXgXgXgXfXfXfXfXfXfXfXfXfXfXfXfXhXhXhXhXhXzXhXhXhXxXhXxXzXzXhXhXhXhXhXhXhXhXhXzXzXhXhXs.s.j.",
"j.j.x , q fX^ 3 h.h.G.aXK.K.K.H.H.K.K.K.K.K.K.P.K.K.P.K.P.P.P.K.K.K.H.H.H.H.K.H.H.H.H.H.H.H.H.H.H.H.A.A.A.( U R 3 h.j.g , 0 h c l.m !.R / bXfXu.cXzXkXgXgXgXgXzXgXkXfXdXfXfXfXfXfXfXfXfXfXfXfXfXfXfXhXhXhXzXzXzXhXhXhXhXhXfXhXhXhXhXhXhXhXhXhXzXhXhXhXhXhX4 h.j.",
"5 ! ' 2.1 _ _ E x Z A.K.K.K.K.H.H.H.K.H.K.K.K.K.H.H.G.H.H.K.K.K.K.H.H.H.H.H.H.H.H.H.H.H.H.H.H.H.H.A.+ + 1.H.H.} ^ R Q %.q v ^ 3 k.f.x W / ) hXkXgXgXgXzXzXzXkXkXfXhXfXhXfXfXfXfXfXfXfXfXfXfXfXfXfXhXhXhXhXzXzXzXhXhXhXhXzXhXhXhXhXfXhXhXzXhXhXhXhXhXhXhXhXhX-.-.",
"@ # %.l l.3 _ U * = H.H.H.K.H.K.H.K.H.H.K.K.K.K.H.K.K.H.K.K.H.K.H.H.H.H.H.H.H.H.H.H.zXe H.H.H.K.1 q k k j # H.A.A.# %.h 1 ) ^ n h.h.# W ^ / hXhXfXfXfXkXfXfXfXfXhXfXhXfXfXfXfXfXfXfXfXfXhXfXfXzXhXhXhXhXhXxXhXzXhXfXhXfXhXfXfXfXfXfXzXhXhXfXfXfXhXhXfX/ ` 4 + %.",
"# +.c h.m j.@ * > > ^ K.K.K.K.K.H.H.K.H.K.K.K.K.H.K.K.K.K.K.K.K.H.H.H.H.H.H.H.H.H.H.a a K.H.H.T.l k k k k l A.A.1 >.c z h.3 G.L -.$ * * ^ / W zXfXfXfXhXhXfXhXhXhXfXfXfXhXhXfXfXfXfXhXfXzXhXzXhXjXhXzXzXzXhXfXfXkXzXkXzXkXA.} / / ` / / / / ` ` ` [ [ ` ` + c r ",
", l + m j.z j.1 > > A / A.K.K.P.P.K.K.P.P.K.A.Z.} ^ W ^ ^ ^ u.A.K.K.H.K.P.P.H.K.p./ ^ R a K.H.H.G.1 k j k l l +.l + h.j.m j.@ R e * - : - > > e / W / / / / ` ` ` ( [ } ` ` ( ` ] Q ( ( ` [ ` [ ` ` ` ` ` [ [ ` ` ` ` ` ` ` ` ` ` ` ` ` ` ` ` ` ` ` ` ` ` X z P.",
"+.8 E m j.=.j.# > > > W / / / / / _ _ / / _ ) _ / / / / _ / / ) / / / _ / _ ) = U ^ ^ ^ R e e R / / Q 1 X h l 6 ^ L j.j.z j.@ ^ W - - : > > : - / _ ` ` _ ( ` [ [ , < 1 7 / + , o.X.< E ^ / ( [ [ + + Q ( [ [ ` ` ` ` ` ` ` [ ` ` ` ` ` ` ` ` ` ` 5 5 -.@ #.l +.",
"8 > > g j.j.k.A > > > > : : : : > > : : : > > > : : : : : > : : > : > : > > > * : : > > : & + 6 h l l l j @.2.& - - 5 :.=.j.O - - > - : - - - - : : > : # + 1 ,.o.o.o.X.X.,.X.o.o.o.X. .....#...X. . ...h j 0 > > > : > > > > > : : : : > > > @ 3 h.f.f.k.&.l j ",
"& S S S ^ 3 1 + S S S S Y S S S W Y S S S e > Y S S S S Y Y S S S S A * > > > > S S A Y S A ( # + # A + &.c &.X A A i h j.k.A A A A A A A A A A A A S A .... .,.7.o.7.X.| X.o.7.o.o.X..... . . .%.....g j j g S S A A A A A A S S A S P Y Y @ l.l.l.h.h.1 + @.2.",
"&.X BXCXdXdXdXdXBXBXBXBXCXnXnXbXnXMXCXBXCXnX* MXFXFXCXDXBXBXBXBXDX` U U : : > CXMXMXBXBXBXBXBXBXBXMXBX, 2.&.&.X H.MXBXA.1 o BXBXBXBXMXMXMXMXBXBXBXBXBXMXnXX 0 0 < 8  .,.X. . . . . . . . ..... .g j j j h + + MXMXMXMXMXMXMXMXMXMXMXMXMXMXMXMX@ 5 k.-.@ h k <.c ",
"&.L L u.u.L L U u.u.u.u.i.u.u.i.i.i.i.i.i.i.i.CXu.R KXi.i.i.i.i.i.u.! U U * > BXCXZ.C.Z.Z.C.Z.C.C.C.C.#.&.&.2.E p.C.C.( U K C.C.Z.Z.C.C.C.C.C.Z.Z.Z.C.Z.C.A.A.A.A.Q ,  . . . . . . . . ...#. .8 g X MXp u.i.i.i.i.i.} u.u.i.i.i.i.i.i.i.i.i.i.} U K U E h 2.#.&.",
"2.L L u.u.u.u.u.i.i.i.i.i.i.i.i.i.i.i.i.i.i.i.FXu.A MXi.i.i.i.i.i.i.U U U A * MXCXC.C.C.C.C.C.Z.M.C.C.2.&.2.p T C.Z.C.M.U C.C.C.C.C.C.C.C.C.C.C.C.C.Z.C.Z.C.Z.p.Z.A.S... . .q  . . .7.q 7.8 j j j Q nXi.i.i.i.i.i.i.i.i.i.i.i.i.i.i.i.i.i.i.i.} u.u.} 1 2.@ #.&.",
"d L L u.i.i.i.i.i.i.i.i.i.i.i.i.i.i.i.i.i.i.i.bXu.i.i.i.i.i.i.i.i.i.i.R R P > MXC.C.C.Z.C.Z.Z.C.C.C.C.h # U U Z.C.C.C.C.Z.C.Z.Z.C.C.C.C.C.C.C.C.C.C.Z.Z.Z.Z.Z.Z.Z.A.A.S.1 0 g g g j 7.8  .g j j l nXi.i.i.i.i.i.i.i.i.i.i.i.i.i.i.i.i.i.i.u.L @ 4 } u.8 2.@ #.2.",
"L L u.u.i.i.i.i.N.N.i.i.i.i.i.i.i.i.i.i.i.i.i.i.Z.i.i.i.Z.Z.i.i.i.i.i.U ! A > MXZ.C.C.C.C.C.C.C.C.C.C.C.U } Z.Z.C.C.C.C.C.C.C.Z.Z.Z.C.Z.C.C.C.Z.C.C.Z.C.C.C.C.C.C.C.Z.A.# 1 1 + 1 j j g 8 9 j j nXi.i.i.i.i.i.i.i.i.i.i.i.i.i.i.i.i.i.i.} l k k k l 1 &.u L %.% ",
"L u.i.i.i.i.i.i.M.M.i.i.i.i.i.i.i.i.i.i.i.i.i.i.nXi.i.i.Z.Z.i.i.Z.Z.Z.U R A > MXC.C.C.C.C.C.C.C.C.C.C.C.C.C.C.C.C.C.C.C.C.C.Z.Z.Z.C.C.C.C.C.C.Z.C.C.C.C.C.C.C.C.C.Z.C.C.Z.C.Z.A., j g g  ...j j MXi.i.i.i.i.i.i.i.i.i.i.i.i.i.i.i.i.i.i.l k k k #.l &.1 U f &., ",
"W i.i.i.i.i.i.i.M.M.i.i.i.i.i.i.i.i.i.i.i.Z.Z.i.nXZ.Z.i.i.Z.Z.Z.Z.Z.Z.U R A i BXZ.C.C.C.C.C.C.C.C.C.C.C.C.C.C.C.C.C.C.M.C.C.C.C.C.C.C.C.C.C.C.C.C.C.C.C.Z.C.C.C.Z.C.C.C.C.C.C.C.% g g q ....j 6 nXi.i.i.i.i.i.i.i.i.i.i.i.i.i.i.i.i.i.] X 9 9 % K 2.q f L U 1 L ",
"i.i.i.i.N.i.M.i.i.i.i.i.i.i.i.i.i.i.i.Z.Z.Z.Z.i.i.Z.Z.Z.Z.Z.Z.Z.Z.Z.C.U U P e BXZ.C.C.Z.C.C.Z.C.C.C.C.C.C.C.C.C.C.C.C.C.C.C.C.C.C.C.C.C.C.C.C.Z.C.C.C.C.C.C.C.Z.C.C.C.C.C.C.C.C.C.Z.p v ..#.g X nXi.i.i.i.i.i.i.i.i.i.i.i.i.i.i.i.i.i.L U U L L L K k 1 L L L U ",
"i.i.i.i.N.i.i.i.i.i.i.i.i.i.M.Z.Z.i.Z.Z.Z.Z.Z.Z.Z.C.C.Z.Z.Z.C.C.Z.C.C.U ! K e BXZ.C.C.C.Z.C.C.C.C.C.C.M.C.C.C.C.C.Z.M.C.Z.C.C.C.Z.Z.C.C.C.C.C.C.C.C.C.C.C.C.C.C.C.C.C.M.C.C.C.Z.C.Z.C.v v l c 6 bXi.i.i.i.i.i.i.i.i.i.i.i.i.i.i.i.i.i.L L L i.c I 9 k k u L R / ",
"i.i.M.i.i.i.i.i.i.i.i.i.i.i.Z.Z.Z.Z.Z.Z.Z.i.Z.Z.Z.C.Z.Z.S.S.Z.Z.Z.Z.Z.^ ! K e MXA.A.A.A.Z.S.A.S.Z.Z.Z.C.C.M.C.C.C.C.C.C.C.C.C.C.Z.Z.C.C.C.C.C.C.C.C.C.C.C.C.C.C.C.C.Z.C.C.C.C.C.Z.C.T.B v v v v dXi.i.i.i.i.i.i.i.i.i.i.i.i.i.i.i.i.i.i.i.@ @ m j.5 k k # L u.i.",
"i.i.i.i.i.i.i.i.i.i.i.i.i.i.Z.Z.Z.Z.Z.Z.C.C.C.C.Z.Z.Z.Z.S.Z.Z.Z.Z.Z.Z.u.! L i MXS.S.S.Z.V.Z.S.Z.A.A.Z.S.S.S.Z.Z.C.C.Z.Z.Z.C.C.C.C.C.Z.Z.C.Z.C.C.C.C.C.C.C.Z.Z.C.Z.C.C.C.C.C.C.C.C.C.Z.W 4 v v d kXi.i.i.i.i.i.i.i.i.i.i.i.i.i.i.i.i.i.i.i.g h.j.j.9 9 k % R i.i.",
"i.i.i.i.i.i.i.i.i.i.i.Z.Z.Z.N.Z.Z.Z.Z.Z.C.C.C.C.Z.Z.Z.A.A.D.A.A.S.J.J.N.! L i MXZ.A.S.N.I.A.A.A.1.S.S.S.S.S.oXZ.Z.Z.N.Z.Z.Z.C.M.C.Z.C.Z.C.Z.C.C.C.C.C.C.Z.Z.C.C.C.C.C.C.Z.Z.C.C.C.C.Z.) 4 v v E zXi.i.i.i.i.i.i.i.i.i.i.i.i.i.i.i.i.i.i.i.h j.m j.K K 9 L i.i.i.",
"i.i.i.i.i.i.i.i.Z.Z.Z.Z.Z.Z.N.Z.Z.Z.C.C.C.C.A.Z.Z.S.A.S.A.S.S.A.S.A.A.] ~ R 4 CXS.S.S.S.S.S.S.1 d S.S.S.S.S.B.C.Z.S.S.Z.Z.Z.N.M.M.M.Z.C.Z.C.C.C.C.Z.Z.C.Z.C.C.Z.C.C.C.C.C.Z.C.C.C.C.C.) E v v E zXi.i.i.i.i.i.i.i.i.i.i.i.i.i.i.i.i.i.i.i.^ h.h.k.4 L L R i.i.i.",
"i.i.i.i.i.i.i.N.N.N.M.M.Z.Z.Z.Z.C.C.C.C.C.C.Z.A.S.S.S.E J.S.S.J.J.J.S.E ~ ! 4 1 gXS.S.V.V.J.3 , V.S.J.V.J.S.S.S.Z.S.S.S.S.S.S.S.S.Z.Z.Z.A.C.C.Z.Z.Z.C.Z.Z.Z.C.C.C.C.C.C.C.C.Z.C.C.C.Z.U + v v Q lXi.i.i.i.i.i.i.i.i.i.i.i.i.i.i.i.i.i.i.i./ s f./ ^ L i.i.i.i.i.",
"i.i.i.i.i.Z.Z.Z.N.M.M.Z.C.Z.Z.Z.C.C.C.C.Z.Z.S.V.S.S.W.0.S.J.S.S.J.S.J.' ' ~ a 9.vXT.T.T.T.+ 0.B.F.J.T.T.S.J.J.V.V.V.Z.Z.S.S.S.S.A.A.Z.Z.Z.A.C.C.Z.C.C.Z.C.C.C.C.C.C.Z.Z.Z.Z.C.C.C.C.C.U L v i ( zXi.i.i.i.i.i.i.i.i.i.i.i.i.i.i.i.i.i.i.i.i./ B E / i.i.i.i.i.i.",
"i.i.i.N.Z.Z.Z.Z.Z.Z.Z.Z.Z.Z.Z.Z.Z.C.C.C.Z.Z.S.B.V.J.S.1 V.+ T.T.J.T.T.' ' ~ d 2 , T.U.U.U.9.2.T.T.T.J.3XU.T.T.J.J.V.V.S.S.S.S.S.A.S.A.Z.Z.Z.Z.Z.C.C.Z.C.C.C.C.C.C.C.C.C.C.M.C.Z.C.C.Z.U U a Z ( cXi.i.i.i.i.i.i.i.i.i.i.i.i.i.i.i.i.i.i.i.i.` ` i.i.i.i.i.i.i.i.",
"i.i.i.N.Z.Z.Z.Z.Z.Z.Z.Z.Z.Z.Z.Z.Z.Z.Z.Z.S.S.S.S.S.S.1 + 1 0.T.4 v U.T.c.r.~ d 1 1XQ.Y.Y.@ q.@ Q.Q.T.U.iXU.T.T.T.T.T.J.J.J.J.S.S.S.S.A.A.S.Z.Z.C.C.C.Z.C.C.C.C.C.C.C.C.C.C.C.C.C.C.C.C.U U i i ( cXi.i.i.i.i.i.i.i.i.i.i.i.i.i.i.i.i.i.i.i.i.i.i.i.i.i.i.i.i.i.i.",
"Z.Z.Z.Z.Z.Z.Z.Z.Z.Z.Z.Z.C.C.C.Z.Z.Z.S.S.S.S.S.J.J.J.+ 0.< # T.T.9., Q.c.c.B B AX1X3 ^.Y.1X1X/.Q.Y.Y.Y.Y.Y.Y.Y.U.T.T.T.T.F.F.S.S.S.S.A.S.S.Z.Z.A.A.Z.Z.C.C.C.C.Z.C.C.C.C.C.C.C.C.Z.C.C.U U = > W nXi.i.i.i.i.i.i.i.i.i.i.i.i.i.i.i.i.i.i.i.i.i.i.i.i.i.i.i.i.i.Z.",
"Z.Z.Z.Z.Z.Z.Z.Z.Z.Z.Z.C.C.C.C.Z.Z.S.S.S.S.J.V.S.T.T.J.T.1 @ U.Q.3 q.1 c.c.2 B AX>.2 ^.@ q.5 }.^.^.^.^./.^.Y.Y.2 <XT.U.U.T.J.S.S.A.S.J.Z.Z.S.Z.Z.Z.Z.Z.C.C.C.C.C.C.C.C.C.C.C.C.C.C.C.Z.U U = > W nXi.i.i.i.i.i.i.i.i.i.i.i.i.i.i.i.i.i.i.i.i.i.i.i.i.i.i.i.i.i.Z.",
"Z.Z.Z.Z.Z.Z.Z.Z.N.N.N.C.C.C.C.S.A.S.A.S.S.S.S.J.D.T.T.Q.|.-.h.]./.:.q.y x 1XB 3X5 1XoX1X5.3 }.XX^.^.^.1 <X3 h 9.3 ^.Q.T.U.T.J.J.T.S.S.S.S.S.S.S.Z.Z.Z.C.C.C.C.C.C.C.C.C.C.C.C.C.C.Z.Z.U U = > W MXi.i.i.i.i.i.i.i.i.i.i.i.i.i.i.i.i.i.i.i.i.i.i.i.i.i.i.i.i.Z.Z.",
"Z.Z.Z.Z.Z.Z.Z.Z.N.N.C.C.C.C.Z.A.A.A.S.J.J.J.V.S.U.T.Q.|.D.-.5 }.Y.c :.l 3 >.B 3X1 2XAXq.=X^., 1 ^.^.XX^.c l.m + ^.^.Y./.$ F.B.V V A.A.S.S.A.Z.A.Z.Z.Z.A.C.C.C.C.C.C.C.C.C.C.C.C.C.C.S.U U = > W MXi.i.i.i.i.i.i.i.i.i.i.i.i.i.i.i.i.i.i.i.i.i.i.i.i.i.i.i.Z.Z.C.",
"Z.M.Z.Z.Z.Z.Z.Z.C.C.C.C.C.C.Z.A.A.A.u 4 J.V.J.T.B.3 B 3 !.3 3 ^./.@ *X2X2 j.@ 3 1 3.X ;.j.2.-.XXXXy XX^.XX4 1 ^.^.^.^.3 d.3 =.s.+ V.J.J.S.S.Z.A.A.S.A.A.Z.Z.C.Z.C.C.C.C.Z.Z.C.C.C.u.U U R * > W MXi.i.i.i.i.i.i.i.i.i.i.i.i.i.i.i.i.i.i.i.i.i.i.i.i.i.i.i.Z.Z.Z.",
"Z.M.Z.Z.Z.Z.Z.Z.C.C.Z.Z.Z.Z.S.Z.A.A.A.x @ @ B T.W.3 :.g.3 V 1 g.5 =X*X*X+.g.*X*X1 *X< g.2 3.2 1 1 >.j.9 XX@ m.y !.^.^.^.|.f.$ D.T.S.S.S.Q u A.A.Z.Z.A.Z.A.Z.C.C.Z.C.C.Z.C.C.C.C.( U U U U * > W NXi.i.i.i.i.i.i.i.i.i.i.i.i.i.i.i.i.i.i.i.i.i.i.i.i.i.M.i.M.i.Z.",
"Z.Z.Z.Z.Z.Z.Z.Z.Z.C.Z.Z.Z.A.A.H.] ] N.u :.4 g R.Q.Q.@ g.g.@.1 g.5 *X3.*X*X*X*X*X@.*X3.*X3.*X*X*X=X;.:.:.3 3 1.j.3 }./.^.Y.-.Q.R.F.F.J.G.T.-.N.u.} ` / ^ ^ W R W W R W ^ / ^ U U U U U U > > > Z MXU U U i.i.i.i.i.i.i.i.i.i.i.i.i.i.M.M.M.M.i.i.i.M.M.u.i.i.i.Z.",
"U U U U R R R U U U R U U R U ! ^ r w.s -.5 f.r.3 5 :.;.;.;.h.;.3.g.1X*X*X*X3.1X*X3.*X*X*X;.2X*X*Xg.g.g.;.g.-.g.1.h.g.3 @ x ' ' ' y ~ ! E =.E % R R U U U U U U U U U U U U U U U U U : > > > > = R U U U U R U U R R ! U R R R R R R R R R R R R R R R R R R R ",
"U U U U R R R R U U R R R R R R @ $ N s.3 s.=.z =.;.;.;.;.*X2Xg.;.g.;.3.*X*.g.-X3.1X*Xg.;.2X;.*.*.=.3.;.g.g.5.g.:.=.m m m 3 V $ f.r r ^ @ =.-.r R U U U U U R U U U U U U U U U U U P : > > > > > R R R U U R U R U U R R R R R R R R R R R R R R R U R R U R R "
};
