/* XPM */
static char *_e002ba6bd0c4658c8ba6adf16db1296VYgwhfsOeO3GAq2u[] = {
/* columns rows colors chars-per-pixel */
"128 128 255 2 ",
"   c #0A1210",
".  c #151719",
"X  c #1B1B1D",
"o  c #201E1F",
"O  c #052A1B",
"+  c #132A18",
"@  c #043719",
"#  c #023C1C",
"$  c #1B1D22",
"%  c #082C26",
"&  c #1A2527",
"*  c #063626",
"=  c #0B3423",
"-  c #033C24",
";  c #043B2B",
":  c #0B3A2B",
">  c #14372A",
",  c #152B31",
"<  c #063A35",
"1  c #163B36",
"2  c #24272A",
"3  c #29342E",
"4  c #272D33",
"5  c #263536",
"6  c #2C3335",
"7  c #2D363B",
"8  c #2D393C",
"9  c #313636",
"0  c #323739",
"q  c #353838",
"w  c #34393B",
"e  c #024D15",
"r  c #02461A",
"t  c #034424",
"y  c #03432C",
"u  c #084728",
"i  c #12462D",
"p  c #095428",
"a  c #054637",
"s  c #154738",
"d  c #055438",
"f  c #165837",
"g  c #234228",
"h  c #26443B",
"j  c #126A2B",
"k  c #0A6638",
"l  c #136D33",
"z  c #16673A",
"x  c #0B773C",
"c  c #0D3B41",
"v  c #2C3B47",
"b  c #333C44",
"n  c #094645",
"m  c #164847",
"M  c #12564B",
"N  c #195657",
"B  c #284748",
"V  c #36454B",
"C  c #384954",
"Z  c #2B5551",
"A  c #3A555A",
"S  c #096A44",
"D  c #166A46",
"F  c #0B7744",
"G  c #137C44",
"H  c #187648",
"J  c #106858",
"K  c #177956",
"L  c #2C7252",
"P  c #1C5965",
"I  c #1D5B6C",
"U  c #175E71",
"Y  c #255A65",
"T  c #215B6C",
"R  c #3B5863",
"E  c #225E70",
"W  c #076A68",
"Q  c #186569",
"!  c #117767",
"~  c #0E6577",
"^  c #176374",
"/  c #087677",
"(  c #157578",
")  c #26646B",
"_  c #317267",
"`  c #3B7D65",
"'  c #367668",
"]  c #3B7E69",
"[  c #266473",
"{  c #297978",
"}  c #367B76",
"|  c #444D54",
" . c #4C5657",
".. c #485459",
"X. c #4C5A5C",
"o. c #4E6457",
"O. c #475866",
"+. c #465966",
"@. c #4B5A65",
"#. c #4C5D6B",
"$. c #525D64",
"%. c #525E6A",
"&. c #4E5F71",
"*. c #486867",
"=. c #4E606E",
"-. c #57656A",
";. c #53626D",
":. c #4D6371",
">. c #4A6B74",
",. c #536573",
"<. c #596671",
"1. c #556975",
"2. c #5A6B75",
"3. c #566A79",
"4. c #5B6D7B",
"5. c #4B7870",
"6. c #587577",
"7. c #5C717C",
"8. c #616D76",
"9. c #6A6D72",
"0. c #63737C",
"q. c #647B7D",
"w. c #2B8E2D",
"e. c #2C932C",
"r. c #269332",
"t. c #339234",
"y. c #5BBB3C",
"u. c #60BA3F",
"i. c #0E8344",
"p. c #178748",
"a. c #198E55",
"s. c #388659",
"d. c #2F9253",
"f. c #1EA25C",
"g. c #29A858",
"h. c #38AA58",
"j. c #2AB251",
"k. c #3BB655",
"l. c #178E70",
"z. c #3A8265",
"x. c #3C826A",
"c. c #2C926F",
"v. c #358377",
"b. c #10AC79",
"n. c #17B779",
"m. c #32AB6B",
"M. c #43925A",
"N. c #4AAA5C",
"B. c #51A75F",
"V. c #51AB5E",
"C. c #44B555",
"Z. c #47B758",
"A. c #53B555",
"S. c #448669",
"D. c #489866",
"F. c #4D9073",
"G. c #668C6C",
"H. c #4AA864",
"J. c #53AC63",
"K. c #55A868",
"L. c #55AC6B",
"P. c #48B666",
"I. c #54B263",
"U. c #57B36B",
"Y. c #59A874",
"T. c #54B275",
"R. c #20C776",
"E. c #43C34D",
"W. c #4DC34F",
"Q. c #57D778",
"!. c #65D26E",
"~. c #137D83",
"^. c #2E7C84",
"/. c #337C84",
"(. c #317E89",
"). c #4E7882",
"_. c #657782",
"`. c #6B7E86",
"'. c #717E86",
"]. c magenta",
"[. c #168585",
"{. c #179185",
"}. c #378287",
"|. c #33828B",
" X c #2B9489",
".X c #0FB584",
"XX c #13BB85",
"oX c #27AB89",
"OX c #25B488",
"+X c #29AA94",
"@X c #36AD90",
"#X c #25B695",
"$X c #34B8A1",
"%X c #4E8B84",
"&X c #6F8186",
"*X c #65868A",
"=X c #6F8389",
"-X c #6E8B8C",
";X c #718387",
":X c #728389",
">X c #7B858F",
",X c #79878E",
"<X c #728A8D",
"1X c #6E918E",
"2X c #7C8691",
"3X c #738D91",
"4X c #7D8B93",
"5X c #798995",
"6X c #6C9894",
"7X c #759597",
"8X c #7A949C",
"9X c #49AF93",
"0X c #69A59B",
"qX c #71A698",
"wX c #789CA3",
"eX c #78A5A9",
"rX c #72B2B0",
"tX c #0EC384",
"yX c #14C485",
"uX c #21D58B",
"iX c #5CD495",
"pX c #6AD688",
"aX c #54E885",
"sX c #70BEC0",
"dX c #6BCAC7",
"fX c #62D8CA",
"gX c #828F97",
"hX c #818D98",
"jX c #859498",
"kX c #86949B",
"lX c #89969C",
"zX c #8F989B",
"xX c #8C989E",
"cX c #8DA09E",
"vX c #8A98A0",
"bX c #8C9AA1",
"nX c #929DA2",
"mX c #8CA5A7",
"MX c #96A7AB",
"NX c #96AAB1",
"BX c #9AACB2",
"VX c #9DB5B8",
"CX c #A3ACB0",
"ZX c #A3B5BA",
"AX c #A4B5B8",
"SX c #A6BABE",
"DX c #A9BBBE",
"FX c #88C2B7",
"GX c #81B2C1",
"HX c #A7BAC0",
"JX c #AABCC1",
"KX c #B4BEC3",
"LX c #96D0DF",
"PX c #B1C2C6",
"IX c #8CF3EF",
/* pixels */
"].].].].].].].].].].].].].].].].].].].].].].].].].].].].].].].].].].].].].].].].].].].].].].].].].].].].].].].].].].].].].].].].].].].].].].].].].].].].].].].].].].].].].].].].].].].].].].].].].].].].].].].].].].].].].].].].].].].].].].].].].].].].].].].].",
"SXSXSXSXSXSXSXSXSXSXSXSXSXSXSXSXSXSXSXSXSXSXSXSXSXSXSXSXSXSXSXSXSXSXSX].].].].].SXSXSXSXSXSX/ / p.p.p.SXSXj.e e A SXSXSXSXSXSXSXSXSXSXSXkX].].].].].].].].].].].].].].].].].].].].].].].].#.DXDXDXDXDXDXDXDXDXDXDXDXDXDXDXDXDXDXDXDXDXDXDXDXSXSXSXSXSXSXSXSXSXSX",
"SXHXSXSXSXSXSXSXHXSXSXSXHXSXSXSXSXSXSXSXSXSXSXSXDXSXSXSXSXSXSXSXSXSXDXHX].].].JXSXSXSXHXSX* n.oX/ ( p.p.).P.j.C.C.e e JXHXHXHXHXHXSXSXSXHXSXv kXkXkX].].].].].].].].].].].].].].].].].].#.DXDXDXDXDXDXSXSXDXDXDXDXDXDXDXDXDXDXDXDXDXDXDXDXSXSXSXSXSXSXSXSXSXSXSX",
"ZXJXDXJXDXHXSXSXDXSXVXBXBXBXBXBXBXZXDXHXJXJXDXJXJXZXMXbXlXkXkXkXkXkXSXZX4.].].DXSXSXSXSXVXn.l.OXn.oX5.p.*Xi j.j.j.j.j.i JXHXHXSXSXSXSXSXSXv SXSXSXHX#.].].].].].].].].].].].].].].].].].#.lXlXlXnXPXHXSXHXZXZXZXSXSXDXDXBXkXkXbXmXBXDXSXSXSXDXHXDXJXHXBXvXkXbXMX",
"lXlXlXlXlXlXlXlXlXlXlXlXlXlXlXlXlXlXlXlXlXlXlXlXlXlXlXlXlXlXlXlXlXlXlX1.4.].].HXSXlXvXkX* n.n.n.n.c.; p.).*.~ m.g.g.j.P.:XlXlXvXlXkXkXlXkXlXlXlXkXgX2 ].].].].].].].].].].].].].].].].].. lXlXlXbXBXkXkXkXkXkXkXkXkXkXkXkXkXkXkXkXkXlXlXkXkXlXlXlXlXlXlXkXkXkXkX",
"lXlXlXlXlXlXlXlXlXlXlXlXlXlXlXlXlXlXlXlXlXlXlXlXlXlXlXlXlXlXv lXlXlXlX4.7.].PXSXlXlXlXlXc.n.n.n.n.% H S ^ +X+X~ ~ ~ < *.).lXlXlXlXlXlXlXlXlXlXlXlXkX. ].].].].].].].].].].].].].].].].].].lXlXlXv 0.kXkXlXkXkXkXkXkXkXkXkXkXkXkXkXkXkXkXkXkXkXkXkXkXkXkXkXkXkXkX",
"lXlXlXlXlXlXlXlXlXlXlXlXlXlXlXlXlXlXlXlXlXlXlXlXlXlXlXlXlXlXlXlXlXlXlX4.7.].PXHXlXlXlXxXn.n.D ; u u F  X#XW #X+X~ ~ ~ 1 lXlXlXlXlXlXlXlXlXlXlXlXkXkXgX].].].].].].].].].].].].].].].].].].lXkX0.#.=._.kXkXkXkXkXkXkXkXkXkXlXkXlXkXlXkXlXkXkXkXkXkXkXkXkXkXkXkXkX",
"lXlXlXlXlXlXlXlXlXlXlXlXlXlXlXlXlXlXlXlXlXlXlXlXlXlXlXlXC lXkXlXlXlXlX4.7.].PXHXlXlXlXcX6.bXlXH.E.i.E.P.#X#X+X#X~ ~ ~ n lXlXlXlXlXlXlXlXlXlXlXlXkXC ].].].].].].].].].].].].].].].].].].  kXv +.#.#.#.@.kXkXkXkXkXkXkXkXlXkXkXkXkXkXkXkXkXkXkXkXkXkXkXkXkXkXkXkX",
"lXlXlXlXlXlXlXlXlXlXlXlXlXlXlXlXlXlXlXlXlXlXlXlXlXlXlXlXlXlXlXlXlXlXkX3.4.7 PXHXlXkXlXlXmXkX= E.E.h.E.E.+X#Xl.#Xc ~ ~ U vXlXlXlXlXlXlXlXlXkXkXkXv -.].].].].].].].].].].].].].].].].].].  C #.#.#.#.#.#.kXkXkXkXkXkXkXkXkXkXkXkXkXkXkXkXkXkXkXkXkXlXkXkXkXkXkXlX",
"lXlXlXlXlXlXlXlXlXlXlXlXlXlXlXlXlXlXlXlXlXlXlXlXlXlXlXlXlXlXlXlXlXlXlX1.7.7 PXHXlXlXA H F F x E.g.E.E.E.+X#X#X#X3.7.Z < 3.lXvXlXlXlXlXlXlXkXgX| #.$ ].].].].].].].].].].].].].].].].].].].$ #.#.#.#.#.#.`.kXkXkXkXkXkXkXkXkXkXkXkXkXkXkXkXkXkXkXkXkXkXkXkXkXkXkX",
"lXlXlXlXlXlXlXlXlXlXlXlXlXlXlXlXlXlXlXlXlXlXlXlXlXlXlXlXlXlXlXlXlXlXlX4.0.6 PXHXlXi F x F F p.E.x E.E.P.~ +X#X#X3.bX=X3.4.lXlXlXlXlXlXlXkXkXlX#.#.  ].].].].].].].].].].].].].].].].].].].].& @.#.#.#.#.#.bXkXkXkXkXkXkXkXkXkXkXkXkXkXkXvXkXkXkXkXkXkXkXkXkXkXkX",
"lXlX=XlXlXlXlXlXlXlXlXlXlXlXlXlXlXlXlXlXlXlXlXlXlXlXlXlXlXlXlXlXlXlXlX1.1.6 PXHXlXd F x F F k E.C.E.C.~ ~ ~ ^ 9X4.kXlXlXxXlXlXlXlXlXlXlXkXkXV #.$.].].].].].].].].].].].].].].].].].].].].].].].@.#.#.#.#.v kXkXkXkXkXkXkXkXkXkXkXkXkX5XkXkXkXkXkXkXkXkXkXkXkXkX",
"kXV +.kXlXlXlXlXlXlXlXlXlXkXlXlXlXlXlXlXlXlXvXlXlXlXlXlXlXlXlXlXlXlX1.1.<.8 PXZXlXlX> u H H t E.E.E.Q P ~ ~ ~ 6.4.vXlXlXlXlXlXlXlXlXlXlXgXgX#.$.X ].].].].].].].].].].].].].].].].].].].].].].].2 #.#.#.#.v lXkXkXgXgXkXkXkXkXkXkXkXv +.kXkXkXkXkXkXkXkXkXkXkXkX",
"C 1.2.v lXlXkXkXlXlXlXlXlXlXlXlXlXlXlXlXlXlXV lXkXkXkXkXlXkXlXlXlX4.3.4.w w 2.;.8XlXxXlX< ( ( W.Z.H Q 1 U ~ ~ m 3.bXlXlXlXlXlXxXlXlXkXkXgXkX@.].].].].].].].].].].].].].].].].].].].].].].].].].].$.#.#.@.+.v C kXkXkXkXkXkXkXgXgXv 1.1.v bXkXkXgXkXkXkXkXkXlX4X",
"1.3.2.V 3.3.1.1.3.1.3.4.3.3.3.3.3.3.3.3.3.3.4.C 3.3.1.1.1.4.3.3.3.1.1.w w w 2.4.4.4.7.a #X+X/ / < y s N >.n U 1 1.3.3.3.3.1.3.1.1.,.1.1.1.4.X ].].].].].].].].].].].].].].].].].].].].].].].].].].X #.+.@.;.#.#.+.3.1.1.1.1.,.,.v 1.1.1.v 1.,.,.,.1.,.1.1.1.1.1.",
"2.4.4.v 3.1.1.3.3.3.3.3.3.3.3.4.4.4.3.3.3.3.7.4.3.3.3.1.3.3.3.3.3.2.w w w w w 1.4.4.7.$X#XW #X( < 1 3.Q M n *.*.,.,.1.<.<.1.1.1.,.;.,.;.C V ].].].].].].].].].].].].].].].].].].].].].].].].].].].X @.@.%.#.#.#.#.#.V 4.2.<.,.v 2.2.2.2.v ,.,.,.1.1.1.1.1.1.<.<.",
"w w w w w w w w w w w w w w w w w w w w w w w w w w w w w w w w w w w w w 0 w w w 8 1 #X/ #X#X~ : 8 h [.l.( [.1 9 9 w 0 9 0 8 C C C #.+.+.X ].].].].].].].].].].].].].].].].].].].].].].].].].].].].X X   $ +.+.#.#.@.6 w w 6 9 9 9 9 9 9 6 6 9 0 0 0 9 9 9 9 w ",
"w w w w w 0 0 w w w 7.4.4.:.:.:.2.2.2.2.2.2.4.4.4.4.4.4.2.4.4.4.4.4.4.4.4.4.4.4.*.p.H #X+X#X#X< 1 B * {.[.( [.[.9 0 0 0 9 9 #.#.#.#.#.#.. ].].].].].].].].].].].].].].].].].].].].].].].].].].].].].].].].].].].. w w 0 w +.+.@.@.+.+.+.+.+.w #.#.#.#.w w w w w ",
"w w w w w 0 0 0 V V 4.4.4.4.2.2.4.4.4.4.4.4.4.3.:.3.3.3.1.3.4.7.7.4.4.7.4.4.7.R p.i.J #X#X+Xx *.a.K H.[.[.[.W ~.1 0 0 6 0 7 @.$...| b X ].].].].].].].].].].].].].].].].].].].].].].].].].].].].].].].].].].].].. w @.6 +.+.#.+.+.+.+.+.+.#.#.#.#.#.#.#.w w w w ",
"w w w w w 1.:.:.:.:.,.1.1.:.:.:.:.:.:.:.:.:.:.:.V :.=.#.#.=.,.:.:.:.:.,.,.,.*.G i.i.W #XW ; l i g.Q.W.m.[.[.[.[.J ,.&.:.1.: - ].].].].].].].].].].].].].].].].].].].].].].].].].].].].].].].].: ].].].].].].].].@.+.#.+.b +.#.#.#.+.+.+.#.#.#.#.#.#.=.#.#.w w w ",
"w w 8 9 7 JXlXlXlXlXlXlXlXlXlXlXlXlXlXlXlXlXlXlXlXMX=.=.BXlXlXlXlXlXlXxXxXcXk i.i.i.S a.H 1.x # W.W.p.E.x l.[.[.{ lXkXlX1.,.; D = ].].].].].].].].].].].].].].].].].].].].].].].].].].].].].]._ }.].].> } ].].].@.@.$.#.8 &X&X&X`.`.&X&X&X`.+.;X:X;X:X+.+.7 0 w ",
"w w JXJXSXlXlXlXlXxXlXlXlXlXlXlXxXlXlXlXlXvXlXxXlXlXv ..lXlXbXlXxXvXlXlXxXlX1.2.s u - 1 7.6.x s Z.C.i.E.H x x F { 2.vXkXkX1.v * z O ].].].].].].].].].].].].].].].].].].].].].].].].].].].].].a |.|.].|.}.].1 n 2 #.#.#.2X`.&X`.&X`.&X&X&X&X:X:X:X:X:X'.#.#.w w ",
"7 PXmXmXlXlXlXlXlXlXlXvXmXlXlXlXlXxXxXvXlXlXlXxXlXlXvX+.nXlXvXlXlXlXlXlXlXlXvX1.3.3.3.>.1 A G s * E.E.Z.1 x F x *.;.lXlXkXvX5 +.D M ].].].].].].].].].].].].].].].].].].].].A ].].].].].o.].].].|.}.< |.|.} (./.;.#.#.V :X`.&X&X&X`.&X&X`.'.:X:X;X:X:X:X+.=.=.9 ",
"..ZXxXxXxXxXlXxXxXxXxXlXxXxXxXlXlXxXlXlXxXlXlXxXxXxXlXC lXlXlXlXxXlXlXlXlXlXbXxXxXkX< ^ ~ ~ D - :.t E.r 3.3.* H 6.,.kXkXkXkXv :.D S ].].].].].].].].].].].].].].].].].].].].J.J.V.z ].].L.V.m |.|.(.(.(.|.|.(.. #.#.#.=X`.`.&X&X&X&X&X&X`.:X:X:X:X:X:X:X5X#.#.w ",
"| ZXxXxXvXxXxXxXxXxXxXlXxXbXlXlXlXlXxXlXxXvXlXlXlXlXxX=.lXxXlXlXlXlXlXlXxXlXvXlXlX< ~ ^ ~ U * D :.H d.G 2.;.lX2.,.,.kXlXlXlX2.#.u G ].].].].].].].].].].].].].].].].].].].].: J.H.B.f Y.Y.J.v.|.}.^.(.(.(.|.%X@.#.#.;.=X`.`.;X;X&X`.&X:X`.:X:X:X:X:X:X:X,X#.=.w ",
"X.ZXxXxXxXxXlXlXlXlXlXxXxXxXxXlXlXlXlXxXvXxXlXlXlXxXlXbX..V xXlXxXxXlXlXlXlXlXlXB ^ ^ W J ; >.x B H F x @ 1.lXlXkXkXkXlXlXlXv #.p G ].].].].].].].].].].].].].].].].].].].].].].u V.N.V.J.B.J.J.(.%Xv.|.|.(.& #.#.#.v `.:X;X:X:X`.`.=X`.:X:X:X:X:X:X:X:X,X#.=.0 ",
"X.ZXxXxXxXxXlXlXvXvXlXxXxXxXxXlXlXbXlXxXxXxXlXlXlXlXxXxXbX0.xXlXxXxXvXlXvXlXlXlXlXxXt g.g.f.n k p u F G u 3.0.lXkXlXlXlXlXkXV ,.z G ].].].].].].].].].].].].].].].].].].].].].L.B.V.V.J.V.L.B.z.(.T.Y.(.}./.2 #.#.#.b &X;X`.;X;X`.:X:X:X:X:X:X:X:X:X:X:X,X#.#.0 ",
"X.ZXlXlXxXxXxXxXbXvXxXxXxXxXxXxXxXbXxXxXxXxXxXxXlXxXxXxXlXlXlXlXxXxXxXlXbXxXbXlXxXkXj.j.F [.[.l.x D # x l # 1.3.lXkXlXlXkXlXv 1.z H o.].].].].].].].].].].].].].].].].].].].].Y.D.V.J.D.D.L.M ^.^.}.|.|.(.X @.b b ..b '.`.`.=X`.:X:X:X:X:X:X:X:X:X:X:X:X_.#.%.9 ",
"$.SXxXxXlXxXxXxXlXxXxXxXxXlXxXlXxXxXxXxXxXxXxXxXlXxXlXlXlXlXlXlXxXxXxXvXbXlXxXlXlX@ g.S ~.b.[.! F > u F i.k.H.*.,.kXlXkXlXlXkX- B H O @ I.Z.H.].].].].].].].].].].].].].].].].].s D.z.z.H.J.J.L S.M |.%X$ @...V :X:X`.C =X`.`.`.:X:X:X:X:X:X:X:X:X:X:X:X7.#.#.9 ",
"$.SXxXxXlXxXxXbXlXlXxXxXxXxXxXlXvXlXlXxXxXxXlXxXxXxXxXxXxXxXlXlXxXlXlXlXlXlXxXxXxX# g./ / b.[.F z u : k.k.x k.M.3.kXlXlXxXxX* D ..H @ H p.P.C.N.Z ].].].].].].].].].].].].t D.L ].Y.V.V.J.L.J.L.D.S.X -.#.+.:X`.'.&X`.C ;X=X`.`.:X:X:X:X:X:X:X:X:X:X:X:X;.#.=.9 ",
"X.BXbXbXxXxXxXxXxXxXxXxXbXxXxXxXxXxXxXxXxXxXlXlXxXxXxXxXlXxXlXxXbXxXbXlXlXlXlXlXlX- a.~.~.l.F F * x 6.Z.k.k.p.h.kXlXlXlXmXf.W a.A L h.C.C.C.C.C.Z.O ].].].].].].].].].].].L.J.J.J.H.V.V.J.D J.T.D.  :XlXxXMX4 &X'.&X`.&XV :X`.`.:X:X:X:X:X:X:X:X:X:X:X:X#.#.=.9 ",
"$.bXxXxXxXlXxXxXxXxXxXxXxXxXlXxXxXxXxXxXxXxXlXxXxXxXxXxXxXlXxXlXxXlXlXlXlXlXlXlXlXi { = @ x F G mXa.: t k.k.k.k.@ lXxXlX# f.c.f.* y k.L.C.Z.C.C.V.r ].].].].].].].].J.i ].].s J.y - H.J.B.D.Y.' } X kXlXlXmX8 `.'.;X'.`.;X4 :X:X:X:X:X:X:X:X:X:X:X:XA R R A A 0 ",
"-.xXxXxXlXlXxXxXxXxXxXxXxXlXlXxXxXxXlXlXlXxXxXxXxXxXxXxXxXlXlXlXxXlXlXxXxXlXlXlXlXxXbXnXO x x = 7Xe L 3.* h.k.k.d.xXlXkXc.J f.f.i & C.@ O r i ].].].].].].].].u f = u L ].].s J.L } a J.J.L.{ ^.^.. kXkXkXmX& :XMX;X;X'.'.4 '.:X:X:X:X:X:X:X:X:X:XA 2.2.1.1.2.9 ",
"-.xXlXlXlXlXlXxXlXxXlXxXlXlXlXlXlXlXlXlXlXxXxXxXlXxXxXlXlXvXlXvXlXxXxXlXxXlXxXxXlXlXlXkXxXx k d p u p.6.3.,.= e L.xXlXkXc.J f.f.1 X t N.].].].].].].].].].].H.I.J.u - Y.f z J.V.t L.|.L.L.} { { ^.2 lXkXlXBX,X;X'.&X&X&X:X:X:X:X:X:X:X:X:X:X:X:XR 2.2.2.2.0.2.w ",
"-.bXxXxXlXlXlXlXlXxXlXlXxXlXxXlXlXlXlXlXbXxXxXxXxXxXxXxXlXlXlXlXlXxXxXlXlXxXxXxXlXlXlXlXbXP.k.g.k.* H.: <.bX0.7.4.xXlXlX@ J g.s.#.].].N.H ].^ +X+XM ].].].].].].].].].= D.D.L p 0XL.{ Y.J.x.y } } nXkXlXkXZX'.'.:X&X`.&X;X'.:X:X:X:X:X:X:X:X:X:X_.2.2.4.0.0.2.w ",
"$.xXlXlXlXlXxXbXxXxXlXxXlXlXlXlXvXxXlXxXbXxXlXxXlXlXbXxXvXlXlXlXlXlXlXlXlXlXxXxXlXlXlXlXh Z.x C.C.* D.f ; < p D = lXlXlX1 f.f.*.| > D u h.J +X$X/ +XM ].].].].i L s *.L.L.Y.B.J.J.u Y.S.L.' L.x.5.kXlXlXkX..'.:X;X;X&X&X;X:X:X:X:X:X:X:X:X:X:X:X_.2.4.4.4.4.0.9 ",
"-.lXlXlXlXlXbXlXlXlXbXlXlXlXxXbXlXlXvXlXlXlXlXlXlXlXxXlXlXlXxXxXlXlXlXlXlXlXlXlXxXxXxXkX# P.k.C.Z.6.- / / #XS x x D xXlXlXc.: ,.> N.P.U.> m.#X#X+X+X+XO ].].].Y.B.B.J.M.s.# J.J.J.p Y.F.S.u u ` ]   lX-.4 | :X'.;X;X&X`.&X;X:X:X:X:X:X:XA A _._.2.2.2.4.4.4.4.9 ",
"-.lXlXlXlXxXbXxXlXlXvXlXlXlXlXbXxXlXbXxXlXlXlXlXlXlXlXlXxXxXlXxXlXlXlXlXlXlXlXlXlXxXxXkX# C.C.U.A ,Xa #X#XW oXz x G i lXlX> #.$ J.P.C.I.].u m.y y i : i ].U.L.x.D.J.B.J.J.U.S.' ] d J.- G.G.x.z.z.5.4 @.%.-.4 `.`.;X&X&X&X`.:X:X:X:X:X:XA 2.2.2.4.2.4.4.4.4.1.0 ",
"9 7 xXbXlXlXxXlXlXlXlXxXbXlXlXlXlXlXxXxXlXlXlXlXlXlXlXlXlXxXxXxXlXlXlXlXlXlXlXlXlXlXlXlX# Z.@ ,.=.nX: $X#X#X#X% 6.4.4.lXv <.X ].M.C.C.r ].].H.u ].].].].].# J.Y.D.z.` L z.x.` x.x.L.L ` ' G.: z.; Y B . #.%.#.& `.;X&X&X&X&X&X:X:X:X:XR 2.2.2.2.4.4.2.2.4.1.2.6 ",
"w w nXnXlXbXlXlXlXlXlXxXnXlXvXlXlXlXxXxXxXlXxXxXlXxXxXxXlXlXlXlXlXlXxXlXxXxXlXxXlXlXlXlX= 1.,.lX= D t f.% 9X#Xa 4.;.lXlXV 2 ].].u C.D.].].].D D ].].].T.J.V.V.M.` x.z.` ` f x.x.] z.x.` ' @ G.S.[ [ ; 5.#.#.#.@.gX`.:X&X=X&X`.:X:X:X:XR 2.4.2.0.#.0.4.2.1.1.w 9 ",
"w w w w ;XlXlXlXlXxXxXxXlXlXlXlXlXlXlXlXlXlXlXxXxXxXxXxXlXxXlXlXlXlXxXxXxXxXxXxXlXlXlXlXxX3.lXO F x t s.7.7.6.1 4.lXlXlX$ ].].].].@ ].].].].M H y ].f J.J.J.H.L.x.` x.z B.V.L.T.x.x.S.L x.L G.` [ n F.5.V #.#.#.4 `.`.`.`.&X&X:X:X:XA 2.4.0.2.2.0.2.2.0.1.w w w ",
"w w w w 9 lXlXxXxXxXxXxXxXxXlXlXxXxXxXxXlXbXlXlXlXlXxXxXxXxXlXlXlXlXlXlXlXlXkXlXlXlXlXlXxXlXlXH G G z Q ( ( M 3.1.lXlXkX].].].].].].].i c.Q A a H ].].].* f L.z.` ` L y M.H.Y.L.Y.y I.I.I.- G.o.5.o nXCX .2 @.#.4 #._.`.'.;X'.`.:X:X1.2.4.4.2.2.2.-.9 w 0 w w 5 ",
"w w w w w 4.4.4.1.1.1.1.w w 4.4.4.1.1.1.1.1.1.4.0.,XkXlXbXbXvXbXbX4X,X_.0.<.;.1.1.1.1.1.4.4.0.z H s d.a oX( #X< 1.4.8.X ].].].].].].].a.^ ) ].> k D D * % I.A.U.u ` ] } _ ` ` J.Y.` u I.I.Y.> o.X lXlXlXkXV | +.2 #.#.#.#.#.+.#.#.#.#.#.2.2.2.#.#.9 9 w 0 5 5 5 ",
"w w w w w w 2.4.4.4.4.4.w w w 2.4.4.4.4.2.4.2.2.4.2.2.4.4.7.4.1.2.2.4.2.3.2.1.2.8.0.8.1.2.4.0.2.<.A h.m OXOXl.@X1.$ ].].].].].].].].y Q Q s ].1 D ].y l J P.d.Z.Z.u ' ' S.] ` L.] ` x.Y m [ [ o lXlXkXlXnX8.w 9 4 +.#.#.+.+.+.#.#.#.#.#.#.#.#.#.w 0 9 0 5 5 5 5 ",
"w w w w w w w w w w w w w w 9 w w 0 w w w w 0 w w 0 0 w w 0 w w 9 9 0 w w w 0 * f 0 0 0 0 0 0 0 w - L ].c.XXOX+X].].].].].].].].]...Q ) > ].].].].H G D d.C.C.Z.C.L.J.I.s.z.` ] x.x.P T I T $ xXlXkX7 AX2 -.w w 0 0 0 9 0 0 0 w 0 0 0 w w w w w w w w w w w w w ",
"BXMXMXBXMXMXMXMXMXBXBXBXBXBXBXMXBXBXMXBXBXBXBXMXBXBXBXBXBXBXMXMXMXgX5 9 0 0 9 - D w 0 w 0 0 M N i h.= ].].s @XoX].].].].].].].].].].].].].].].].u G G i h.D K N P r I.L.` ` z.` ] n I I P X lXlXxXzXAX;.;.$ -.$.AXZXAXAXDXDXDXJXAXDXSXDXDXDXDXSXAXDXAXAXAXAXAXDX",
"SXSXSXbXbXbX4X4X4XvXMXBXNXNXNXNXMXNXNXNXNXNXNXNXNXMXNXNXNXNXNXMXMX#.#.$.9 0 w u H $.X w 0 { ( { M P.].].].].].].].].].].].].].].].].].].].i Y.L.H G G F.r h.Q I I ^ ; x.` ` - U.z _ T I R lX6 BXCXDX<.;.$.& %.@.ZXZXZXHXHXHXHXHXSXHXHXJXJXJXHXSXDXZXZXZXZXZXSXSX",
"4X4X4X4X4X4X4X4X4X4X4X4X5X5X5X,X,X:X:X:X:X:X,X,X,X,X:X:X,X:X:X;X;X#.#.#.6 6 w H H %.#.. : W ~.v.H.i ].].].].].].].].].].].].].].].].].].f J.J.L.G G y L.p k.c.Q I I [ L ` ` H.U.I.} T T R 8.1.<.2.4 <.<.X =.#.V gXhX4XgXgXgXgXgXgX4XhX4X4X4XhXgXgXgXgXgXgXgXgXgX",
"gXgXgXgXkXgXgXgXgXgXgXgXgXgXgXgXgXgXgXgXgXgXgXgXgXgXgXgXgXgXgX&X&X5X=.# N.L.L D : =.;.s ^.[.{ u P._ i ].].].].].].].].].].].].].].].].].> J.B.J.r S.} } y r h.Y I Y n < ` Z J.L L z.; T Y 8.2.<.<.2 <.. ;.;.$.2X,XgX4X4XgXgXgXgXgXgXgXgXgXgXgXgXhXgXgXgXgXgXgXgX",
"gXgXgXgXgXgXgXgXgXgXgXgXgXgXgXgXgXgXgXgX4XgXgXgXgXgXgXgXgXgXgX;X;X`.r Z.a.C.p.D @.#.;.;.. #.#.D.p I.P.M.].].].].].].].].L.].].].].].].].].h D.L.J.` } y Q n h.u x.` ` ` x.S.v.) L.J.; I T Y , $ 2.b X #.nXlXhX4X4X4X2XgXgXgXgXgXgXgXgXgXgXhX2XhXgXgXgXgXgXgXgXgX",
"gXgXgXgXgXgXgXgXgXgXgXgXgXgXgXgXgXgXgXgXgXB gXgXgXgXgXgXgXgX:X'.'.q.C.Z.C.C.F s ;.#.%.;.%.#.#.N.: Z.H V.].].: L.].].].].J.# Y.i ].].].].].].- J.J.L.9XoX@XoXK U.x.z.` - - x.[ [ Y.S.I E T T T Y 2 #.=.;.#.4XhXgX4X4XgXgXgXgXgXgXgXgXhX4XgXgXgXgXhXgXgXgXgXgXgXgX",
"gXgXgXgXgXgXgXgXgXgXgXgXgXgXgXgXgXgXgX4XgXNXgXgXgXgXgXgXgXgX&X=X;X@ C.C.Z.H.D ^ 1 =.#.#.%.;.# t #.N.C.I.].].].D.H.].1 ].M.D.H.i ].].].s % ].% u U.L.oX XoXoXJ h.y S.T.h.h.H.) /.< P E T T E Y ) & ,.%.;.,.4X4X4XgXgX4XgXgXgXgXgXgXgXgX4XgXgXgXgXgXgXgXgXgXgXgXgX",
"gXgXgXgXgXgXgXgXgXgXgXgXgXgXgXgXgXgXgXgXgXgXgXgXgXgXgX4X4X4X:X:X;X6.*.A * G Q U Y %.;.=.> =.M.%.#.#.M.p 0 ].].].s.f J.: ].L.D ].].].].L.L.& & L.V.M.oXoXoX+XH H.r y c.c.l.c.c.Y T I Y F.[ m Y Y A ;.,.#.& 2 2X4XgX4X4XgXgXgXgXhXgXgXgXgXgXgXgXhXhXgXgXgXgXgXgXgX",
"gXgXgXgXgXgXgXgXgXgXgXgXgXgXgXgXgXgXgXgXgXgXgXgXgXgX4X4X4X:X=X:X;X+.#.R H H ^ U I ;.*.H.m.! h.#.#.#.%.%.& & ].].].i B.B.].].Y.J.Y.].].Y.H.t J.N.' } oXoX+XK H u d.5.f.l.l.l.f.s.T T Y D.d [ T m -.;.kXbXgX,X4 v V b 2XgXgXgXgXgXgXgXgXgXgXgXgXgXgXgXgXgXgXgXgXgX",
"gXgXgXgXgXgXgXgXgXgXgXgXgXgXgXgXgXgXgXgX:XgXgXgXgXgX4X4X:X:X&X:X&X:X'.= d.: U I ) ,.s.K m.h.s.#.=.#.#.b b %.= Y.L : J.J.L #.%.J.H.p % u Y.L.V.L.^.^.@X@XK H - } H u d f.l.l.c.D n I T * D.n T B lXlXlXxXgXgX4XhX4X5XgXgXgXgXgXgXgXgXgXgXgXgXgXgXgXgXgXgXgXgXgXgX",
"gXgXgXgXgXgXgXgXgXgXgXgXgXgXgXgXgXgXgXgXgX4X4X4X4X4X4X:X:X;X;X= # # = j H $.% ^ < +.g.g.h.z d U ^ I #.X %.%.%.L.H.H.H.J.u #.Y.Y.L.L.L.J.Y.L < ^.(.|.a } H a /.n N H : T Y T T ) T T I I Y m ' 2 lXlXlX& 4X4XgX4XhXgXgXgX7 gXgXgXgXgXgXgXgXgXgXgXgXgXgXgXgXgXgXgX",
"gXgXgXgXgXgXgXgXgXgXgXgXgXgXgXgXgXgXgXgX4X4X4X_.4X4X4X:X:X5.H G G x G h.: $.6 Y *.= h.p = s u ^ U I N #.%.%.%.#.@ H.J.J.B.H.L.` x.Y.J.s.` L.< }.|.|.|.(.< /.a ^ ^ a H < I I ! +XoXc.a N T T & '.xXxXlX4X4XhXgXgXgXgXgXgXgX,XgXgXgXgXgXgXgXgXgXgXgXgXgXgXgXgXgXgX",
"gXgXgXgXgXgXgXgXgXgXgXgXgXgXgXgXgXgXgXgX4X4X4XSX4X4X:X:XO H G G ! @XQ h.*.@.w VXkXlXlX4.2 Z u < I ^ ^ #.%.u J.V.H.D.M s D.J.J.x.M /.S.z.L Y.y }.|.^.^.(.(.|.n ^ ^ P u H a s Q @X+X+X< T T Y 4 ;.#.@.2 2X4XgX4X4XgXgXgXgXgX-.gXgXgXgXgXgXgXgXgXgXgXgXgXgXgXgXgXgX",
"gXgXgXgXgXgXgXgXgXgXgXgXgXgXgXgXgXgXgX4X4X4X4X4X4X4X:X;XH G F ! OX XoXm.+.@.w ZXkXlXxX'.xX-.s.2 1 m T 1 i J.J.J.H.J.x.] ] s.L.] N |.} (.; V.I.v.^.L.^.v.|.|.a I I N [ y h.K ; @X9Xa E n y < w | 8 V $ gXgX4X4XgXgXgXgXgXgXgXV gXgXgXgXgXgXgXgXgXgXgXgXgXgXgXgXgX",
"gXgXgXgXgXgXgXgXgXgXgXgXgXgX4X4X4X4X4X4X4X4X4X4X4X4X:X:X+.B * v.+XoXoXm.#.@.6 ZXkXxXlXlXlX2 L -.| 0 0 0 w : u u J.J.L x.x.' z.] ] M ) ) }.J.I.J.L.N.z.I.c.}.' I ^ ) |.[ Y l h.K a Y ) c.! l.c.s VXgX2XgX4X4XgXgXgXgXgXgXgXgXgXgXgXgXgXgXgXgXgXgXgXgXgXgXgXgXgXgX",
"gXgXgXgXgXgXgXgXgXgXgX:XgX4X4X4X4X4X4X4X4X4X4X4X4X4X:X:X:X+.#.+X+XOXW e u @ 1 ZXlXlXlXkXkX6 a @X< 0 0 0 0 w L.J.Y.` x.s.J.L.J.Y.< U.J.V.I.s.J.J.V.I.v.V.V.V.V.N - 9X%XE ) f u u H.h.D c.l.b.c.*.VXgX4X4X4XgXgXgXgXgXgXgX..gXgXgXgXgXgXgXgXgXgXgXgXgXgXgXgXgXgXgX",
"gXgXgXgXgXgXgXgXgXgXgXgXgX4X4X4X4X4X4X4X4X4X4X4X4X4X:X:X&X&X&X#X@Xy d.@ l.p.Z.# lXlXlXlXlX5 oX/ #Xs w w w * t J.L.` x.L.J.L._ L.N - I.I.V.V.' v.T.v.}.v.L.V.V.s.V.} < s U.K N.Y [ u h.H.a y 5 V BX2XgX4X4XgXgXgXgXgXgXgXgXgXgXgXgXgXgXgXgXgXgXgXgXgXgXgXgXgXgXgX",
"gXgXgXgXgXgXgXgXgX4X4X4X4X4X4X4X4X4X4X4X4X4X4X4X4X4X:X:X`.=X`.1 #.#.H.@ g.f.J Z.1XlXkXkXlX1 oX/ #Xd J.h J.J.J.J.L.J.D.` ` x.z.Y.P [ ) y ; { ^.v.|.|.^.(.F.H.L.v.^.^.^.j T.Z.C.N T p H p h.i w h @ u gX4XgXgXgXgXgXgXgXgXgXgXgXgXgXgXgXgXgXgXgXgXgXgXgXgXgXgXgXgX",
"gXgXgXgXgXgXgXgXgX4X4X4X4X4X4X4X4X4X4X4X4X4X4X4X4X4X4X4X`.&X#.+.2.R s.e f.f.f.l.# lXlXlXlXlXOX#X#Xy J.L.J.L.s.` ` x.s.J.s.x.] _ { [ [ /.c.L.L.I.v.I._ (.I.I.z.V.{ (.^.L T.Z.C.Y P L G H : p.u c.m.Z.U.8XgXgXgXgXgXgXgXgXgXgXgXgXgXgXgXgXgXgXgXgXgXgXgXgXgXgXgXgX",
"gXgXgXgXgXgXgXgX4X4X4X4X4X4X4X4X4X4X4X4X4X4X4X4X4X4X4X4X&X&X;X;X= @ r U.* f.g.f.L xXxXnXlXlXa OXOX1 + x.x.x.` } 5.` J.J.` z.x.< }.|.|.|.V.V.V.L.I.V.T.|.T.V.V.(.(.(.|.t C.C.t T T i G G N 1 K C.C.P.C.U.4XgXgXgXgXgXgXgXgXgXgXgXgXgXgXgXgXgXgXgXgXgXgXgXgXgXgXgX",
"gXgXgXgXgXgXgXgX4X4X4X4X4X4X4X4X4X4X4X4X4X4X4X4X4X4X4X4X&X&X&X*.N.Z.! N.+.1 z f.c.xXlXbXlXlXnX9X@Xq.5 S.x.` s { a ` J.Y.` x.M |.(.< [ |.V.I.H.} V.I.T.|.} V.N.v.v.|.|.} N.N.Y E m Y H H P Y K H.C.k.k.C.= gXgXgXgXgXgXgXgXgXgXgXgXgXgXgXgXgXgXgXgXgXgXgXgXgXgXgX",
"gXgXgXgXgXgXgX4X4X4X4X4X4X4X4X4X4X4X4X:X4X4X4X4X4X4X4X4X;X&X;XU.Z.J k.d.h $.w 0.7XlXlXlXBXxXlX2 a _.xX& ` ` M n M I P ` x.< (.|.(.^.(.(.U.}.|.} V.V.}.|./.(.v.u I.I.) P m N I E N >., s I Y : H 1XO % *.1.gXgXgXgXgXgXgXgXgXgXgXgXgXgXgXgXgXgXgXgXgXgXgXgXgXgXgX",
"gXgXgXgXgXgX4X4X4X4X4X4X4X4X4X4X4X4X4X4X4X4X4X4X4X4X4X4X:X&X<XZ.F k.k.S r X.w xXlXxXlXlXxXlXkX$ xX5XlXkX& ` a }.P P ] x.` z._ ; * } |.(.|.|.|.|.I.{ |.}.|.|.|.%XY.N.* I I I I Y & lXlXxX. Z 5 H *.,.,.,.gXhXgXgXgXgXgXgXgXgXgXgXgXgXgXgXgXgXgXgXgXgXgXkXgXgXgXgX",
"gXgXgX4X4X4X4X4X4X4X4X4X4X4X4X4X4X4X4X4X4X4X4X4X4X4X4X4X=X:Xh C.P.Z.C.U h.> 6 lXlXlXxXlXxXlXlXlX& xXlXlXlX6._ } } x.x.f x.] x.` * (.|.(.^.}.N |.|.(.(./.|.|.Z h o.J.; I ^ Y Y   lXlXbX,.;.& w D * :.,.,.;.hXhXgXgXgXgXgXgXgXgXgXgXgXgXgXgXgXgXgXgXgXgXgXgXkXgXgX",
"4X4X4X4X4X4X4X4X4X5X5X4X4X4X4X4X4X4X4X4X4X4X4X4X4X4X4X4X`.:XO H.k.Z.Q ^ d D.6 lXkXxXlXlXlXlXlXxXxXxXkXlXlXX.] _ _ x.a Y.x.` ` x.n |.|.a Y.Y.- |.|.(.(.(.< |.o.o.< m N I [ }.& lXlXgX1.,.,.. 9 a = ,.,.,.,.hX4XgXgXgXgXgXgXgXgXgXgXgXgXgXgXgXgXgXgXgXgXgXgXgXgXgX",
"#.#.#.=.=.=.=.=.=.=.=.=.=.=.=.=.=.=.=.=.=.=.=.=.=.#.=.=.#.#.O Z.# P ^ ^ I r l > 5 1.1.;.0.kXbXbXlX2 kX4 1.2 ] * ; Y.L.# x.` ` S.|.}.n I.L.J.# { { %X|.c T < o.V [ I I T P $ 8.xXnX#.,.<.$ 9 9 - # w w w 1.#.#.#.V ,X4XhX4X4XgXgXgXgXgXgXgXgXgX5X4XkXkXgXkX'.#.#.",
",.=.#.#.#.#.=.=.#.=.=.#.=.1.1.1.1.1.1.1.1.1.1.1.1.=.=.=.#.#.Z =.*.U I ^ n w s.r m.D.: 1.3.2.1.3.1.<.6 2.4 A Y n - L.# S.` # ' S.F.T < I.J.I.u Y.U.U.) 1 T T o.> E I U T T A -.<.2.,.,.| w w 9 > p u : : V ,.=.,.,.,.,.,.,.,.,.,.,.,.,.1.1.,.1.1.1.3.3.3.3.3.2.3.",
"7 7 6 8 7 8 8 8 7 0 7 7 7 8 8 7 7 8 8 7 0 8 7 8 8 8 8 8 0 8 8 8 5 I I P 5 w 8 P.# > z * w b 0 w b V V 6 w . [ n x.5.` ` D J.Z x.) T < V.L.a U.D I.J.Z V T T o., I Y B 1 , $ $ ,.2.,.;.X w w w w 9 g f f i 7 b 0 8 8 8 8 8 8 8 8 7 0 8 8 b 8 7 7 7 7 7 8 8 8 8 7 ",
"X.$.7 0 w w 0 w w w w b $.X.X.X.X.X.@.$.$.$.$.4 4 4 4 4 4 4 4 4 6 < I % 6 6 w 3 H.3 3 D.5 6 4 4 4 7 w V ..<.N v.i x.5.5.L.Y.S.` N x.] * P I I.j V.- X.o.h ) o., T . ;.,.;.#.#.. 2 <.X 7 6 4 6 4 6 6 6 3 6 6 6 4 4 4 4 3 4 3 3 4 6 4 4 3 6 4 6 *.0 X.$.$.$.$.$.$.",
"HXSXBXw w ; 0 w w w w KXDXHXHXSXZXHXJXZXvX4X,X2X,X,X,X,XbXBXZXZXAXA *.7.ZXZXHX7.r K e ZXZXZXZXZXZXSX4 ,.#...' ; * x.5.' u S.x.` ] x.x.P I I Y.I.- P P < o.o.o.h Y $.8.4 ;.;.#.%.#.$. .4 ZXZXZXZXSXZXAXZXZXAXAXZXZXZXSXZXZXZXZXZXZXZXZXZXSX@.PXv JXZXDXSXSXSXSXSX",
"xXbXbX#.#.; ; ; ; 7 PXJX,X4X4X4XhX4X4X4XhX4X4X4X4X4X4X4X4X,XbX,X2X,X,.2X,X2X`.<.Z.H.Z.6.,X,X,X2XhX4 ;.;.;.,.& ` % < v.v.] v.a } < x.] I I I m < [ I T I Z & o.o.& ;.%.MXCXDXBXJXJXmXkXkXxXlXlXlXlXlXlXlXlXkXbXCXSXZXZXZXZXZXZXZXSXAXMXbXgX5 nXv xXlXvXbXxXxXxXxX",
"bXbXbXlXkX+.; J : V SXBX4X4X4X4X4X4X4X4X4X4X4X4X4X4X4X4X4X4X2X2X2X2X2X2X,X2X7.4.U.Z.k.= 2X2X2X2X2X2 #.%.=.#.X ] a v.m m < Y }./.N _ _ E I I I I I I T T T T 1 o.2 ,.%.V PXlXlXxXlXlXlXlXlXlXlXlXlXlXlXlXlXlXlXlXlXlXxXlXxXxXlXlXlXlXlXlXbX@.xXmXbXbXbXlXxXxXxXxX",
"bXbXxXbXMX+.;.D J X.SX4X4X4X4X4XhX4X4X4XhX4X4X4X4X5X5X5X2X4X4X4X2X2X2X2X,X2X2X3.>.Z.Z.-.,X2X2X2X2XgX$.%.;.#.#.X 5.< x.x.* T E Y : Y T E I T Y T I I T T < < < o...;.;.& kXlXlXlXlXlXlXlXlXlXlXlXlXlXlXlXlXlXlXlXlXlXxXlXlXxXxXlXlXlXlXlXC lXxXlXbXbXbXbXbXxXxXxX",
"xXbXxXlXxXDXD D J  .SX4X4XhXhX4X4XhX4X4XhX4X5X4X4X4X4X4X5X5X4X,X4X,X2X4X,X,X2X,X1.A Z.4X2X,X2X2X,XgX;.;.;.=.;.;.& ] * Y E T < ] ] Y T c m P a n I P < v.v.} } *.-.;.;.& lXlXbXlXlXlXlX2XlXlXlXlXlXlXlXlXlXlXlXlXlXlXlXlXlXlXlXlXlXlXxXxXV lXC lXxXbXbXbXxXxXxXxX",
"xXbXxXxXbXxXD J D ..= 2X4X;X4X4X4XhX4XhX4X4X4X4X8X8X8X8X8X8X5X2X4X5X8XfX4X2X,X,X2X3.= 4X2X2X2X2X2XhX4 ;.;.;.v #.X % E E E Y ` ] < v.} } } < v.v.T < } n v.} % A #.=.;.& lXlXV lXlXlXlXlX2XlXlXlXlXlXkXlXlXlXlXlXlXlXlXlXlXlXlXlXlXlXxXxXV xXC xXbXbXbXbXbXxXxXxX",
"xXxXxXxXxXxXD D ; @ G I.Z.4X4X4X2X4XhX4X4X4X8X8X8XwXwXwX8X7X5X4X8X2X5X8X,X2X2X,X,X2X2X,X2X,X2X2X,X,X<.,.-.@.V ,.,.;.2 2.& 8 X $ Y S.S.< } } < v.v.] } I E R $ `.#.#.#.MXlX'.xXlXlXlXlXlXlXlXlXlXlXlXlXlXlXlXlXlXxXxXlXlXlXlXlXlXlXlXmX5 PXv PXbXlXxXxXxXxXxXxXxX",
"bXxXxXxXxXbXD # H h.E.p.P.H.6.4X4X4X4X8X8X8X8XwXeXGXeXeXeXwX8X7X5X5X2X2X,X2X,X2X2X,X,X2X2X2X2X,X2X2X| V v | ;.,.;.;.;.%.%.;.b ;.  ] _ N } } v.v.} } } Y Y & 2.0.4 =.| lXlXlXlXlXlXlXlXlXlXlXlXlXlXlXlXlXlXlXlXlXlXlXlXlXlXxXxXlXlX4XgXkXxXbXxXxXxXxXxXbXbXxXxXxX",
"xXxXlXxXvXbXD ; k.I.Z.Z.Z.C.Z.s 4X2X2X4X5X8XwXeXLXLXrXrXeXeXwXwX8X5X5X2X2X2X2X2X2X,X2X2X2X2X2X2X2X2X'.| SX,X2X .<.;.;.$.nXbXBX;.. m T T n } ) y v.} Y   MXA ;.b 0.6 gXlXlXlXlXlXlXlXlXlXlXlXlXlXlXlXlXlXlXlXlXlXlXlXlXlXlXlXlXlXlXlXvXC bXbXbXxXxXxXbXlXxXxXxXxX",
"xXxXlXxXxXxX; x k.r C.C.k.C.C.:X4X2X5X5X7XwXeXeXLXIXrXrXIXrXeXwX8X4X4X2X2X2X,X2X,X,X2X2X2X2X2X2X2X,XC -.4X2X2X2X$ %.$.4 $ BXBX;.$ T T E ) p D u & & 9.nXxXb #.;.zXSXlXlXlXlXlXlXlXlXlXlXlXlXlXlXlXlXlXlXlXlXlXlXlXlXlXlXlXlXlXlXlXxXlXBXxXbXxXxXxXxXxXxXxXxXxXxX",
"xXxXxXxXxXxX; r h.+.* # u C.I.@ 4X2X5X8X8XwXeXrXLXIXIXsXdXrXeXwX8X8X4X2X2X2X,X,X2X2X2X2X2X2X2X2X,X8.mX2X2X2X2X,X2X$ hX2X,X'.2 %.$.Z T T f H Z #.#.;.;.2 . ;.$ & VXlXlXlXlXlXlXlXlXlXlXlXlXlXlXlXlXlXlXlXlXlXlXlXlXlXlXlXlXlXlXlXbXlX4XvXbXbXbXbXxXxXxXxXxXxXxXxX",
"xXxXxXD D lX; x h.d.#.+.A +.+.u 2X4X5X4X8XwXeXrXdXfXdXIXdXrXrXeX8X8X4X5X2X2X2X,X2X2X2X2X2X2X2X2X2X5 2X2X2X2X2X2X2X2X,X,X2X,X,X2 ;.. I ) H s 4 #.#.#.;.<.;.;.4 | ZXlX2XlXlXlXlXlXlXlXlXlXlXlXlXlXlXlXlXlXlXlXlXlXlXlXlXlXlXlXxXlXbXlXbXxXbXbXbXxXbXxXxXxXxXxXxXxX",
"xXxXD G F p.x i.u h.R +.+.+.+.+.5X4X4X5X8XwXeXrXdXfXdXdXIXrXrXeX8X8X4X5X,X2X,X2X2X2X2X2X2X,X2X2X2X7 ,X2X2X2X,X2X,X,X,X,X,X,X3X1 ;.$ P y L 1.KX;.@.%.;.C ZX-.& <.JXlXlXlXkXlXlXlXlXlXlXlXlXlXlXlXlXlXlXlXlXlXlXlXlXlXlXlXlXlXlXxXxXlXxXxXbXxXxXxXxXxXxXxXxXxXxXxX",
"xX= i.i.i.i.i.4.6 ! SX+.+.+.+.+.4X5X4X4X8XeXeXrXdXfXIXIXsXdXrXeX8X8XwX8X5X2X2X2X2X2X2X2X2X,X2X2X2X4X2X2X2X2X2X2X2X2X2X,XO H i.i.H & N D A <.ZX2 $ SXZXAXkXlXlX4 $.lXlXlXlXlXlXlXlXlXlXlXlXlXlXlXlXlXlXlXlXlXlXlXlXlXlXlXlXxXxXxXxXxXxXxXxXxXxXxXxXxXxXxXxXxXxXxX",
"4.4.4.i.H p.H 4.6 | SX4X2X4X4X+.5X4X4X4X8XwXeXrXrXdXdXsXLXIXeXwX8XwXIXeX5X,X2X2X,X2X,X2X2X2X2X2X2XlX2X2X,X,X,X2X4X5X2X,X# G G G G t D i ;.;.lXJXkXkXlXlXlXxXlXlX;.6 lXlXlXlXlXlXlXlXlXlXlXlXlXlXlXlXlXlXlXlXlXlXlXlXlXlXlXxXxXxXxXbXxXxXlXvXlXxXxXxXxXbXxXxXxXxX",
"xXxX4.4.3.>.a : 6 ..SX4X4X4X4X4X4X4X5X4X7X8XwXeXLXrXrXrXrXLXwXwX7X8XrXeX5X2X2X2X2X2X,X2X,X2X2XhXgX2X2X2X2X2X2X2X2X,X2X4X<.: H F F H H ;.,.& HXlXlXlXkXlXlXlXkXlXlX4 PXlXlXlXlXlXlXlXlXlXlXlXlXlXlXlXlXlXlXlXlXlXlXlXlXlXlXxXxXxXxXxXxXxXxXbXbXxXxXlXbXxXxXxXxXxX",
"xXxXlXxXbX# J W M | SX4X4X2X2X2X4X5X5X4X8X8XwXwXeXeXrXeXeXLXwX8X8X4X8X3X2X2X2X2X2X2X2X2X2X2X2X2X2X2X2X2X2X,X,X,X,X,X,X2X;.,.=.B - H : <.| ZXjXlXlXlXlXlXlXlXlXlXlXkXDXlXlXlXlXlXlXlXlXlXlXlXlXlXlXlXlXlXlXlXlXlXlXlXlXbXbXbXlXxXxXxXxXlXxXxXxXxXxXxXbXbXxXxXxXxX",
"d d d xX; # J #X{.a JX4X4X5X5X4X4X2X4X8XLXwX8XwXwXeXeXeXwXwX8X5X4X5X5X2X2X2X2X2X2X2X,X2X2X2X2X2X2X2X2X2X2X2XA a oXOXy ,X2X,X,X- F : w <.gXlXkXlXlXlXlXb lXlXlXlXlXlXDXlXlXlXlXlXlXlXlXlXlXlXlXlXlXlXlXlXlXlXlXlXlXlXbXbXbXxXxXxXxXxXbXxXxXxXxXxXxXbXxXvXxXxXxXxX",
"OXOX9Xh.j x d #XW @XBX4X4X2X2X2X4X4X2X8XIXwX8X8X8X8X8X8X8X8X8X4X4X4X4X2X2X2X2X2X2X2X2X2X2X2X2X2X2X2X2X2X2X: OXOXW W  Xc.2X,X@ H Q * 5 1.-.lXxXlXlXlXX xXlX`.lXkXlXxX:XkXlXlXlXlXlXlXlXlXlXlXlXlXlXlXlXlXlXlXlXlXlXbXxXxXxXlXxXxXbXxXxXxXxXxXxXxXxXlXxXxXxXxXxX{.",
"{.{.{.: ; D l.OX X| kX4X2X4X4X4X4X2X4X5X8X8X4X4X8X8X8X8X8X4X4X4X4X5X4X2X2X,X2X2X4X,X2X2X2X2X2X2X2X2X2X,X2X,X: oXoXoX@X( % r g.y oX{.y b ;.lXlXlXlXX lXlXlXjX. kXlXlXlX8 V MXlXlXlXlXlXlXlXlXlXlXlXlXlXlXlXlXlXlXxXxXxXbXxXbXbXbXxXlXxXxXxXxXxXxXxXbXbXxXxX{.{.OX",
"OXOXK e x lX>.a +XoX5XhX4X4X4X2X2X4X4X4X4X4X5X5X4X4X4X4X4X8X4X5X4X4X4X2X2X2X2X2X2X2X,X2X2X2X2X2X2X2X,X,X,X8.,.=.y oXOXS r x H ! oXW @X2 %.MXlXlXlX$ lXlX& ;.| lXlXlXlXxXlX& kXlXlXlXlXlXlXlXlXlXlXlXlXlXlXlXlXlXxXxXxXxXxXxXbXxXxXxXxXxXxXxXxXbXxXxXxXbXxXs oXOX",
"d :.5.N.y 3.3.*.J | ,X4X4X4X4X2X4X5X4X4X4X4X4X4X5X5X5X5X5X4X4X4X4X2X2X2X,X4X2X2X2X2X2X4X2X2X2X2X2X4X= = G.2X,X0.1.:.>.h.x L ;.< +X{.J ;.;.$.lXlXlXlX& gX;.;.2 kXlXlXlXlXlXkXnXlXlXlXlXlXlXlXlXlXlXlXlXlXlXlXlXlXxXxXxXxXbXxXxXxXlXlXxXxXbXxXxXxXxXxXxXxXxXxXc.c.",
"; : h.H #Xy 3.#.6 8 2X4X2X2X5X4X4X4X2X4X4X4X4X4X2X4X4X2X4X4X4X4X2X2X4X2X2X2X2X2X,X,XbXv ,X2X2X4Xt F G G G = 2X2X,X: h.D - 3.:.R oX+X= 2 %.%.lXlXlXlX. =.| 2 lXlXlXlX9.kXlXlXlXgXlXlXlXlXlXlXlXlXlXlXlXlXlXlXlXlXxXlXxXlXxXlXlXlXlXlXbXxXxXlXlXlXxXxXlX1.4.s * g.",
": a.K oX( OX: 6 w w <.4X4X4X4X4X2X2X4X2X4X4X4X4X4X4X4X4X4X4X4X4X2X2X4X,X,X2X2X2X2X2XC C 2X,X,X7XH F G G G H ,X5Xt P.K W oX* =X+.v.a 9 3 ;.;.;.vXxXlXlX. kXlXlXgXX 3 kX. lXlXlXgXlXlXlXlXlXlXxXlXlXlXlXlXkXkXxXlXvXbXvXbXvX,X0.1.1.4.1.1.1.1.4.4.4.7.7.4.4.* K S ",
"r H - ( OXW OXy w w ..1.,X4X4X4X4X5X4X4X5X5X5X:X0.<.=.,.,.,._.5X4X4X4X4X4X4X4X5X0.,.=.#.C 4X5X2X4Xt G G G G p.p.H * oXOXW OX* ;.1 6 w w 3 $ w V 3.<.2.1.1.1.. zXlXlX@.<.8.1.<.1.-.-.4.1.3.1.3.3.2.2.2.2.4.1.7.4.4.4.4.4.4.4.4.4.4.4.4.4.4.4.4.4.4.4.4.4.4.@ J 8X",
"p.j *.( OXl.OX> w w 9 ;.,.1.1.1.1.3.3.3.1.3.3.3.1.1.1.1.3.1.1.3.1.1.1.1.,.,.,., #.=.=.=.#.v v ;.<.<.5.t # H F y =.A OXOXW OX* <.;.6 9 o bXlXxXzXX b 3.3.1.<.#.bXlXlX;.=.. -.= e u.u.e *.1.4.7.4.6.O @ 6.2.7.7.4.4.4.4.4.4.4.7.4.4.4.4.4.4.4.4.4.4.d d c.: s.H p.",
"j w w S OXOX@X..w w w w w w w w w w 0 0 0 w w w 0 0 0 0 0 w 0 0 w 0 w 0 9 0 6 6 6 6 0 0 9 3 * f D H H H F a.H.4 6 9 d oXl.OX> w 0 2 q.bXbXxXbXbXC ..b 9 = & ;.;.;.;.%.o B.A.y.y.y.y.y.e.t.t.d.t.y.w.e.t.S F z w w w w w w w w w 0 0 0 w w w w ; y oX{.{.+Xk.H F ",
"3 X.X.X.,.a y * $.X.@.X.$.$.X.$.-.$.X.X.X.b w $.X.X.X.X.$.$.X.X.X.X.| 6 w 9 0 6 X...|  . .X.-.% % > A * k.K k.@ X...V D OX@XV | X nXbXxXbXbXbXxX@.$.X.X.s.t.o.g + X   A.w.A.y.W.W.y.y.e.t.w.w.e.t.t.d.S F F S X.X.X.....X.X.X.X.X.X.X.@.$.$.: #X#X#XoXoXt - a.P.",
"k.# ZXSXkXkXkXkXZXZXSXZXSXBXMXMXNXVXSXSXSXBX8 AXJXJXSXHXZXSXSXSXHX4.#.#.6 6 0 SXZXVXVXZXVXZXZXVXVXVXZXr P.k.k.@ 5XAXZX5X- % ZXAXjXbXnXbXbXbXgX=.;.$.+.BXBXr j j e j w.A.y.e.e.w.w.w.w.w.e.w.w.w.S S S F z = = VXVXVXVXVXVXVXVXVXVXVXVXVXVXVXVX; d @Xc.* J F Z.K ",
"k.+.+._._.+.+.#._._._._.`._._.`.`.`.`.`.`.`.`.SX_.=.PX`.`.`.`.`.`._.:.#.#.6 6 ZXZX:X;X;X;X;X:X;X;X;X;XM.k.k.U.=.:X;X;X2.#.+.;X'.  0.0.0.lXxX4 #.;.$ +.;X;X,X:X;X:X-.# w.w.e.e.w.w.w.e.e.e.t.e.j S # VXB _.`.`.`.`.`.7._._.`.`.`.`.`.`.`.`.`.`.0.#.+.#.*.J H.d.k.",
"U.+.+._._._._._._.`.`.`.`.`.`.`.`.`.`.`.`.`.`.JX_...VX`.`.`.`.`.`.`.#.+.#.| 6 VXZX;X;X;X;X;X;X;X;X;X;XN.k.L.Z #.;X;X;X&X+.;X;X=X. 0.0.0.0.<.,.,.X $.:X;X;X;X;X;X;X;X;Xt.w.w.l r.w.e.u.x W.j S S S 6.NX`.`.`.`.`.`.`.`.`.`.`.`.`.`.`.`.`.`.`.`._._._._.u H.; d.k.",
"Z +.+._.`.`.`.`.`.`.`.`.`.`.`.`.`.`.`.`.`.`.`.MX_.`.`.`.`.`.`.`.`.`.:X#.=...8 VX;X;X;X:X;X;X;X;X;X:X:Xf > #.#.<X;X:X;X;X;X;X:X;X'.& . 8.0.+.%.2 ;.@.;X;X;X:X;X;X;X;X;X:X- k S S S F W.j e.S S F H NX`.`.`.`.`.`.`.`.`.`.`.`.`.`.`.`.`.`.`._.+.: h 0._.j H.; d.L.",
"+.+._._.`.`.`.`.&X&X`.`.`.`.`.`.`.`.`.`.`.`.`.`.:X`.`.`.:X:X`.`.`.`.;X+.#...8 VX:X;X;X;X;X;X:X;X;X:X:X:X#.+.:X:X:X;X;X;X;X;X;X:X:X_.#.X 9.& $ #.;.;X:XxXV ;X;X;X;X;X:X:X= f f : r S S S k k S S BX`.`.`.`.`.`.`.`.`.`.`.`.`.`.`.`.`.`.`.q.D G G G H u k.B +.g.1 ",
"+._.`.`.`.`.=X`.&X&X&X`.`.`.`.=X`.`.`.`.`.`.`.`.BX`.`.`.:X:X&X&X=X=X:X#.=...w ZX;X;X;X;X:X;X:X;X;X;X;X;X;X;X:X;X;X;X;X;X;X;X:X:X;X;X:X;.,.,.,.#.;X;X2 ;.%.7 ;X;X;X:X;X;X;X:X;X:X# S S S e.t.S F VX`.`.`.`.`.`.`.`.`.`.`.`.`.`.`.`.`.`.`.H F F G D.F h.t #.A k.r ",
";.`.`.`.`.`.=X=X&X&X`.`.`.`.`.`.`.`.`.`.`.:X:X`.BX:X:X`.`.:X:X:X:X=X:X#.=...8 VX;X;X;X;X;X;X&X;X;X;X;X;X;X;X:X;X;X;X;X;X;X;X;X;X;X:X;X;X;X@.4.;X;X:X& 7 $ 2.;X;X:X;X;X:X;X;X;X;X> k S x e.e.S p NX`.`.`.`.`.`.`.`.`.`.`.`.`.`.`.`.`.`.q.# k k 1 +.H.x A +.#.i +.",
"`.`.`.`.`.`.`.`.`.`.`.`.`.`.`.`.`.`.`.:X:X:X:X`.`.:X:X:X:X:X:X:X:X:X;X#.=...w SX;X:X;X:X;X;X;X;X;X;X;X;X;X;X;X;X;X;X;X;X;X;X;X;X;X;X;X;X;X;X;X:X;X;X;X#.%.;X;X:X;X;X;X;X;X;X:X:X&Xq.h S t.t.S @ BX`.`.`.`.`.`.`.`.`.`.`.`.`.`.`.`.`.`.#.+.#.+.+.+.+.G y +.+.+.#.",
"`.`.`.`.`.`.`.`.`.`.`.`.`.`.`.:X:X`.:X:X:X:X:X:X:X;X;X:X:X:X;X;X:X;X;X+.=...8 VX:X:X;X;X:X;X;X:X;X;X:X;X;X;X:X;X;X;X&X;X:X;X;X;X;X;X;X;X;X;X;X;X;X;X;X;X;X;X;X;X;X;X;X;X;X:X:X:X:X:XG.F k S H f mX`.`.`.`.`.`.`.`.`.`.`.`.`.`.`.`.`.`.+.+.+.`.! +.k G G B +.=.1.",
"`.`.&X`.`.`.`.`.&X&X`.`.`.`.:X:X:X:X:X:X:X`.:X:X:X;X:X:X:X<X:X:X:X:X;X=.:...w VX:X:X;X;X;X;X:X:X:X:X:X;X;X&X:X;X;X;X;X;X&X;X;X;X;X;X;X;X;X;X;X;X;X;X;X;X;X;X;X;X;X;X;X;X;X;X:X:X;X:X:XD S S _ _ kX`.`.`.`.`.`.`.`.`.`.`.`.`.`.`.`.`.`.`.`.; ; / OXk G i.: +._.`.",
"`.`.`.`.`.`.`.`.&X&X`.`.`.`.:X:X:X:X:X:X;X;X;X;X:X:X:X:X:X:X:X<X:X:X:X_.:.+.w VX&X:X&X&X*X&X;X&X:X:X:X&X=X&X:X;X;X;X:X:X:X;X;X;X;X;X;X;X:X:X;X;X;X;X:X;X;X;X;X;X;X;X;X;X;X;X;X;X;X;X;X..@ F _ Z vX`.`.`.`.`.`.`.`.`.`.`.`.`.`.`.`.`.`.`.`.S oXOXOXk k G 1 =.`.`.",
"`.`.`.=X=X`.`.`.`.`.`.:X:X:X&X&X=X=X:X:X;X;X;X;X:X:X:X<X,X1X,X,X<X3X:X*X:.+.b ZX`.;X&X&X6X:X:X<XG.:X=X=X=X=XrX:X:X:X=X:X:X:X:X&X;X;X:X;X;X;X;X;X;X:X:X:X;X:X;X:X;X;X;X;X;X:X:X;X;X;X:X+.= F F *.bX`.`.`.`.`.`.`.`.`.`.`.`.`.`.`.`.`.`.`.`.D OXW OX+.+.k +.`.`.`.",
"`.`.`.`.=X`.`.`.:X:X:X:X:X:X&X:X:X:X:X;X;X;X,X:X:X<X,X<X,X<X<X,X<X,X:X6.>.+.: VX*X*X-X=X=X=X<Xt Z :X=X=X<X=X*X:X:X<X=X=X:X:X&X&X:X&X;X;X;X;X;X;X;X;X;X;X:X;X;X;X;X;X;X;X;X:X;X;X&X;X:X+.Z x S *.bX`.`.`.`.`.`.`.`.`.`.`.`.`.`.`.`.`.`.`.`.,.oXoX@Xs +.+.=.`.`.`.",
"`.`.`.`.`.`.`.`.=X=X=X=X:X:X:X:X;X;X:X:X;X;X:X,X<X<X<X*.3X<X<X3X3X3X<X*.>.=.1 * vX=X-X-X-X-X# H <X<X<X:X-X<X<X<X:X<X<X<X<X:X:X=X;X:X:X;X;X;X;X;X;X;X;X;X:X:X;X;X;X;X:X:X:X:X;X;X;X;X:X#.: F x -.vX`.`.`.`.`.`.`.`.`.`.`.`.`.`.`.`.`.`.`.`.1.Z  X1.,.+.`.`.`.`.`.",
"`.`.`.`.`.:X:X:X=X=X=X:X:X:X:X:X;X;X;X;X:X:X<X-X<X<X7X!.<X3X<X<X3X<X<X>.>.:.B pXcX-X-X-X1XZ Q.*.3X-X<X-X-X<X<X*X=X-X=X:X:X:X:X:X:X=X:X:X;X;X;X;X:X:X:X;X;X;X:X;X;X;X:X:X:X;X;X;X;X;X:X#.B H @ 8.bX`.`.`.`.`.`.`.`.`.`.`.`.`.`.`.`.`.`.`.`.`.1.' *.1.`.`.`.`.`.`.",
"`.`.`.:X:X:X:X:X:X:X:X:X:X:X:X:X:X;X;X;X:X:X<X%X-X3X<Xt -X: 7X1X1X1X<X5.5.*.Z s.# 1X6X6X6XpXpX1X6X1X1X%X-X1X-X<X-X-X-X<X=X=X:X:X:X;X:X&X;X;X;X;X;X;X;X;X;X;X;X;X;X;X;X;X;X;X;X;X;X;X;X#.#.6 9 2.mX`.`.`.`.`.`.`.`.`.`.`.`.`.`.`.`.`.`.`.`.`.4.4.`.`.`.`.`.`.`.`.",
"`.`.`.:X:X:X:X:X:X:X:X:X:X:X:X:X:X:X:X,X<X<X<X<X<X<Xi * u !.7Xs Z 6X7X5.).>.Z t pX6X6X6X* Q.u 7X6X6X1XfX1X1X-X1X-X<X-X<X-X<X:X<X:X:X=X:X:X:X;X;X;X;X;X;X:X;X;X;X;X;X;X:X;X;X;X;X;X;X;X#.#.4 9 <.mX`.`.`.`.`.`.`.`.`.`.`.`.`.`.`.`.`.`.`.`.`.`.`.`.`.`.`.`.`.`.`.",
":X:X:X:X:X:X:X:X:X:X:X:X;X;X;X:X:X:X<X<X<X<X<X3X3X3X: !.e : 7X6XQ.r 7X%X).' A FXQ.: 6X6XpXaX6X6X6X6X7X6X6X6X6X6X1X1X-X-X-X-X<X<X<X:X:X:X:X;X;X;X;X;X;X;X;X;X;X:X;X;X;X;X;X;X;X;X;X;X:X#.#.4 6 -.BX`.`.`.`.`.`.`.`.`.`.`.`.`.`.`.`.`.`.`.`.`.`.`.`.`.`.`.`.`.`.:X",
":X:X:X:X:X:X:X:X:X:X:X;X;X;X;X:X:X<X<X<X,X3X-X<X1X1X3X7Xy * 6X7Xy aXt %X%Xt ) VXm.j 0Xu Q.d 6X0X0X0X6X0X6X6X6Xr iX7X1X6X-X-X<X:X:X:X:X;X;X:X;X:X:X;X:X;X;X;X;X;X:X;X;X;X;X:X;X;X;X;X:X#.#.6 0 -.BX`.`.`.`.`.`.`.`.`.`.`.`.`.`.`.`.`.`.`.`.`.`.`.`.`.`.`.`.`.`.:X",
":X:X:X:X:X:X:X:X=X=X=X;X;X;X;X<X,X<X,X<X3X<X3X3X1X7X7X7XeXc.oXwXeX.XQ.M N pX) rXd pXrXpXn.a 0XqX0X0X0X; iXy D Q.u 6X7X6X6X3X-X<X7X-X:X:X:X<X;X;X:X:X:X:X;X;X;X;X;X;X;X;X;X;X:X;X;X;X:X+.#.6 9 -.VX`.`.`.`.`.`.`.`.`.`.`.`.`.`.`.`.`.`.`.`.`.`.`.`.`.`.`.`.`.:X:X",
":X:X:X:X:X:X:X:X=X=X;X;X;X;X:X,X,X,X<X3X3X3X-X<X6X7X6XeX6Xc.d eX6XK b.T.t m.) FXy aXFXQ.XXrXT.y 0X0X0X0Xy $Xy : 0X6X6XZ < 1X1 v.Q :X<X<X:X:X;X;X:X:X:X:X:X:X:X;X;X;X;X;X;X;X;X;X;X;X,X#.#.6 9 -.VX`.`.`.`.`.`.`.`.`.`.`.`.`.`.`.`.`.`.`.`.`.`.`.`.`.`.`.`.:X:X:X",
"=X=X:X:X:X:X:X:X:X:X;X;X;X;X:X,X,X,XB s 3X-X1X1X*Xa ' y %Xa a 0XqX; XXaXk n.- y ; n.@ b.c.pXS rX0X- 0X0X0Xa y 0X0X0X6Xs {.! l.l.1 =X<X:X:X<X;X:X:X;X:X:X:X:X:X;X;X;X;X;X:X;X;X;X;X+.#.#.#.6 9 -.VX`.`.`.`.`.`.`.`.`.`.`.`.`.`.`.`.`.`.`.`.`.`.`.`.`.`.`.`.:X:X:X",
"=X=X:X:X:X:X:X:X:X:X:X:X:X:X<X:X,X,X,XK ; < ' 7X7Xa b..Xa _ y OXd yXtXtXx .XXXtX- XXe XXr n.y u t c.@Xd 0X; F.s %X0X0X6XqX X< -X<X<X=X:X*.B :X:X:X;X:X:X:X:X;X;X;X;X;X:X;X;X;X;X2.#.#.#.#.6 9 ;.VX`.`.`.`.`.`.`.`.`.`.`.`.`.`.`.`.`.`.`.`.`.`.`.`.`.`.&X`.&X`.:X",
":X:X:X:X:X:X:X:X:X;X:X:X:X,X,X5X6.6.=Xm l.s S 7X7X6X; .X.Xl.y .Xd tXn.tXtXtXtXtXa.XXn.XXyXtXtXXXuXXXb.b.t ; %XoXa 0X0X0X6Xc.7X7X<X-X<X,X1Xv.:X0.7.<.1.;.;.;.=.;.;.;.;.;.2.;.+.#.#.#.#.@.9 6 9 | VX#.#.#.`.`.`.`.`.`.`.`.`.`.`.`.`.`.&X;X&X&X`.`.`.&X&X_.`.`.`.:X",
"#.#.#.#.=.=.=.#.#.#.=.#.#.=.#.:.>.n ~.Z c.d {.).a d b.b.b..XoXn.R..XaXtXtXtXXXaXtXn.tXtXtXn.aXXXtXXX.Xb.b.b.c..XF.oX.Xa * J >.>.5.m >.=.*.l.*.< =.#.#.#.#.#.#.#.#.#.#.#.#.#.#.#.#.#.#.6 9 9 9 w 8 =.#.#.#.#.=.#.#.=.=.:.#.=.=.=.=.=.=.=.=.=.=.=.=.=.=.=.=.=.=.=.",
"#.#.#.#.=.=.=.=.#.#.=.=.=.=.=.=.; < ( [.a {.l.J l.b.b.b.b.yXaX.Xb..Xn.R.tXl.XXR.n.aXXXXXn.aXb.l./ l.R.b.b.b.R..XOXl./ W / < N * {.a a >.% l.! d =.#.#.#.#.#.#.#.#.#.#.#.#.#.#.#.@.#.@.9 0 0 0 w w =.=.=.#.#.=.#.=.#.#.=.=.=.=.=.=.=.=.=.=.=.=.=.=.;.#.=.=.#.=.=."
};
