/* XPM */
static char *c6d24825e99e4fcb8c9dc4f6972cfe33tnTcPVkicLXSX9In[] = {
/* columns rows colors chars-per-pixel */
"128 128 255 2 ",
"   c #04310E",
".  c #023B1A",
"X  c #082C27",
"o  c #053523",
"O  c #033C23",
"+  c #0B3A24",
"@  c #093428",
"#  c #053B2A",
"$  c #0C3B2B",
"%  c #14392A",
"&  c #053B35",
"*  c #163B35",
"=  c #2A3836",
"-  c #2D363A",
";  c #2D3A3B",
":  c #323736",
">  c #343937",
",  c #32373A",
"<  c #343A3B",
"1  c #0C4B0C",
"2  c #03471A",
"3  c #01521C",
"4  c #024423",
"5  c #0A4225",
"6  c #03442C",
"7  c #06482B",
"8  c #055628",
"9  c #044737",
"0  c #174538",
"q  c #035539",
"w  c #135032",
"e  c #25463B",
"r  c #2E463D",
"t  c #0D682B",
"y  c #1A6F2E",
"u  c #0B6638",
"i  c #156639",
"p  c #0B773B",
"a  c #13773B",
"s  c #133F40",
"d  c #2A3C47",
"f  c #353E41",
"g  c #074846",
"h  c #194644",
"j  c #10584D",
"k  c #294848",
"l  c #36454A",
"z  c #2F544E",
"x  c #374955",
"c  c #3A545A",
"v  c #0B6D45",
"b  c #096B48",
"n  c #156944",
"m  c #136C4C",
"M  c #087346",
"N  c #0D7B42",
"B  c #0A724B",
"V  c #127C44",
"C  c #187749",
"Z  c #166957",
"A  c #0A7056",
"S  c #167754",
"D  c #2A714F",
"F  c #287458",
"G  c #195D69",
"H  c #135E72",
"J  c #385761",
"K  c #076A69",
"L  c #196369",
"P  c #0F7569",
"I  c #0E6677",
"U  c #146174",
"Y  c #176575",
"T  c #087777",
"R  c #157478",
"E  c #2E6F6B",
"W  c #424D53",
"Q  c #465458",
"!  c #4D5B5D",
"~  c #505C5E",
"^  c #426359",
"/  c #455664",
"(  c #465966",
")  c #4C5C64",
"_  c #465B6B",
"`  c #4B5D6C",
"'  c #525E62",
"]  c #515F6A",
"[  c #4C5F71",
"{  c #4D606E",
"}  c #486868",
"|  c #556466",
" . c #54636C",
".. c #4D6371",
"X. c #496B74",
"o. c #536573",
"O. c #586470",
"+. c #556976",
"@. c #5A6C76",
"#. c #566B79",
"$. c #5B6D7A",
"%. c #507473",
"&. c #587578",
"*. c #5D717C",
"=. c #616E7A",
"-. c #62737D",
";. c #617C7C",
":. c #1E9032",
">. c #2A942D",
",. c #329A2B",
"<. c #278D35",
"1. c #289433",
"2. c #349135",
"3. c #44AB38",
"4. c #56B93B",
"5. c #5BBD3B",
"6. c #5DC13A",
"7. c #61C13C",
"8. c #0D8344",
"9. c #168648",
"0. c #178A50",
"q. c #2B8F4E",
"w. c #399558",
"e. c #1CA35E",
"r. c #2BAA53",
"t. c #38AC58",
"y. c #29B455",
"u. c #3AB856",
"i. c #148F71",
"p. c #2E936D",
"a. c #278979",
"s. c #10AB74",
"d. c #18A978",
"f. c #18B578",
"g. c #2DAC6C",
"h. c #3AA865",
"j. c #469B53",
"k. c #5AB944",
"l. c #42BB54",
"z. c #45B859",
"x. c #61B949",
"c. c #509075",
"v. c #689475",
"b. c #48A763",
"n. c #47B867",
"m. c #54B667",
"M. c #50B56F",
"N. c #3DC154",
"B. c #13C47B",
"V. c #31C471",
"C. c #43C34D",
"Z. c #5DC345",
"A. c #47C454",
"S. c #56D776",
"D. c #64CE64",
"F. c #167B83",
"G. c #4E7882",
"H. c #5E7381",
"J. c #627581",
"K. c #647983",
"L. c #6A7B87",
"P. c #6B7E86",
"I. c #717E88",
"U. c magenta",
"Y. c #0C8887",
"T. c #148888",
"R. c #1C9785",
"E. c #299488",
"W. c #18AC84",
"Q. c #0BB982",
"!. c #28AA8B",
"~. c #24B486",
"^. c #24B48D",
"/. c #25B98B",
"(. c #28AA97",
"). c #35AE91",
"_. c #23B493",
"`. c #27B896",
"'. c #4E8A84",
"]. c #6D8589",
"[. c #718487",
"{. c #72848A",
"}. c #738A8D",
"|. c #78898D",
" X c #6F918E",
".X c #768692",
"XX c #7B8793",
"oX c #738C91",
"OX c #7D8A94",
"+X c #7D8D98",
"@X c #6D9996",
"#X c #729393",
"$X c #7B939B",
"%X c #789799",
"&X c #4AB496",
"*X c #6BA49C",
"=X c #74A39C",
"-X c #789BA3",
";X c #7B9CA3",
":X c #4AB1A0",
">X c #6BACA2",
",X c #77A7AA",
"<X c #7AA3A9",
"1X c #72B3A4",
"2X c #75ADB0",
"3X c #6CB9B7",
"4X c #73B5B6",
"5X c #0BC484",
"6X c #0AC587",
"7X c #1BC987",
"8X c #33D580",
"9X c #61DE88",
"0X c #55E987",
"qX c #6EC3BC",
"wX c #70BEC0",
"eX c #59CFC7",
"rX c #67C9C5",
"tX c #70CECC",
"yX c #6BF8E7",
"uX c #828E97",
"iX c #818D98",
"pX c #86959C",
"aX c #89969D",
"sX c #84989A",
"dX c #8C999E",
"fX c #919C9F",
"gX c #8BA09E",
"hX c #8898A0",
"jX c #8D9AA0",
"kX c #909CA2",
"lX c #939EA9",
"zX c #8CA3A6",
"xX c #95A6AA",
"cX c #95A9AE",
"vX c #96AAB1",
"bX c #9AACB2",
"nX c #88B0B8",
"mX c #9CB3B6",
"MX c #9EB7BA",
"NX c #A2AFB6",
"BX c #A5B4B9",
"VX c #A4B6BC",
"CX c #A6B9BE",
"ZX c #AABBBE",
"AX c #93C3BB",
"SX c #81B2C1",
"DX c #A7BAC0",
"FX c #AABCC1",
"GX c #A6BEC8",
"HX c #B2BFC5",
"JX c #91D0D7",
"KX c #B3C3C5",
"LX c #B0C3C6",
"PX c #9ED9E9",
"IX c #90F0ED",
/* pixels */
"U.U.U.U.U.U.U.U.U.U.U.U.U.U.U.U.U.U.U.U.U.U.U.U.U.U.U.U.U.U.U.U.U.U.U.U.U.U.U.U.U.U.U.U.U.U.U.U.U.U.U.U.U.U.U.U.U.U.U.U.U.U.U.U.U.U.U.U.U.U.U.U.U.U.U.U.U.U.U.U.U.U.U.U.U.U.U.U.U.U.U.U.U.U.U.U.U.U.U.U.U.U.U.U.U.U.U.U.U.U.U.U.U.U.U.U.U.U.U.U.U.U.U.U.U.U.U.U.",
"CXCXCXCXCXCXCXCXCXCXCXCXCXCXCXCXCXCXCXCXCXCXCXCXCXCXCXCXCXCXCXCXCXCXCXU.U.U.U.U.CXCXCXCXCXCXT T 0.0.9.CXCXy.3 3 z CXCXCXZXCXCXCXCXCXCXCXCXCXCXCXCXCXCXCXCXCXCXCXCXCXCXCXCXCXDXDXDXDXDXDXCXCXCXCXCXCXCXCXCXCXCXU.U.U.U.U.CXCXCXCXCXCXCXCXCXCXCXCXCXCXCXCXCXCXCXCX",
"CXDXCXCXCXCXCXCXDXCXCXCXFXCXCXCXCXCXCXCXCXCXCXCXZXCXCXCXCXCXCXCXCXCXZXFXU.U.U.FXCXCXCXDXCX@ f.!.T R 9.0.H.n.y.l.l.3 3 FXDXDXCXDXDXCXCXCXDXCXCXCXCXCXCXCXCXCXCXCXDXCXCXCXCXCXCXCXDXDXCXDXDXCXCXDXCXCXCXCXCXCXCXCXU.U.U.FXDXCXCXCXDXCXCXDXCXCXCXCXCXCXCXCXCXCXCXCX",
"BXFXZXFXZXFXZXZXZXCXmXbXbXbXbXbXbXVXZXFXFXFXZXFXFXBXcXjXpXpXpXpXpXpXCXVX$.U.LXZXCXCXCXCXMXf.i.~.f.~.%.9.].9 y.y.y.y.y.$ FXFXCXCXCXCXCXCXCXCXCXCXCXDXDXCXCXCXCXCXCXCXCXDXCXCXCXCXCXDXCXCXCXCXCXCXCXCXDXCXCXCXCXCXDXU.LXFXDXZXCXFXFXFXFXZXDXCXZXFXZXFXFXbXjXpXjXxX",
"aXaXaXaXaXaXaXaXaXaXaXaXaXaXpXaXaXaXaXaXaXaXaXaXpXaXaXaXaXaXaXaXaXaXaX+.$.U.LXFXCXaXhXpXo d.f.f.f.p.# 9.&.} I g.r.r.y.b.{.aXaXaXpXpXpXpXpXaXpXaXpXpXpXpXpXpXpXpXpXpXsXpXpXpXaXaXaXaXpXpXpXpXpXpXpXsXpXpXpXaXaX$.$.U.ZXCXpXaXaXpXaXaXaXpXpXaXpXpXpXpXaXaXaXpXpXaX",
"pXaXaXpXaXpXaXaXaXpXaXaXaXaXaXaXaXaXaXpXaXaXaXaXaXaXaXaXaXaXd pXaXaXaX$.*.U.LXCXpXaXaXaXp.f.f.f.d.X C b Y _.(.I I I & } H.aXaXaXpXaXaXaXaXpXpXaXaXaXaXaXaXaXaXaXaXpXaXaXaXpXaXaXaXaXaXaXaXaXaXaXpXaXaXaXpXaXaX$.$.U.BXCXaXaXaXaXaXaXaXaXpXaXaXpXpXpXpXaXpXpXpXpX",
"aXaXaXpXaXaXpXaXaXaXaXaXaXaXaXaXaXaXaXaXaXaXaXaXaXaXpXpXaXaXpXpXaXaXaX$.*.= LXFXpXaXaXdXg.g.m # 5 4 M E._.K _.(.I I I * aXaXaXaXaXaXaXaXaXaXaXaXaXpXaXaXpXaXaXaXaXpXaXaXaXpXaXaXx aXaXpXaXaXaXaXpXaXaXaXpXaXaX+.$.- VXVXpXaXaXaXaXaXaXpXpXpXpXpXpXpXpXpXpXpXpXpX",
"aXaXaXaXpXpXpXaXaXaXaXaXaXaXaXaXaXpXaXpXaXaXaXaXaXpXaXpXx aXpXpXpXaXpX$.*.- LXDXpXpXaXjX%.jXaXb.N.8.C.n.`._.(.`.I I I g pXpXaXaXaXaXaXpXaXaXaXaXx aXaXaXaXaXaXpXaXaXpXpXaXpXaXpXx #.aXaXaXaXpXaXaXpXpXaXpXaXpX-.#.- VXVXaXaXaXpXpXpXpXpXpXpXaXpXaXpXpXpXpXpXpXpX",
"pXpXpXpXpXpXpXpXaXaXaXaXaXaXaXaXaXaXaXaXaXpXaXaXaXaXaXpXpXaXpXpXpXaXpX#.$.- LXDXpXpXpXpXzXsX+ C.N.t.C.C.(._.i.`.& U I H pXaXaXaXpXaXaXaXaXaXaXK.aXaXaXaXaXaXaXaXaXaXaXpXpXpXaXaXaXaXaXaXaXaXaXaXaXaXpXpXpXaXpXpX$.- BXVXaXpXpXpXaXpXpXpXpXpXpXpXpXpXpXaXaXpXaXpX",
"pXpXpXpXaXpXpXaXaXaXaXaXaXaXaXaXpXaXaXaXaXaXaXaXaXaXpXaXpXpXpXpXpXpXpX+.*.- LXFXaXpXz C N N a C.r.C.C.C.(.`._._.+.*.z & #.aXhXaXaXaXaXaXaXaXpXaXaXaXaXaXaXaXaXaXaXaXpXpXaXpXpXaXaX$.aXaXaXaXaXaXaXpXpXaXpXpXpXhX$., NXVXpXaXaXaXpXpXpXpXpXpXpXpXpXpXpXpXpXaXaXpX",
"aXaXpXaXpXaXaXpXaXaXaXaXaXaXaXaXaXaXaXaXaXaXaXaXaXaXaXpXpXpXpXpXpXpXaX$.-.= LXDXaX5 N p N N 9.N.p C.C.n.I (.`.`.#.lX{.#.$.pXaXaXaXaXaXaXaXaXaXpXpXpXaXaXaXaXaXaXaXaXpXpXpXpXpXaXaXx aXaXaXaXaXaXaXpXpXpXpXpXaXhX$.- NXVXaXaXaXpXpXpXpXpXpXpXaXpXaXaXpXpXpXpXpXpX",
"pXpX[.aXaXaXaXaXaXaXaXaXpXaXaXaXaXaXaXaXaXaXaXaXaXaXaXpXaXpXaXpXaXaXpX+.+.= LXFXaXw N p N N u C.l.C.l.U I I Y :X$.pXpXdXdXaXaXaXaXaXaXaXaXaXaXpXpXaXaXaXaXaXaXaXaXaXpXpXaXaXpXaXaXaXaXaXaXaXaXaXaXpXpXaXaXpXaX@.+.- NXbXaXaXpXaXpXpXpXpXpXpXaXaXpXaXpXpXaXaXpXpX",
"pXl ( pXaXpXaXaXaXpXaXaXaXpXaXaXaXaXaXaXpXaXhXaXaXaXaXaXaXaXaXaXpXaX+.+.O.; LXVXaXpX% 7 C C 4 C.C.A.L G H U U &.$.hXpXpXpXaXaXaXaXaXaXaXaXaXaXpXaXaXaXaXaXaXaXaXaXpXaXaXaXaXpXaXaXaXaXaXaXaXaXaXpXaXaXaXaXpXpX$.#.; +.+.aXaXaXaXpXaXaXpXpXpXpXpXpXpXpXpXpXaXpXaX",
"x +.@.d aXpXpXpXpXaXpXpXpXpXpXaXaXaXpXpXaXpXl pXpXpXpXpXpXpXaXaXaX$.#.$.< < @. .+XaXdXaX& R R A.z.C L * H U I h #.jXaXpXaXaXpXdXpXpXaXaXaXpXpXaXpXpXpXpXpXaXaXaXpXpXaXaXpXhXjXaXaXaXaXaXaXaXaXpXpXaXaXpXhXjX$.$.$.; -  .$.jXpXpXpXpXpXpXpXpXpXpXpXpXpXpXaXpXpXpX",
"+.#.@.x #.#.+.+.#.+.#.$.#.#.#.#.#.#.#.#.#.#.$.x +.+.+.+.+.$.#.#.#.+.+.< < < @.$.$.$.*.9 _.(.T R & 6 0 G X.g U * +.#.#.#.#.+.#.+.+.+.+.#.#.#.#.#.#.$.$.#.$.$.$.$.$.$.$.$.$.$.$.$.$.< #.$.$.$.$.$.$.$.$.$.$.$.$.$.< < < <  .#.+.+.#.#.#.#.#.@.#.#.#.#.#.#.#.#.#.c ",
"@.$.$.d #.+.+.#.#.#.#.#.#.#.#.$.$.$.#.#.#.#.*.$.#.#.#.+.#.#.#.#.#.@.< < < < < +.$.#.$.).`.K _.R & * #.Z j g h c #.+.#.#.+.#.#.#.+.#.#.#.#.#.#.#.#.#.#.#.$.#.#.$.$.#.$.$.$.$.$.$., < #.#.#.#.$.$.#.$.$.$.$.$.$., < < < < < +.#.#.#.$.$.+.$.#.#.+.#.#.$.+.#.#.d $.",
"< < < < < < < < < < < < < < < < < < < < < < < < < < < < < < < < < < < < < , < < < ; * _.T `.`.I $ ; r T.T.i.T.= < < < > < , , , , , < < < < < < < < < < < < < < < < < < < < < < < < < < < < < < < < < < < < , < < < < < < < < < < < < < < < < < < < : : < < < < ",
"< < < < < , , , < < =.$.$.......@.@.@.@.@.@.$.$.$.$.$.$.@.$.$.$.$.$.$.$.$.$.$.$.} 9.S _._.`.`.& * k @ Y.Y.T.Y.T.< < < < < < , , < , < < < *.$.$.$.*.$.$.$.*.$.$.$.$.$.*.$.$.$.$.$.*.$.$.` ( ` ` ` ( ` { ` ` ` ` ` ` ` ( ` ` ` ` ( ` ` ` ` ` ` ` ` ` ` < < < < < ",
"< < < < < , , , l l $.$.$.$.@.@.$.$.$.$.$.$.$.#...#.#.#.+.#.$.*.*.$.$.*.$.$.*.J 9.8.A _._.(.p } 0.S b.Y.T.T.K T.* < - < < < < , < < < - $.$.$.$.$.$.$.$.$.$.$.$.$.*.$.$.*.*.*.$.*.$.$.` ` ` ` ` ` ` ` ` ` ` ` ` ` ` ` ` ` ` ` ` ` ` ` ` ` ` ` ` ` ` ` ` < < < < ",
"< < < < < +.........o.+.+.......................k ..{ ` ` { o.......o.o.o.o.} V 8.8.K `.K # i 5 r.D.A.g.T.T.T.T.Z ....+.*.@ O ; , , : $.$.$.{ ` ` _ _ _ ( ( _ _ ` _ _ _ _ _ _ ` ( _ _ ` ` ` ` ` ` ` ` ` ` ` ` ` ` ` _ ` ` ` ` ` ` ` ` ` ` ` ` ` ` ` { ` ` < < < ",
"< < : : - FXaXaXaXaXaXpXpXpXpXpXaXdXdXaXaXaXaXaXaXxX{ { bXaXaXaXaXaXaXdXdXgXi 8.8.8.A 0.9.%.p . A.A.:.A.p i.Y.T.a.jXaXaX$.*.6 v o < : zXxX[.[.[.[.[.[.[.[.[.[.{.{.[.[.[.[.[.[.[.[.[.[.[.{.[.{.[.[.[.{.[.[.[.[.{.[.[.[.[.[.{.[.[.[.[.{.[.[.{.{.[.[.[.{.( _ - , < ",
"< < FXFXCXpXaXaXaXaXaXpXpXpXpXaXaXaXaXaXaXjXaXdXaXdXd Q aXaXjXaXdXjXaXaXdXaX+.#.* 6 O * H.@.p 0 l.C.8.A.C 8.p B R *.jXpXpX$.d o n o < zX{.[.{.[.[.{.{.[.{.{.{.{.{.{.{.{.[.{.{.{.{.{.{.{.{.{.{.{.{.{.{.{.[.{.{.{.{.{.{.{.{.{.{.{.{.{.{.{.{.[.{.{.[.{.{.P.` `  .> ",
"- LXxXxXaXaXaXaXaXaXaXjXxXaXaXaXaXdXdXjXaXaXaXdXdXaXhX/ fXaXjXaXaXaXaXaXdXaXjX+.#.#.#.X.* c V $ $ C.A.A.0 N p p %.+.aXzXaXjXd } n i : xX{.{.{.[.{.{.{.{.{.{.{.{.{.{.{.{.[.{.{.{.{.{.{.{.{.{.{.{.{.{.[.{.{.[.{.[.{.{.{.{.{.{.{.{.{.{.{.{.{.{.{.{.[.{.{.{.( { { : ",
"Q VXdXdXdXdXdXdXdXdXdXaXdXdXdXdXaXdXaXaXdXaXaXdXdXdXaXx aXaXaXaXdXaXaXaXaXaXjXdXdXsX& U I I C O +.2 A.3 $.&.5 9.&.$.jXaXjXaXd o.n n ; zX[.{.{.{.{.{.{.{.{.[.{.{.{.{.{.{.{.{.{.{.{.{.{.{.{.{.{.{.{.{.{.{.{.{.{.{.{.{.{.{.{.{.{.{.{.{.{.{.{.{.{.{.{.{.{.{..X` ` < ",
"W VXdXdXjXdXdXdXdXdXdXaXdXjXdXdXaXaXaXaXdXjXaXaXaXaXdX{ aXaXdXaXaXaXaXaXdXaXaXaXaX& U Y U U # n #.C h.C +.#.OX@.$.+.aXaXaXaX-.{ q V = zX{.{.{.{.{.{.{.{.{.{.{.{.{.{.{.{.{.{.{.{.{.{.{.{.{.{.{.{.{.{.{.{.{.{.{.{.{.{.{.{.{.{.{.{.{.{.{.{.{.[.{.{.{.{.{.{.|.` { < ",
"! VXdXdXdXdXaXaXaXaXaXdXdXdXdXdXdXaXaXdXjXdXaXaXaXaXaXjXQ l dXdXdXdXaXaXaXaXaXaXk U Y K A & X.a h C N p o #.aXdXaXaXaXaXdXaXd  .i N * zX{.{.{.{.{.{.{.{.{.{.{.{.{.{.{.{.{.{.{.{.{.{.{.{.{.{.{.{.{.{.{.{.{.{.{.{.{.{.{.{.{.{.[.{.{.{.{.{.{.[.{.{.{.{.{.{.|.` { , ",
"! VXdXdXaXaXaXaXjXjXaXdXdXdXdXaXdXjXaXdXdXdXaXaXaXaXaXdXjX-.dXaXdXdXjXaXjXaXaXaXaXsX4 y.y.p.j u q 0 N N 8 #.-.jXaXaXaXaXaXaXl +.C N * zX[.{.{.{.{.{.{.{.{.{.{.{.[.[.{.{.{.{.{.{.{.{.{.{.{.{.{.{.{.{.{.{.{.{.{.{.{.{.{.{.{.{.{.{.{.{.{.{.{.{.{.{.{.{.{.{.|.` ` , ",
"! VXaXaXdXdXdXdXjXjXdXdXaXdXaXaXaXjXdXdXdXdXdXdXdXdXaXaXaXaXaXaXdXdXdXaXjXaXjXaXdXsXy.y.M Y.Y.i.p D 4 p a 5 &.#.jXjXaXaXaXaXl #.n V % zX[.[.[.{.{.{.{.{.{.{.{.{.[.[.[.{.{.{.{.{.{.{.{.{.{.{.{.{.{.{.{.{.{.{.{.{.{.{.{.{.{.{.{.{.{.{.{.{.{.{.{.{.{.{.{.{.L.` ] : ",
"' CXdXdXaXdXdXdXaXdXdXdXdXaXaXaXaXaXdXdXdXdXdXdXdXdXdXaXaXaXaXaXdXdXdXjXdXaXaXaXdXo r.b T.s.Y.P N * q 8.8.u.n.c $.aXdXdXaXaXdXO * V + + m.z.b.%.{.{.{.{.{.[.[.{.{.[.{.[.[.{.{.{.{.{.{.{.{.{.{.{.{.[.{.{.{.{.{.{.{.{.{.{.{.{.{.{.{.{.{.{.{.{.{.{.{.{.{.{.*.` { : ",
"' VXdXdXaXdXdXjXaXaXdXdXdXdXdXaXjXaXdXaXaXdXaXdXdXdXaXdXdXdXaXaXdXaXaXaXaXdXdXdXdXO r.F.i.d.Y.V i 7 $ u.u.p u.j.#.aXaXdXaXzX9 m ( V . V 9.n.l.z.0 [.{.{.{.{.{.{.{.[.[.[.{.{.{.{.{.{.{.{.{.[.{.[.{.{.{.{.{.{.{.{.{.{.{.P.[.{.{.{.[.{.{.{.{.{.{.{.{.{.{.{. .` { : ",
"! bXjXjXdXdXdXdXdXdXdXdXkXdXdXdXdXdXdXdXdXdXdXdXdXdXdXaXaXdXaXdXjXdXjXaXaXdXdXdXdXO i.T.T.i.N N $ p &.z.u.u.9.u.sXjXaXdXxXg.P i.} C t.l.l.l.z.l.z.. {.{.[.{.{.{.{.[.{.[.{.{.{.{.{.{.{.{.{.{.{.{.[.{.{.{.{.{.{.{.{.{.{.{.{.{.{.{.{.[.{.{.{.{.{.[.{.{.{.{.( ` { : ",
"' jXdXdXdXaXdXdXdXdXdXdXdXdXaXdXdXdXdXdXdXdXaXdXdXdXdXaXdXdXdXaXdXdXaXaXaXaXaXdXaX5 T.* O N N V zX9.0 7 u.u.u.u.5 dXjXaX4 g.p.e.o . u.m.l.l.u.l.m.5 [.[.{.[.{.{.{.{.{.{.{.{.{.{.{.{.{.{.{.{.{.{.{.{.{.{.{.{.{.{.[.{.{.{.{.{.{.{.{.{.{.{.{.{.{.{.{.{.c c c J J < ",
"| dXdXdXaXaXdXdXdXdXaXaXdXdXdXdXdXdXdXdXaXaXaXdXdXdXdXdXdXdXdXaXdXdXaXaXdXaXdXaXjXzXjXkXo p N + #X3 q.#.$ t.u.u.q.jXdXaXp.A e.e.5 e u.4 + . 5 c ....|.{.{.{.{.{.{.{.{.{.[.{.{.{.{.{.{.[.{.{.{.{.{.{.{.{.{.{.{.{.xX{.{.{.{.{.{.{.{.{.{.{.[.{.[.{.{.c @.@.+.+.@.: ",
"| dXaXaXaXaXaXaXdXdXdXdXaXaXaXdXaXaXaXdXaXdXaXaXdXdXdXaXaXjXaXjXaXdXaXaXaXaXaXdXdXjXdXaXgXp p 7 8 5 0.&.$.#.* 8 M.jXaXaXp.K e.e.e < 2 t.( ` { } }.{.{.{.{.{.{.[.{.{.{.{.{.{.{.{.{.{.{.{.{.{.{.{.{.{.{.{.{.{.{.{.{.{.{.{.{.{.{.{.{.{.{.{.{.{.{.{.c @.@.@.@.=.@.< ",
"| dXdXdXaXaXaXaXdXdXdXaXaXaXaXaXaXaXaXaXjXaXaXaXdXdXaXaXaXdXaXdXaXdXdXdXaXdXdXaXdXaXdXdXdXn.u.r.u.$ h.$ +.jXJ.J.H.jXaXaX. A e.p.$.< = t.q.J R (._.9 [.{.{.{.{.[.{.{.{.{.{.{.{.{.{.{.{.{.{.{.{.{.[.{.{.{.{.{.{.{.{.{.{.{.{.{.{.{.{.{.{.{.{.{.{.{.K.@.@.$.-.=.@.< ",
"' dXaXaXaXaXaXjXdXdXaXdXaXaXdXdXjXdXaXdXjXdXaXaXaXaXjXaXjXaXjXdXaXdXdXdXdXjXdXdXdXdXjXaXe N.8.u.l.+ b.q 9 9 8 C 5 dXaXjXe e.e.&.#.o i 5 t.P (.(.T `.j [.{.{.{.{.{.{.{.{.{.{.{.{.{.{.{.{.{.[.{.[.[.{.{.{.{.{.{.{.{.{.{.{.{.{.{.{.{.{.{.{.{.{.{.{.K.@.$.$.$.$.$.: ",
"| aXaXaXaXaXjXaXaXaXjXaXaXaXdXjXaXaXjXdXdXdXaXaXdXdXaXaXaXaXdXdXaXdXdXdXdXdXdXdXaXjXaXaX. N.N.l.z.*.O T T `.M p a n dXdXjXg.+ *.. z.n.m.o h._._._._._.@ {.[.{.{.{.{.{.{.{.{.{.[.{.{.{.{.{.{.{.{.{.{.{.{.{.{.{.{.{.[.{.{.{.{.{.{.{.{.{.{.c c K.K.@.@.@.=.$.$.$.: ",
"| aXaXaXdXdXjXdXaXaXjXaXaXaXaXjXaXaXjXdXdXaXaXaXdXaXdXaXaXaXaXdXdXdXdXdXaXaXaXaXaXaXjXaX. u.u.z.% +.& _.`.K !.a a V 7 dXdX$ pX$.b.n.l.z.( t g.q a.9 9 9 [.{.{.{.{.{.{.{.{.{.{.{.{.{.{.{.{.{.{.{.{.{.[.[.{.{.{.{.{.{.{.{.{.{.{.{.{.{.{.{.J @.@.@.$.@.=.$.$.$.@.: ",
": - jXjXaXdXdXaXdXdXaXaXjXaXdXdXaXdXdXdXdXdXaXaXaXaXaXaXaXaXaXaXdXdXaXdXdXaXaXaXaXdXaXaX2 l.. &.*.lX& (._._.`.$ z &.*.aXaXaXjX+.m.l.l.D ..X.u.4 {.{.{.{.{.{.{.{.[.{.{.{.{.{.{.{.{.{.{.{.{.{.{.{.{.{.{.{.{.{.{.{.{.{.{.{.{.{.{.{.{.{.{.c @.@.@.@.$.$.@.@.$.@.@.- ",
"< < fXfXdXjXaXaXaXaXaXaXfXaXaXaXaXaXdXaXdXdXdXdXaXaXaXaXaXaXaXaXaXaXaXdXdXaXaXaXdXaXdXdX5 } #.jX% n 4 q.9 ).`.9 *.$.P.aXdXdXpX#.2 l.m.xXOX..v p }.{.{.{.[.{.{.|.{.[.[.{.{.{.{.{.{.{.{.{.[.[.{.{.{.{.{.{.{.{.{.{.{.{.{.{.{.{.{.{.{.{.{.c @.$.@.=.` =.=.@.@.@.@.: ",
"< < < < [.aXdXaXaXaXaXaXaXaXaXaXaXaXaXaXdXaXdXdXaXdXaXaXaXdXaXaXaXaXdXdXdXdXaXaXdXdXaXdXkXJ.aX% a V 8 q.H.*.* h J.dXaXjXdXdX+.$.0 2 = xX#X} w V 6 {.|.{.{.{.{.{.{.{.{.{.{.{.{.{.{.{.{.{.{.{.{.{.{.[.{.{.{.{.{.[.|.{.{.{.{.{.{.{.{.{.c @.$.$.@.@.=.@.@.=.@.@.@.< ",
"< < < < : aXaXdXdXdXdXdXdXdXaXaXdXdXdXdXaXjXaXaXaXaXdXdXdXdXaXaXdXaXaXaXaXdXaXaXjXaXaXaXaXkXjXi a V i R F.R & #.#.dXdXjXdXaX#.$.$.< : # a.Y X 7 C }.[.[.{.{.[.{.{.{.{.{.{.{.{.{.{.{.{.[.[.{.{.{.{.{.[.{.[.[.{.` ` ` {.{.{.{.[.[.{.{.+.@.$.$.@.@.@.@.` ` ` { @.< ",
"< < < < < $.$.$.+.+.+.+.< < $.$.$.+.+.+.+.+.+.$.-.|.pXaXjXjXjXjXjXjXjXjXhX$X-.+.$.$.$.$.$.$.K.V a O r.g _.K ^.9 $.$.$.#.$.#.#.$.$.< = i.Y Y / 5 u v n * e M.z.i %.P.{.{.{.{.{.[.{.[.|.{.{.{.[.P.K.@.` ( ` _ { { / ` ` ` ` ` ` ` ` ` ` ` @.@.@.` ` ` ` ` { < , < ",
"< < < < < < @.$.$.$.$.$.< < < @.$.$.$.$.@.$.@.@.$.@.@.$.$.*.$.$.*.*.*.$.*.*.$.@.@.*.*.*.*.$.*.H.H.z r.Z ^.^.i.`.#.#.$.$.$.#.$.#.@.< O K Y @ _ 0 C } 4 p Z M.w.z.l.5 ` ` ` ` ` ` ` ` ` ` ` ` ` ` ` ` { ` ` ` ` ` d { ` ` ` ` ` ` ` ` ` ` ` ` ` ` ` ` ` `  .< < < ",
"< < < < < < < < < < < < < < : < < , < < < < , < < , , < < , < < < : < < < < > o i : < < < , < < f 2 D ; a._._._.- , < , < < < < < X L L % : - % 6 C V n q.l.l.l.z.m.; , - , < < < < < < < < < - < ; < < < - , , < < < < < < < , , , , < < < < < , < < < < < < < ",
"bXxXcXbXcXcXcXxXcXbXbXbXbXxXbXcXbXbXxXbXbXbXbXcXbXbXbXbXbXbXcXbXxXOX- < < < < # n = LXLXLXLXj h h t.$ -.L.g ).^.;.ZXZXFXZXZXZXZXFXFXLXLXLXLXFXFX8 V V 0 h.Z 0.L G $ LXZXZXHXZXZX< < < < < < < < < , < ZXFXZXZXZXFXFXZXZXFXZXZXFXZXZXCXZXZXZXZXVXZXZXZXZXZXZXZXZX",
"CXCXCXjXjXjXOXOXOXjXcXbXvXvXvXcXcXcXcXcXvXvXvXvXcXcXvXvXvXvXcXcXcX..` ] < < < 7 i = DXFXFXR P R 9 t.#.VXFXH.$.&.+.FXDXCXDXZXFXVXxXpXdXdXdXdXdX$XC V a &.2 t.L U Y Y X VXDXFXFXFX< < < < , , < < < , < DXDXFXFXVXCXVXVXDXDXDXDXFXCXDXFXFXFXFXFXFXDXCXVXDXDXDXCXCX",
"OXOXOXOXOXOXOXOXOXOXOXOXOXOXOX|.|.{.{.{.{.{.|.|.|.|.{.[.|.{.{.{.|... .` ; < < F n BXVXaX@ K T.a.b.O $.fXfXaX$.*.$.kXaXdXjXjXdXdXdXdXdXdXaXjXdX#.C C $ -.* t.p.U Y H G ;.kXkXkX*.+.Q < < < , < < < VXCXOXOXOXOXOXOXOXOXuXuXOXOXOXOXuXuXuXuXuXOXOXuXuXuXOXuXOXOXuX",
"uXuXuXuXuXuXuXuXuXuXuXuXuXuXuXuXuXuXuXuXuXuXuXuXuXuXuXuXuXuXuX{.{.|.{ 2 z.b.F V 0 VXkX& R T.E.7 t.S 4 dXjXjXdXkXuXaXdXjXjXjXjXjXjXdXdXdXdXdXdX*.$ *.jXjX$ 2 u.j U G & * kXjXjXaX|.$.< < < < < < < CXVXuXOXOXOXOXOXOX+XOXuXOXOXOXOXuXOXOXuXuXuXuXuXOXuX+XuXuXuXuX",
"uXuXuXuXuXuXuXuXuXuXuXuXuXuXuXuXuXuXuXuXOXuXuXuXuXuXuXuXuXuXuX{.{.[.2 n.q.l.V C = CXdXjX$.#.*.n.8 z.n.q.jXjXdXdXaXjXjXjXjXjXjXdXjXjXdXjXjXjXjXaXjXaXaX9 R L t.@ $.J.K.-.jXdXaXaXjX( / f < < < < < ZXCXOXOXOXOXOXOX+X+XiX+XuX+XuXOX+XOXOXuXuXuXuXOXuXuXpXuXuXuXuX",
"uXuXuXuXuXuXuXuXuXuXuXuXuXuXuXuXuXuXuXuXuXk uXuXuXuXuXuXuXuX{.{.{.].l.z.l.l.p o VXbXdXjXhXaX} t.7 l.8.z.jXjXjXjXdXdXdXjXdXaXjXjXjXdXjXjXjXdXjXdXdXdX)._.)./.C b.aXjXjX+ o pXaXdXfXjX/ Q < < < < = FXFXuX+XOXOXOX$X$X+X+X+XOXOX+X$X$X+XOXOXOXOXuXOXpXuXuXuXuXuXuX",
"uXuXuXuXuXuXuXuXuXuXuXuXuXuXuXuXuXuXuXOXuXvXuXuXuXuXuXuXuXuX{.{.{.5 l.l.l.n.S G @ aXjXdXdXdXO 4 &.z.u.m.jXjXjXdXjXjXdXdXdXdXdXjXjXjXjXjXdXdXdXaXaXsX_.)./.^.Z t.+ jXq.u.t.M.jXjXkXpXc / < < < = CXuXOXOX+XOXOXOX@X<X$X+X+X+XpX$X$X$X$X+X+X+XOXOX$X+XuXpXuXuXuXuX",
"uXuXuXuXuXuXuXuXuXuXuXuXuXuXuXuXuXuXuXuXuXuXuXuXuXuXuXOXOXOX{.{.{.&...J o V L U L aXdXdX%XdXh.} *.@.w.3 jXjXdXjXjXjXjXjXjXdXdXjXdXjXjXjXjXjXdXdXdX;.^.!.^.`.9.h.8 4 d.e.i.i.g.sXjXzXjX#.*.< < Q CXOXuX+XOXiX+XOX@X$X$X$X$X$X%X-X-X-X-X$X$X$X+X$X2X+XuXuXuXuXuXuX",
"uXuXuXuXuXuXuXuXuXuXuXuXuXuXuXuXuXuXuXuXuXuXuXuXuXuXOXOXOX[.{.{.[.` { J C C U U Y jX%Xh.g.i.r.$.dX$.H.#.jXjXjXjXdXdXdXdXjXjXjXjXjXjXdXdXjXdXdXdXjX}.^.^.!.S V 7 q.} e.d.d.d.d.p.pX-.jXaX+.l < Q VXuXuXOXuXOXOXOXOXOX#X$X$X-X-X<X<X<X<X-X%X$X$X+X$XOXuXuXuXuXuXuX",
"uXuXuXuXuXuXuXuXuXuXuXuXuXuXuXuXuXuXuXuX[.uXuXuXuXuXOXOX[.[.{.{.{.{.P.% q.0 L U Y kXw.S g.y.w.k } dX{.$.jXjXjXdXdXjXjXjXjXjXjXjXdXjXjXjXdXjXdXdXaX*.).).S C O ].C 7 # d.d.d.p.S % jXdXjX#.l , Q CXuXuXOXuXOX+XOXuX+X$X$X-X<XJX,XPX2X,X,X<X-X$X$XuX+XuXuXuXuXuXuX",
"uXuXuXuXuXuXuXuXuXuXuXuXuXuXuXuXuXuXuXuXuXOXOXOXOXOXOX{.[.[.{.v.+ $ z 8 9.| & U & #Xy.r.r.w.q Y U G xXfXdXjXjXjXjXjXjXdXjXjXjXdXjXjXjXjXdXjXjXdXdX*.& %.9.C J.h 9 V $ K.K.*.*.&.jXdXjXjX+.W < W VXuXuXOXOXOXOXOXuX$X$X-X-X,X2XIXIXIX4XIX,X;X-X$XuXuXuXpXuXuXuXuX",
"uXuXuXuXuXuXuXuXuXuXuXuXuXuXuXuXuXuXuXuXOXOXOXK.OXOXOX{.[.}.i V V a N u.$ ] : L mX+ y.h.# $ 7 H H U g -.jXjXjXjXjXjXjXjXjXjXjXjXjXjXjXjXjXjXjXdXjXOXH.zX# *.* G U q 9.k aXpX6 `.`.q # aX+.x < Q CXuXuXuXOXOXuXOXuX$X$X-X<X2XPX3XqXIX3XIX2X,X-X$X$X$XuXuXuXuXuXuX",
"uXuXuXuXuXuXuXuXuXuXuXuXuXuXuXuXuXuXuXuXOXOXOXVXOXOX{.{.} C V V P ).Z t.} ) < mXjX&.xXH.H.z 5 j U H G &.dXdXjXjXdXjXjXjXjXdXjXjXjXjXjXjXjXjXjXjXdXjXjXaXOX-.& U U Y 8 V o zXT T R._.6 pX+.W > W CXuXuXuXuXuXiXOXOX$X-X-X,XIX3XrXrXrXIXIX4X,X<X;X<XsXuXpXuXuXuXuX",
"uXuXuXuXuXuXuXuXuXuXuXuXuXuXuXuXuXuXuXOXOXOXOXOXOXOX{.[.C 8.V S /.).(.h._ ) l CXpXaXkX$.dXdXi *.g G U s pXdXjXjXdXjXdXjXjXjXjXjXjXjXjXjXjXjXjXjXjXjXaXdXaXaX@ Y U G *.4 t.P b !.!.# .X%X0 z < W DXOXuXuXuXuXuXuXOX$X;X<X,X4XqXeXyXeXrXqX4X2X<X4XIX;XuXuXuXuXuXuX",
"uXuXuXuXuXuXuXuXuXuXuXuXuXuXOXOXOXOXOXOXOXOXOXOXOXOX[.{.} $ 4 a.!.(.^.h.` ) r DXaXdXdXdXaXdXw.*.$.$.#.#.#.jXjXjXjXjXjXjXjXdXjXjXjXjXjXjXdXdXjXjXjXdXaXjXdXdX} Y Y h J.H.h t.t.S O sXzXd.R.d.S * VXOXuXuXiXuXuXOX+X$X;X<X,X4XqXyXeXeXrXrX4X2X<X,X4XhXuXuXuXuXuXuX",
"uXuXuXuXuXuXuXuXuXuXuX[.uXOXOXOXOXOXOXOXOXOXOXOXOXOX{.{.K._ ` ).i.^.a.3 # + r VXaXjXdXdXdXdX9 :X9 dXdXdXdXjXjXjXjXjXjXjXjXjXjXjXjXjXjXjXjXjXjXjXjXjXdXdXdXdXjXG & jXK.J.H.. . 2 t.r.q R.R.d.d.e VXOXuXiXuXuXuXOX$X$X-X<X,X3XyXeXrXrXrX3X4X,X<X;X$X$XuXpXuXuXuXuX",
"uXuXuXuXuXuXuXuXuXuXuXuXuXOXOXOXOXOXOXOXOXOXOXOXOXOX{.{.{.{.[.`.`.9 q.. i.0.z.+ aXaXdXdXjX}.^.Y.`.& jXjXjXjXjXjXjXjXjXjXjXjXdXjXjXjXdXjXdXjXjXjXjXjXjXjXjXjXaXsXaXaXjX].m.S z.K.H.5 t.h.O # = W MXOXiXuXuXuXiXiX+X$X;X-X,X4XyXqXrXrXIX4X2X,X;X;X$X$XuXuXuXuXuXuX",
"uXuXuXuXuXuXuXuXuXOXOXOXOXOXOXOXOXOXOXOXOXOXOXOXOXOX{.{.{.{.P.0 { [ b.. e.e.A z. XjXdXdXjX* /.F./.9 J.fXjXjXjXjXjXjXjXjXjXjXdXjXjXjXjXjXjXdXjXjXjXjXjXjXjXjXaXdXaXaXaXt n.z.l.} H.w 8.8 h.5 < e 2 5 OXiXuXuXuXiXuX$X$X;X<X,X4XIX4X4XPX2X,X<X;X$X<XuXuXuXuXuXuXuX",
"uXuXuXuXuXuXuXuXuXOXOXOXOXOXOXOXOXOXOXOXOXOXOXOXOXOXOXOX{.{.` [ $._ w.3 e.e.e.p.2 aXaXdXdXzX_.^.^.9 $.jXjXdXjXjXdXjXjXjXjXjXjXjXjXkXjXdXjXjXjXdXdXjXjXjXjXjXdXdXdXdXaXD n.l.l.*.jXC 8.V o 0.7 p.h.A.M.$XuXuXiXuXuXpX$X%X-X<X,X2X2X2X,XnX;X;X$X$X$XuXuXuXuXuXuXuX",
"uXuXuXuXuXuXuXuXOXOXOXOXOXOXOXOXOXOXOXOXOXOXOXOXOXOXOXOXOX{.[.[.+ . 8 M.6 e.e.e.S dXaXdXdXdX# /.`.h $.dXdXjXjXjXdXjXjXjXdXjXjXjXjXjXjXjXjXjXjXjXdXjXkXdXjXjXdXdXdXjXdX+ u.l.2 J.jX6 8.V } @ V z.l.n.u.m.OXuXiXuXuX+X$X$X;X-X-X<X<X<X<X;X;X;X$X$XuXpXuXuXuXuXuXuX",
"uXuXuXuXuXuXuXuXOXOXOXOXOXOXOXOXOXOXOXOXOXOXOXOXOXOXOXOX[.[.[.% z.n.S t._ } 4 g.p.jXdXdXjXaXsX).`.*.@.kXjXjXjXdXjXjXjXjXjXjXjXjXdXjXjXdXjXjXjXjXjXjXdXjXjXjXdXjXdXaXdXgXz.n.*.J.jXJ.C V ..Q 0.p l.u.u.l.5 iXuXuXOXuX+X$X$X;X;X-X;X;X;X;X$XpXpXuX+XuXuXuXuXuXuXuX",
"uXuXuXuXuXuXuXOXOXOXOXOXOXOXOXOXOXOXOX[.OXOXOXOXOXOXOXOX[.[.[.m.z.A u.q.k ) < K.$XjXjXdXdXdXdXzX9 $.kXjXdXjXjXdXjXjXjXjXjXjXaXjXjXdXdXjXdXjXjXjXjXjXjXjXjXjXjXjXdXdXaXdX%.z *.dXjXjX$.$ +.l 5 V  Xo @ ..+.OXOXuXuXOX+XOX$X$X$X$X-X$X$X$XpXpX$XuXuXOXpXuXuXuXuXuX",
"uXuXuXuXuXuXOXOXOXOXOXOXOXOXOXOXOXOXOXOXOXOXOXOXOXOXOXOX[.[. Xl.S l.u.v 2 ! < jXfXdXdXjXjXdXjXjXkXpXdXjXdXjXjXjXjXjXjXjXjXjXjXdXjXjXjXjXjXjXjXjXdXjXjXdXjXjXjXjXdXjXjXdXdXzXP.aXdXjXaXjX$.l ; S %.+.+.+.pXuXuXuXuXuXuXuXOX+X+X$X$X$X$X$X,XsXuXuXuXuXuXpXuXuXuXuX",
"uXuXuXOXOXOXOXOXOXOXOXOXOXOXOXOXOXOXOXOXOXOXOXOXOXOXOXOX{.{.e z.n.l.u.G t.% f jXdXdXjXdXjXjXjXdXjXjXjXjXdXjXjXjXjXjXjXjXjXdXjXdXdXdXdXjXjXjXdXjXjXjXjXjXjXjXjXdXjXjXjXdXjXdXdXdXjXjXkX#.*.l < m @ +.+.+. .uXuXuXuXuX+XuXuXOXOXOX$X+X+X+XuXuXuXuXuXuXuXuXuXpXuXuX",
"OXOXOXOXOXOXOXOXOXOXOXOXOXOXOXOXOXOXOXOXOXOXOXOXOXOXOXOX[.{.. h.u.z.Z U m b.< jXjXjXjXjXdXaXdXdXjXdXjXjXaXjXjXdXjXjXdXjXjXaXdXzX2.1 dXdXjXjXjXjXjXjXdXaXdXdXdXjXdXjXjXdXjXjXaXaXdXfX$.$.$.l < 7 + o.+.+.#.uXOXOX+X+XuXuXiXuXuXuXOXOXOXOXOXOXuXuXuXuXuXuXuXuXuXuX",
"` ` ` { { { { { { { { { { { ` ` { { { { { { { { { { { { { { o m.o G U Y L 4 j.@ = $.$.#.o.+..XaXjXjXjXjXjXjXjXjXjXkXjXjXxXD.2.Z.6.5.1 + + * *.@.% uXjXjXjXjXjXjXlX.X@.+.+.+.+.+.#.$.$.$.< < < O 4 r < f #._ ( o.o.Q =.=.$.#.$.[.OX+XOX+XpXuXOXOXOXpXpXuXpXI.` ` ",
"o.{ ` ` ` ` { { ` { { ` { +.+.+.+.+.+.+.+.+.+.+.+.{ { { { { } { } G U U 9 < 2 C w.h.O +.$.$.#.$.$.$.$.&.&.v.x.k.1 2.x.x.4.5.6.6.5.5.5.6.6.5.k.x.5.k.  1 5 * #.z . 5 c &.&.@.$.$.#.+.$.+.< < < = 4 7 7 5 * o.o.o.o.+.+.o.o.+.o.o.+.+.o.#.+.+.+.+.+.#.#.#.#.#.@.#.",
"- - = ; - - ; ; - , - - - ; - - - - - - , ; - ; - - - - , - < - = U U L = , < b.2 ; . . < , , ; - = 2 j.3.2.5.5.4.4.5.6.4.4.k.5.4.>.3.>.>.k.5.6.Z.4.4.5.p v v a k.1.<.<.q.C 6 * , - - , < < < < < e 7 7 $ - - - - - - - - - - - - - - - - - - - - - - - - ; ; - ",
"! ' - , < , , < < < < f ] ! ! ! ! ! ) ' ' ] ] ' ' ' ) ] ' ) ! ) ~ & Y c Q Q Q c b.% | c.! ' ! ' ~ e j.j.j.j.,.,.,.q.5.>.1.<.:.<.<.1.1.<.<.<.<.N 1.1.N u B B v v a 9.v b v b B 7 | ~ ! ) ~ ' | | | | | ! ! ' ! ! ! ! ) ) ! ) ! ! ! ! ! ! ! ! ~ | , ! ~ ' ' ' ' ' ",
"DXCXbX< < # , , < < < HXZXFXFXCXVXFXFXNXhXOX|.OX|.|.|.|.{..XsXvXVXzX].L.DXCXGXJ.i S w.FXCXDXCXCXZXFXFXCXCXVXX % 8 M a M <.<.>.>.Z.>.<.1.p b b m v M B n 7 n B B v m 7 + o o 0 FXFXFXZXDXDXFXZXZXCXCXCXCXCXZXFXCXCXCXFXDXDXDXVXCXCXCXCXCXCXCXZXd FXVXZXCXCXCXCXCX",
"dXjXjX` ` # # # # - LXFX|.OXOXOXOXOXOXOXuXOXOXOXOXOXOXOXOXOX|.OXOXXXJ.OXOXOX{.+.z.M.A.} XXOXOXOXOXOXOXOXOXOXOXOX%.m B M b u Z.p 5.6.>.u B B % VXMX0 % FXFXZXFX7 + CXFXFXFXFXbXjXjXaXdXjXdXjXjXjXjXjXjXjXdXdXaXjXcXCXZXZXFXCXCXmXcXmXcXjXpXaXjXd dXaXjXdXdXdXdXdX",
"jXjXjXdXpX/ # m # l CXbXuXOXOXOXOXOXOXOXOXOXOXOXOXOXOXOXXXOXOXOXOXOXOXOXOXOXL.+.q.N.u.% XXOXOXOXOXOXOXOXOXOXOXOXOX+X|.^ b B B B 1.Z.u v b n jXjXjXjXjXjXjXjXkXkXkXdXaXjXjXjXjXdXjXjXjXjXjXdXjXjXjXjXjXjXjXjXdXdXjXdXjXjXjXjXjXdXdXdXdXdXjXjXxXzXjXdXdXaXdXdXdXdX",
"jXjXdXjXxX(  .n m ! DXOXOXOXOXOXuXOXOXOXOXOXOXOXOXOXOX.XOXOXOXOXOXOXOXOXOXOXOX$.&.z.l.| OXOXOXOXOXOXOXOXOXXXOXOXOXuXXX.Xn B m B 0.q.b n CXkXdXjXjXdXdXjXjXjXjXjXjXjXjXjXjXdXjXjXdXjXjXjXjXjXjXjXjXjXjXjXjXjXjXjXjXjXjXjXjXjXdXjXjXjXjXjXjXjXc aXjXjXjXjXjXdXdXdX",
"dXjXdXaXdXZXn n m Q CXOXOXiXiXOXOXuXOXOXuXOXOXOXOXOXOXOXOXOX.XOXOXXXOXOXOXOXiXOX$.Q z.+XOXOXOXOXOXOXOXOXOXOXOXOXOXOXOXOXuXOXuX+ v B B 7 mXkXjXjXjXjXaXdXjXjXdXjXjXjXdXjXdXkXxXjXdXjXjXjXjXjXjXjXjXjXjXjXjXjXjXjXjXdXjXdXjXjXjXjXjXjXjXjXaXjXx aXdXjXjXjXdXdXdXdX",
"dXjXdXdXjXdXn m n Q + XXOX[.OXOXOXuXOXuXOXOXOXOX$X$X%X$X$X$XOXOXXXXX$XyX+XOXOXOXOX#.z OXOXXXOXXXOXOXOXOXOXOXOXOXOXOXOXOXOXOXOX{ n B M O jXjXjXjXdXjXjXjXjXjXjXjXjXjXjXdXjXjXx jXjXjXjXjXjXdXdXjXjXjXdXjXjXjXjXjXjXjXjXdXjXjXjXjXjXjXjXjXdXaXx dXjXjXjXjXjXdXdXdX",
"dXdXdXdXdXdXn n # . V m.z.OXOXOXXXOXuXOXOXOX$X$X%X-X-X-X$X$X$X+XOXOXOX-XOXOXOXOXOXOXOXOXOXOXOXOXOXOXOXOXOXOXOXXXOXOXOXOXOXXXXXo.} b b 7 jXjXjXjXjXjXjXjXjXdXjXjXjXjXdXdXjXK.jXdXjXjXjXjXjXjXjXjXdXjXdXjXjXjXjXjXjXjXjXjXjXjXjXjXaXjXaXjXxXd LXkXaXdXdXdXdXdXdXdX",
"jXdXdXdXdXjXn . C t.l.9.n.b.%.OXOXOXOX%X%X$X$X-X<XSX,X<X<X-X-X$XOXOXOXOXOXOXXXXXXXOXOXOXXXOXOXOXOXOXOXOXOXOXOXXXXXXXXXXXOXOXOX{ k v B m kXjXjXjXjXdXjXjXdXjXjXjXjXjXdXaXjXjXaXdXdXjXjXjXjXjXjXjXjXjXjXjXjXjXaXjXjXjXjXjXjXjXjXdXkXdXkXpXdXjXaXdXdXdXdXjXjXdXdXdX",
"dXdXaXdXhXjXn # u.m.l.l.z.l.z.0 OXXXXXOX+X$X;X<XJXJX2X2X,X,X-X-X$XOXOXXXOXOXOXOXXXOXOXOXXXXXOXuXOXOXOXOXOXOXOXXXOXXXOXOXOXOXOXo.} m B 7 jXjXjXdXdXjXjXjXdXdXaXjXjXjXaXaXjXaXjXdXjXjXjXjXjXjXjXdXjXjXjXjXjXdXdXjXjXdXjXjXjXjXjXaXjXaXjXx jXjXjXdXdXdXjXaXdXdXdXdX",
"dXdXaXdXdXdX# p u.4 l.l.u.l.z.[.OXXXOXOX%X-X<X,XPXIX3X3XIX>X<X-X%XOXOXOXOXOXOXOXOXOXOXOXOXOXOXOXXXOXOXOXOXOXOXOXOXOXOXOXOXOXOX-...n v ZXxXjXjXjXjXjXjXdXjXjXjXdXjXjXdXdXdXjXaXdXdXdXdXjXjXjXkXjXdXjXdXjXjXjXkXjXjXjXjXdXjXaXdXdXaXdXaXbXaXkXaXdXdXdXdXdXdXdXdXdX",
"dXdXdXdXdXdX# 2 t.( + . 5 l.m.. OXXXOX+X%X-X,X2XPXIXyXqXtX4X,X-X$X+XOXuXOXXXOXOXXXOXOXOXOXOXOXOXOXOXOXOXOXOXOXOXOXOXOXOXOXOXOXOXo.n m CXxXjXdXjXjXjXjXjXdXjXjXjXjXdXaXdXdXaXdXjXjXdXjXdXjXjXjXjXjXdXdXdXjXjXjXjXaXjXjXdXdXdXdXaXjXaXOXjXjXjXjXjXdXdXdXdXdXdXdXdX",
"dXdXdXn n jX# p t.q.` ( c ( ( 5 XXOXOXOX$X-X,X4XrXeXrXIXrX4X2X<X$X$XOXOXOXOXOXOXOXOXOXOXOXOXOXOXOXOXOXXXOXOXOXOXOXOXOXOXOXXXXXOX..; = DXxXjXjXjXjXdXjXjXjXjXjXjXdXdXaXdXdXdXjXjXdXdXjXjXjXjXjXjXjXjXjXjXjXjXjXjXdXjXjXdXdXdXdXaXjXaXjXdXjXjXjXdXjXdXdXdXdXdXdXdX",
"dXdXn V N 9.p N 5 t.J ( ( ( ( ( XXOXOXOX$X-X,X4XeXtXrXtXIX3X2X<X$X$XOXOXOXOXOXOXOXOXOXOXOXOXOXOXOXOXOXOXOXOXOXOXOXOXXXXXOXOX|.z o.< < CXxXjXjXjXjXjXjXjXjXdXjXjXjXjXdXjXaXjXjXjXjXjXjXjXjXjXjXdXdXdXjXjXjXjXjXjXaXjXjXdXdXaXaXdXdXaXdXdXjXdXdXdXdXdXdXdXdXdXdXdX",
"dXo 8.8.8.8.8.$.= P CX( ( ( ( ( OXOXOXOX$X<X,X4XeXeXIXIXqXtX2X<X$X$X-X-XOXOXOXOXOXXXOXXXOXOXOXOXOXXXXXXXOXOXOXOXXXOXOXOXo C V N 9.r = DXbXkXjXjXjXjXjXjXjXjXjXjXdXjXjXjXdXjXjXdXjXjXjXjXjXjXjXjXjXjXjXjXjXjXjXjXdXjXjXdXdXdXdXdXdXdXdXdXdXdXdXdXdXaXdXdXdXdXdXdX",
"$.$.$.8.C 9.C $.= W VXOXXXOXOX( OXOXOXOX%X-X,X2X4XrXrXwXJXPX,X-X$X-XIX2XOXOXOXOXOXOXOXOXOXOXOXOXXXXXOXOXOXOXOXXXOXOXOXOX5 V V 8.8.4 m CXmXjXdXjXjXjXjXkXjXjXjXjXaXjXjXjXjXdXdXdXjXjXjXjXjXjXjXjXjXjXjXjXjXjXdXjXjXjXdXaXdXdXdXdXdXjXdXdXaXjXaXdXdXdXdXjXdXdXdXdX",
"dXdX$.$.+.X.7 $ - Q CXuXOXOXOXOXOXOXOXOX%X%X-X,XJX4X4X4X2XPX;X-X%X$X4X<XOXOXOXXXXXXXOXOXOXOXOXXXOXOXXXOXOXOXOXOXOXOXOXOX..k C 9.C m m VXbXjXjXjXjXjXjXjXdXjXdXjXdXjXjXjXjXjXjXdXjXjXjXjXjXjXjXdXjXjXjXdXjXjXjXdXjXjXdXdXdXdXdXdXaXaXdXdXdXjXjXdXdXaXjXdXdXdXdXdX",
"dXdXaXdXjX. A K j W VXOXOXXXXXXXOXOXOXOX$X$X-X<X,X,X2X,X,XPX-X$X+XOX$X+XOXXXOXOXOXOXOXOXOXOXOXOXOXOXOXOXOXXXOXOXOX+XXXOX{.#.o.} 7 m % FXjXjXjXjXdXdXjXjXjXjXjXjXjXjXjXjXdXdXdXjXdXjXjXdXjXjXdXjXjXdXjXjXjXjXaXjXjXjXjXjXjXjXaXdXdXdXdXaXdXdXdXdXdXdXjXjXdXdXdXdX",
"q q q dX# . m _.T.9 FXOXOXOXOXOXOXOXOX$XJX-X$X-X-X<X<X<X;X-X$X+XOXOXXXOXOXOXOXOXOXOXOXOXOXOXOXOXOXXXOXOXOXXX@ &X/.~.p.oXXXOX|.. b $ < ZXdXjXjXdXaXjXjXjXjXjXjXjXjXjXdXjXdXdXjXjXdXjXjXjXjXdXjXjXdXdXdXjXjXdXaXjXdXdXjXjXjXdXaXdXdXdXjXdXdXdXdXdXdXjXdXjXdXdXdXdX",
"~.~.&Xt.t p q _.K ).bXOXOXOXXXXXOXOXXX$XIX-X$X$X%X%X%X%X$X$X$XOXOXOXOXOXOXOXXXOXOXOXOXOXOXXXOXOXOXXXOXOXOX& /.~.i.T T &XXX|.. m K j ;  .) jXjXdXdXjXjXdXjXjXjXdXjXdXdXdXdXjXjXjXjXjXdXjXjXjXdXjXjXdXaXaXdXaXdXjXdXkXdXdXdXaXdXaXjXdXdXdXdXdXdXdXdXaXdXdXdXdXdXT.",
"R.R.R.# # m i.^.E.W pXOXXXOXOXOXOXXXOXOX$X$XOXOX$X$X$X$X$XOXOXOXOXOXOXOXXXXXXXOXOXOXOXOXOXXXOXOXXXOXOXOXXX|.0 !.~.~./.F.# t p q _.T.9  . .jXjXjXjXjXjXjXjXjXjXjXjXjXjXjXaXjXjXjXjXjXjXjXjXjXjXdXdXdXdXdXaXdXdXjXdXdXdXjXdXkXjXjXdXaXdXdXdXdXdXdXdXjXjXdXdXT.T.~.",
"~./.m 2 p aXo.9 !.!.|.uXOXOXOXXXXXOXOXOXOXOXOXOXOXOXOXOXOX+XOXOXOXOXOXOXOXXXOXOXOXOXOXOXOXOXXXOXOXOXXXXXOX=.o...9 ~./.m 3 p m i._.K ). . .xXjXjXjXjXjXjXjXjXjXjXjXjXdXjXjXjXjXjXdXjXjXdXdXaXjXjXdXdXdXdXdXjXjXjXdXdXdXdXdXdXdXdXdXdXdXdXdXdXdXjXdXdXdXdXdX0 !.~.",
"q ..%.b.7 #.#.} Z W |.OXOXOXOXXXOXXXOXOXOXOXOXOXOXOX.XOXOXOXOXOXOXXXXXOXOXOXOXOXOXXXOXOXOXOXOXOXOXOX+ o v.OX|.-.o...%.b.p D o.9 ^.E.Z  . . .jXjXjXjXjXjXjXjXjXjXdXjXdXjXjXjXjXjXjXjXdXjXjXjXjXjXdXdXdXaXaXjXjXjXdXdXdXdXjXdXdXdXaXaXdXdXjXdXdXdXdXdXdXdXdXdXa.a.",
"# $ t.S `.7 #.` = ; XXOXXXXXOXOXOXOXXXOXOXOXOXOXXXOXOXXXOXOXOXOXXXXXOXOXOXOXOXOXOXOXjXl OXOXOX$X4 N N 8.N $ OXOXXX$ t.S 7 #.+.} !.!.$  . .O.jXjXjXjXdXjXjXdXjXjXjXjXdXjXjXdXjXdXdXjXdXdXdXdXdXjXdXdXdXdXdXjXdXjXdXaXdXaXdXaXaXaXaXaXjXdXdXaXaXaXdXdXaX+.$.0 o r.",
"$ 0.S !.R /.# - < < O.OXOXOXOXOXXXXXOXXXOXOXOXOXOXOXOXOXOXOXOXOXXXXXOXOXXXXXXXXXOXOX` x OXOXOXOXu N N V N C OX$X2 0.S !.`.7 [.` Z # : > O.O.$.-.dXdXjXdXdXjXfXdXjXjXjXjXfXjXjXjXdXjXdXdXdXjXjXdXfXdXjXjXjXdXaXaXjXjXjXjXhX|.-.+.+.$.+.+.+.+.$.$.$.*.*.$.$.o S j ",
"2 C o R /.K ~.6 < < Q +.|.OXOXOXOXOXOXOX+XOX.X{.-.o. .o.o.o.J..XOXOXOXOXOXOX+XOXI.+.o.{ c OXOXOXOX7 8.N V V 0.9.C o ~./.R /.# o.k - < < > < < f +.+.$.$.*.*.$.$.$.@.*.*.$.$.$.$.&.%.@.@.$.*.$.*.$.$.$.$.$.*.*.$.$.$.$.$.$.$.$.$.$.$.$.$.$.$.$.$.$.$.$.$.@.. j $X",
"9.t } R ~.i./.% < < >  .+.+.+.+.+.#.#.+.+.#.+.+.+.+.+.+.#.+.+.+.+.+.+.#.+.#.o.= ` o.o.o.o.d d o.#.#.%.4 O C B 7 +.} /.~.K ~.6 +.O., < < < < < < #.$.$.$.$.$.$.*.@.2 1 5 e @.+ 1 k.5.1 } o.+.@.*.&.+ + %.$.*.*.$.$.$.$.$.$.$.*.$.$.$.$.$.$.$.$.$.$.q q p.# q.V 0.",
"t < < b ~./.).Q < < < < < < , < < < , < , < < < , , , , , < , , < , < , < < < - , , < < < = O n C C V V N p.M.= < < b ~.i./.% < < < < < < < < < < < < < % + 5 j.x.7.7.5.5.k.5.6.7.6.5.,.2.2.q.2.3.,.,.2.n M i < < < , < < < < < , , , < < < < # 6 !.R.R.(.u.C B ",
"= ! ! ! o.9 7 @ ~ ! ! ~ ' ~ ! ~ | ' ! ~ ! f < ' ! ! ! ~ ' ' ! ! ! ! W - < < < < ) ! Q ' ~ | | % @ $ } 5 N.S u.+ ' ' l m /.).Q ! ~ ! ! ! ! ! ! ! ' ' ' ! q.<.<.k.Z.Z.Z.5.:.5.7.Z.Z.6.4.,.,.>.>.,.t.2.2.M v M v ! ! ! ! Q ! ! ! ! ! ! ! ) ' ' # `.`.`.!.!.4 O p.M.",
"u.. VXCXsXpXsXsXVXVXVXVXCXbXcXcXvXmXCXVXCXbX; NXFXFXCXDXVXVXVXVXDX$.` ` , , < ZXMXMXVXVXVXVXVXVXVXMXMX2 n.u.u.+ OXmXmXOX7 @ FXCXVXVXMXVXMXMXVXVXVXVXVXVXmX. y y 3 y >.k.5.>.>.>.>.>.>.1.>.>.,.>.v B B B i o o mXmXmXMXmXmXmXmXmXmXmXmXmXMXmXMX# q ).p.@ m N z.S ",
"u.( ( J.J.( ( ` K.K.K.L.P.L.L.P.P.P.P.P.P.P.P.CXJ.{ LXP.P.P.P.P.P.K...` ` - < CXCX|.[.[.{.|.|.{.[.[.[.w.u.u.M.{ {.[.[.-...` |.[.|.{.[.[.[.[.{.{.|.{.|.|.|.|.|.|.|.&.2 >.>.>.>.>.>.>.>.>.,.q.,.t v . MXk K.P.P.P.P.P.*.J.J.P.P.P.P.P.P.P.P.P.P.-.` ( _ } m b.w.u.",
"M.( ( J.K.L.K.K.L.P.P.P.P.P.P.P.P.P.P.P.P.P.P.FXJ.Q mXP.P.P.P.P.P.P.` ` ` W ; MXDX{.{.[.|.|.|.[.{.{.}.b.u.M.z o.{.[.[.[.{ |.{.{.|.[.|.|.|.|.{.|.|.|.{.{.{.{.{.{.[.|.[.2.1.>.a <.>.>.Z.p Z.t M B M %.vXP.P.P.P.P.P.P.P.P.P.P.P.P.P.P.P.P.P.P.P.J.J.J.J.5 b.# w.u.",
"z ( ( J.P.P.P.P.P.P.P.P.P.P.P.P.P.P.P.P.P.P.P.xXK.P.P.P.P.P.P.P.P.P.P.{ { / < MX{.[.|.|.|.{.{.{.|.{.|.i * ` [ |.[.{.[.[.[.[.[.{.|.{.|.{.{.|.[.{.|.|.{.|.{.|.[.|.{.|.|.|.4 u v v v M Z.t ,.v B B C vXP.P.P.P.P.P.P.P.P.P.P.P.P.P.P.P.P.P.P.J.^ # e -.J.t b.# w.M.",
"( ( J.K.P.P.P.P.P.P.P.P.P.P.P.P.P.P.P.P.P.P.P.P.{.P.P.P.[.[.P.P.P.P.P.` ..Q < MX{.{.|.|.|.{.{.[.|.{.|.{...J.{.|.{.|.|.|.{.[.{.|.|.|.|.|.{.{.{.{.|.|.{.{.{.{.|.[.{.{.|.|.% 7 4 o 4 M M M t t B b mXP.P.P.P.P.P.P.P.P.P.P.P.P.P.P.P.P.P.P.;.n N V V C 5 t.k ( r.* ",
"( K.P.P.P.P.P.P.P.[.P.P.P.P.[.P.P.P.P.P.P.P.P.P.bXP.P.P.{.{.[.[.[.[.{.` { ! f MX[.[.|.|.{.{.{.{.[.|.{.[.{.[.[.|.{.|.|.[.|.[.[.|.{.{.|.|.{.{.{.{.{.{.|.{.|.|.{.[.{.|.{.{.[.|.[.|.4 B v v ,.,.B B mXP.P.P.P.P.P.P.P.P.P.P.P.P.P.P.P.P.P.P.C V V V j.M t.5 _ c u.2 ",
" .P.P.P.P.P.[.[.P.[.P.P.P.P.P.P.P.P.P.P.P.{.{.P.bX{.{.P.P.{.{.{.{.{.{.` { Q l MX|.|.|.|.{.{.{.{.{.[.[.[.[.[.[.[.{.[.|.{.{.[.|.|.{.[.|.|.|.{.{.|.|.[.|.{.|.|.|.|.{.{.{.{.{.|.{.{.0 v v a ,.,.v w bXP.P.P.P.P.P.P.P.P.P.P.P.P.P.P.P.P.P.;.. u u * / b.a J ( ` 7 / ",
"P.P.P.P.P.P.P.[.P.P.P.P.P.P.P.P.P.P.P.{.{.{.{.P.P.{.{.{.{.{.{.{.{.{.[.` ` / f VX|.|.|.|.{.{.{.{.[.{.{.{.[.[.[.[.{.{.[.{.|.[.{.|.{.{.{.{.{.{.|.|.|.|.{.{.{.{.|.{.|.|.|.{.{.[.{.|.[.[.z F 3.q.v . bXP.P.P.P.P.P.P.P.P.P.P.P.P.P.P.P.P.P.` _ ` ( ( ( ( V 6 ( ( ( ` ",
"P.P.P.P.P.P.P.P.P.P.P.P.P.P.P.{.[.P.{.{.{.{.{.{.{.[.[.{.{.{.[.[.{.[.[.` ../ f VX|.|.[.[.[.[.|.[.|.{.[.[.{.{.{.{.{.{.{.[.[.[.[.{.{.{.{.{.{.|.|.|.|.{.{.|.{.|.{.{.|.|.|.{.{.[.{.{.{.{.[.F D m S w xXP.P.P.P.P.P.P.P.P.P.P.P.P.P.P.P.P.P.( ( ( P.P ( u 8.V k ( { +.",
"P.P.[.P.P.P.P.P.P.[.P.P.P.P.{.{.[.[.[.[.{.P.{.[.[.[.{.{.{.{.{.[.[.[.{.o.../ f MX|.|.|.|.{.{.|.{.|.|.|.[.[.[.{.{.[.{.[.[.[.{.[.[.|.|.|.|.|.|.{.{.[.{.|.|.{.{.{.{.{.|.|.|.{.{.|.[.|.|.|.E F F F F pXP.P.P.P.P.P.P.P.P.P.P.P.P.P.P.P.P.P.P.P.# # K /.u V 8.$ ( J.P.",
"P.P.P.P.P.P.P.P.P.[.P.P.P.[.{.{.[.[.[.{.[.[.[.[.{.{.{.{.{.{.{.[.{.[.{.K.../ l MX}.}.{.[.].{.{.[.|.|.[.{.{.{.{.|.|.|.|.|.}.{.{.[.|.|.|.|.|.|.{.{.{.{.|.|.|.{.{.{.|.[.|.{.{.{.|.|.|.|.{.o.e F F z hXP.P.P.P.P.P.P.P.P.P.P.P.P.P.P.P.P.P.P.P.b !.~.~.u u V * { P.P.",
"P.P.P.[.[.P.P.P.P.P.P.[.[.[.[.[.[.[.[.[.[.[.[.[.{.{.{.{.|. X|.|.}.oXoX].X.( l MX].|.].].@X}.|.|.v.}.}.}.}.}.1X|.oX}.}.|.|.|.[.[.{.|.|.|.|.|.|.|.{.|.|.{.{.{.|.|.|.{.{.{.|.{.{.{.|.|.{.o.e F F } jXP.P.P.P.P.P.P.P.P.P.P.P.P.P.P.P.P.P.P.P.Z /.K ~./ ( u ( P.P.P.",
"P.P.P.P.P.P.P.P.[.[.[.[.[.[.[.[.[.[.[.[.[.[.|.[.{.}.|.}.|.}.}.|.}.|.|.&.X.{ 0 CX}.}.}.}.}.}.}.7 c }.].}.}.}. X}.|.}.}.}.{.}.{.[.[.[.{.{.|.|.|.|.|.|.{.{.{.{.|.|.|.|.{.{.{.{.|.|.{.{.P.o.} F F } jXP.P.P.P.P.P.P.P.P.P.P.P.P.P.P.P.P.P.P.P.o.!.!.).0 _ ( { P.P.P.",
"P.P.P.P.P.P.P.P.[.[.[.[.[.{.{.{.[.[.[.[.[.[.{.|.}.}.}.} oX}.}.oXoXoX}.X.X...0 5 sX}.}. X XoX7 2 ].}.oX]. X}.oX}.}.}.}.}.|.{.].}.[.[.[.[.{.{.|.|.|.|.|.|.{.{.{.|.|.{.{.{.[.|.|.|.{.{.[.o.e F F | hXP.P.P.P.P.P.P.P.P.P.P.P.P.P.P.P.P.P.P.P.+.z E.+.o.( P.P.P.P.P.",
"P.P.P.P.P.{.{.{.[.[.[.[.[.[.{.{.[.[.[.[.{.{.{.].}.}.%XD.}.oX}.}.oX}.oX%.%.X.x S.zX%X#X#X#Xo S.]. XoX#X}. XoXoX X}. X}.}.}.}.}.}.}.}.[.{.[.{.{.|.|.|.{.{.{.{.[.|.|.|.|.{.|.|.|.|.{.{.P.o. .D z =.jXP.P.P.P.P.P.P.P.P.P.P.P.P.P.P.P.P.P.P.P.P.+.E } +.P.P.P.P.P.P.",
"P.P.P.[.{.{.{.{.{.{.{.{.{.{.{.{.{.[.[.[.[.{.{.'. XoX}.5  X$ #X#X XoX#X%.%.X.z 8 2 #X@X@X XS.M.#X X#XoXqX X#X#XoXoX].].}.}.}.}.}.|.{.|.[.[.{.[.[.[.[.{.|.{.|.{.{.|.|.|.|.|.{.{.{.|.{.{.o.+.x W @.zXP.P.P.P.P.P.P.P.P.P.P.P.P.P.P.P.P.P.P.P.P.$.$.P.P.P.P.P.P.P.P.",
"P.P.P.[.{.{.{.{.{.[.{.{.{.{.{.{.[.{.[.|.}.}.}.}.}.}.7 o 5 D.#X0 z @X#X'.G.X.z 6 9X@X@X@XO S.# %X@X@X XyX@X#X X#X#X#XoXoXoXoX}.}.}.}.|.|.{.{.{.{.{.{.{.{.|.|.{.{.|.{.|.{.|.|.|.{.|.|.|.` ..l l @.zXP.P.P.P.P.P.P.P.P.P.P.P.P.P.P.P.P.P.P.P.P.P.P.P.P.P.P.P.P.P.P.",
"[.[.[.[.{.{.{.{.[.[.{.{.[.[.[.[.{.{.}.}.}.}.}.oXoXoX+ D.3 $ %X#XS.2 %X'.'.E J AX9X9 *X*X9X9X=X%X@X@X@X@X@X@X@X@X#X#XoX X XoX}.}.}.}.|.}.}.{.{.|.{.{.|.{.|.|.{.{.|.|.|.{.{.{.{.{.|.|.{.` ` - <  .bXP.P.P.P.P.P.P.P.P.P.P.P.P.P.P.P.P.P.P.P.P.P.P.P.P.P.P.P.P.P.{.",
"[.[.[.[.{.{.{.{.[.[.{.[.[.[.[.[.[.}.}.}.}.oX X}.#X#X X#X6 # @X%X7 9X4 '.'.8 E AXg.8 >XO S.q ,X*X*X*X*X*X*X@X@X8 9X#X X X#XoX}.}.|.}.oX[.|.{.{.{.{.{.|.|.{.|.{.{.{.[.{.{.{.{.{.{.{.{.[.` { - < O.mXP.P.P.P.P.P.P.P.P.P.P.P.P.P.P.P.P.P.P.P.P.P.P.P.P.P.P.P.P.P.{.",
"{.{.{.{.{.{.{.[.[.[.[.[.[.[.[.{.|.{.|.}.}.oXoXoX X#X#X%X,Xp.!.=X,XW.S.j Z 9XE qXq 9X1X9XV.9 >X1X*X*X*X7 9X9 m S.w *X@X@X#X#X XoX%X}.oX}.{.}.{.|.[.{.[.|.|.[.[.{.|.|.{.{.[.|.{.[.[.[.{.` { - <  .mXP.P.P.P.P.P.P.P.P.P.P.P.P.P.P.P.P.P.P.P.P.P.P.P.P.P.P.P.P.{.[.",
"{.{.{.{.{.{.{.[.[.[.[.[.[.[.[.|.|.|.}.oXoXoX X}. X#X@X<X@Xp.q ,X@XS f.C 7 g.E AX6 0XAXS.7X*X2 7 *X*X>X*XF `.P o *X*X@X=X&  X].R E |.|.}.{.{.{.|.{.[.{.|.|.|.{.{.{.[.[.{.|.|.|.[.[.[.{.` { - <  .mXP.P.P.P.P.P.P.P.P.P.P.P.P.P.P.P.P.P.P.P.P.P.P.P.P.P.P.P.{.[.[.",
"[.[.{.{.{.{.{.{.[.[.[.[.[.[.[.|.|.|.k 0 oX X#X#X X9 E 6 '.9 9 *X=X# 6X0X8 ~.# 9 6 B.. f./.M.p.>X>Xj >X>X>Xg 6 >X*X*X@X& R.9 a.T.@ ].oXoX}.}.[.|.|.{.|.|.|.|.|.|.|.[.{.|.|.{.[.[.[.L.` ` ..- < | mXP.P.P.P.P.P.P.P.P.P.P.P.P.P.P.P.P.P.P.P.P.P.P.P.P.P.P.P.{.{.{.",
"[.[.[.{.{.{.{.{.[.[.[.[.{.{.{.{.|.|.|.S # & E #X%X9 d.W.9 E 6 W.q 7X6X6X8.Q.5X5X6 6X3 Q.8 B.8 7 6 g.).u >X# '.j &X*X*X*X,XE.&  X X}.}.}.} k {.|.{.{.|.{.|.|.|.|.{.{.[.[.{.[.[.[.$.` ` {  .: < | mXP.P.P.P.P.P.P.P.P.P.P.P.P.P.P.P.P.P.P.P.P.P.P.P.P.P.[.P.[.P.{.",
"[.[.{.{.{.{.{.[.[.[.{.[.{.|.|.OX&.&.].h i.0 b %X%X@X# Q.Q.i.6 Q.q 6XB.Q.6X6X5X5X0.6Xf.6XB.6X6X6X7XB.d.f.7 7 c.^.9 >X*X*X@Xa.%X#X X XoX.X%Xa.[.J.-.$.+.O.O.o. .o.O.O.O.+.$.+.` { ` ` ` ` < < < W mX` ` ` P.P.P.P.P.P.P.P.P.P.P.P.P.P.[.[.[.[.P.K.P.[.[.K.P.P.P.{.",
"` ` ` ` ` ` { ` ` ` { ` ` { ` ..X.g F.z a.9 R.G.9 q d.s.s.s.!.f.B.Q.0X6X5X6X5X0X6XB.5X5X5Xf.0X5X6XQ.f.Q.f.Q.p.Q.c.!.W.q # A %.X.X.j X...X.i.} * { { ` ` ` ` ` ` ` ` ` ` ` ` ` ` ` ` ` < < < < < ; { ` ` ` ` { ` ` { { ..` { { { { { { { { { { { { { { { { { { { ",
"_ ` ` ` { { { { ` ` { { { { { { # & R T.9 Y.a.j i.s.s.s.s.7X0XQ.s.Q.f.B.5Xi.^.8XB.0X6XQ.f.0Xf.i.i.i.B.s.Q.Q.V.W.d.i.T P T 9 L & R.g g X.& i.a.g { ` ` ` ` ` { { { ` { { ` ` ` { { ..] , < < < < < { { { ` ` { ` { ` ` { { { { { { { { { { { { { {  .` { { ` { { "
};
